%
(FaceplatehopefullyfinalEdges)
(T2  D=0.125 CR=0 - ZMIN=-0.0275 - flat end mill)
G90
G17
G20
G28 G91 Z0
G90

(2D Contour4)
T2 M6
S10000 M3
G54
G0 X-0.0125 Y8.1
Z0.6
Z0.2
G1 Z0.08 F30
Z-0.015
G19 G2 Y8.0875 Z-0.0275 J-0.0125 K0
G1 Y8.075
G17 G3 X0 Y8.0625 I0.0125 J0
G1 X7.75
G3 X7.7625 Y8.075 I0 J0.0125
G1 Y8.0875
G19 G3 Y8.1 Z-0.015 J0 K0.0125
G0 Z0.6
G17

(2D Contour5)
G0 X7.85 Y8.0125
Z0.6
Z0.2
G1 Z0.08 F30
Z-0.015
G18 G3 X7.8375 Z-0.0275 I-0.0125 K0
G1 X7.825
G17 G3 X7.8125 Y8 I0 J-0.0125
G1 Y0
G3 X7.825 Y-0.0125 I0.0125 J0
G1 X7.8375
G18 G2 X7.85 Z-0.015 I0 K0.0125
G0 Z0.6
G17
G28 G91 Z0
G90
G28 G91 X0 Y0
G90
M30
%
