%
(FaceplateCutoutStainlessSteel)
(T2  D=0.25 CR=0.015 - ZMIN=-0.0312 - bullnose end mill)
G90
G17
G20
G28 G91 Z0
G90

(Drill5)
T2 M6
S10000 M3
G54
G0 X7.177 Y1.5039
Z0.6
Z0.2008
G1 Z-0.0312 F30
G0 Z0.2008
Y2.4882
G1 Z-0.0312 F30
G0 Z0.2008
Y3.4724
G1 Z-0.0312 F30
G0 Z0.2008
Y4.4567
G1 Z-0.0312 F30
G0 Z0.2008
Y5.4409
G1 Z-0.0312 F30
G0 Z0.2008
Y6.4252
G1 Z-0.0312 F30
G0 Z0.2008
Y7.4094
G1 Z-0.0312 F30
G0 Z0.2008
X0.573
G1 Z-0.0312 F30
G0 Z0.2008
Y6.4252
G1 Z-0.0312 F30
G0 Z0.2008
Y5.4409
G1 Z-0.0312 F30
G0 Z0.2008
Y4.4567
G1 Z-0.0312 F30
G0 Z0.2008
Y3.4724
G1 Z-0.0312 F30
G0 Z0.2008
Y2.4882
G1 Z-0.0312 F30
G0 Z0.2008
Y1.5039
G1 Z-0.0312 F30
G0 Z0.2008
Z0.6

(2D Contour6)
X-0.2 Y-0.025
Z0.6
Z0.2
G1 Z0.08 F30
Z-0.0063
G18 G2 X-0.175 Z-0.0312 I0.025 K0.0001 F60
G1 X-0.15
G17 G3 X-0.125 Y0 I0 J0.025
G1 Y8
G3 X-0.15 Y8.025 I-0.025 J0
G1 X-0.175
G18 G3 X-0.2 Z-0.0063 I0 K0.025
G0 Z0.6
G17

(2D Contour7)
G0 X5.2469 Y5.475
Z0.6
Z0.2
G1 Z0.08 F30
Z-0.0063
G18 G2 X5.2719 Z-0.0312 I0.025 K0.0001 F60
G1 X5.2969
G17 G3 X5.3219 Y5.5 I0 J0.025
X5.0599 I-0.131 J0
G1 X5.06 Y4.4961
G3 X5.3218 I0.1309 J0
G1 X5.3219 Y5.5
G3 X5.2969 Y5.525 I-0.025 J0
G1 X5.2719
G18 G3 X5.2469 Z-0.0062 I0 K0.025
G0 Z0.2
X2.615 Y5.475
G1 Z0.08 F30
Z-0.0063
G2 X2.64 Z-0.0312 I0.025 K0.0001 F60
G1 X2.665
G17 G3 X2.69 Y5.5 I0 J0.025
X2.4282 I-0.1309 J0
G1 X2.4281 Y4.4961
G3 X2.6901 I0.131 J0
G1 X2.69 Y5.5
G3 X2.665 Y5.525 I-0.025 J0
G1 X2.64
G18 G3 X2.615 Z-0.0062 I0 K0.025
G0 Z0.6
G17
G28 G91 Z0
G90
G28 G91 X0 Y0
G90
M30
%
