%
(Faceplate)
(T1  D=0.25 CR=0 - ZMIN=-0.0305 - flat end mill)
G90
G17
G20
G28 G91 Z0
G90

(Drill1)
T1 M6
S10000 M3
G54
G0 X7.177 Y1.5039
Z0.6
Z0.2
G1 Z-0.0305 F30
G0 Z0.2
Y2.4882
G1 Z-0.0305 F30
G0 Z0.2
Y3.4724
G1 Z-0.0305 F30
G0 Z0.2
Y4.4567
G1 Z-0.0305 F30
G0 Z0.2
Y5.4409
G1 Z-0.0305 F30
G0 Z0.2
Y6.4252
G1 Z-0.0305 F30
G0 Z0.2
Y7.4094
G1 Z-0.0305 F30
G0 Z0.2
X0.573
G1 Z-0.0305 F30
G0 Z0.2
Y6.4252
G1 Z-0.0305 F30
G0 Z0.2
Y5.4409
G1 Z-0.0305 F30
G0 Z0.2
Y4.4567
G1 Z-0.0305 F30
G0 Z0.2
Y3.4724
G1 Z-0.0305 F30
G0 Z0.2
Y2.4882
G1 Z-0.0305 F30
G0 Z0.2
Y1.5039
G1 Z-0.0305 F30
G0 Z0.2
Z0.6

(2D Contour1)
X5.2469 Y5.475
Z0.6
Z0.2
G1 Z0.08 F30
Z-0.0055
G18 G2 X5.2719 Z-0.0305 I0.025 K0 F60
G1 X5.2969
G17 G3 X5.3219 Y5.5 I0 J0.025
X5.0599 I-0.131 J0
G1 X5.06 Y4.4961
G3 X5.3218 I0.1309 J0
G1 X5.3219 Y5.5
G3 X5.2969 Y5.525 I-0.025 J0
G1 X5.2719
G18 G3 X5.2469 Z-0.0055 I0 K0.025
G0 Z0.2
X2.615 Y5.475
G1 Z0.08 F30
Z-0.0055
G2 X2.64 Z-0.0305 I0.025 K0 F60
G1 X2.665
G17 G3 X2.69 Y5.5 I0 J0.025
X2.4282 I-0.1309 J0
G1 X2.4281 Y4.4961
G3 X2.6901 I0.131 J0
G1 X2.69 Y5.5
G3 X2.665 Y5.525 I-0.025 J0
G1 X2.64
G18 G3 X2.615 Z-0.0055 I0 K0.025
G0 Z0.6
G17
G28 G91 Z0
G90
G28 G91 X0 Y0
G90
M30
%
