%
(Faceplatehopefullyfinal)
(T2  D=0.125 CR=0 - ZMIN=-0.0275 - flat end mill)
G90
G17
G20
G28 G91 Z0
G90

(2D Contour4)
T2 M6
S10000 M3
G54
G0 X0.5987 Y4.4497
Z0.6
Z0.2
G1 Z0.08 F30
Z-0.015
X0.599 Y4.4498 Z-0.0178
X0.5999 Y4.45 Z-0.0204
X0.6014 Y4.4503 Z-0.0228
X0.6033 Y4.4508 Z-0.0248
X0.6056 Y4.4513 Z-0.0263
X0.6082 Y4.4519 Z-0.0272
X0.6109 Y4.4525 Z-0.0275
X0.6231 Y4.4553
G3 X0.6325 Y4.4703 I-0.0028 J0.0122
X0.5135 Y4.4431 I-0.0595 J-0.0136
X0.6325 Y4.4703 I0.0595 J0.0136
X0.6175 Y4.4797 I-0.0122 J-0.0028
G1 X0.6054 Y4.4769
X0.6027 Y4.4763 Z-0.0272
X0.6001 Y4.4757 Z-0.0263
X0.5978 Y4.4752 Z-0.0248
X0.5958 Y4.4747 Z-0.0228
X0.5944 Y4.4744 Z-0.0204
X0.5935 Y4.4742 Z-0.0178
X0.5932 Y4.4741 Z-0.015
G0 Z0.2
X0.5965 Y5.4284
G1 Z0.08 F30
Z-0.015
G18 G2 X0.609 Z-0.0275 I0.0125 K0
G1 X0.6215
G17 G3 X0.634 Y5.4409 I0 J0.0125
X0.512 I-0.061 J0
X0.634 I0.061 J0
X0.6215 Y5.4534 I-0.0125 J0
G1 X0.609
G18 G3 X0.5965 Z-0.015 I0 K0.0125
G0 Z0.2
Y6.4127
G1 Z0.08 F30
Z-0.015
G2 X0.609 Z-0.0275 I0.0125 K0
G1 X0.6215
G17 G3 X0.634 Y6.4252 I0 J0.0125
X0.512 I-0.061 J0
X0.634 I0.061 J0
X0.6215 Y6.4377 I-0.0125 J0
G1 X0.609
G18 G3 X0.5965 Z-0.015 I0 K0.0125
G0 Z0.2
Y7.3969
G1 Z0.08 F30
Z-0.015
G2 X0.609 Z-0.0275 I0.0125 K0
G1 X0.6215
G17 G3 X0.634 Y7.4094 I0 J0.0125
X0.512 I-0.061 J0
X0.634 I0.061 J0
X0.6215 Y7.4219 I-0.0125 J0
G1 X0.609
G18 G3 X0.5965 Z-0.015 I0 K0.0125
G0 Z0.2
X0.5987 Y3.4655
G1 Z0.08 F30
Z-0.015
X0.599 Y3.4656 Z-0.0178
X0.5999 Y3.4658 Z-0.0204
X0.6014 Y3.4661 Z-0.0228
X0.6033 Y3.4665 Z-0.0248
X0.6056 Y3.4671 Z-0.0263
X0.6082 Y3.4676 Z-0.0272
X0.6109 Y3.4683 Z-0.0275
X0.6231 Y3.4711
G17 G3 X0.6324 Y3.486 I-0.0028 J0.0121
X0.5136 Y3.4589 I-0.0594 J-0.0136
X0.6324 Y3.486 I0.0594 J0.0135
X0.6176 Y3.4953 I-0.0121 J-0.0028
G1 X0.6054 Y3.4926
X0.6027 Y3.492 Z-0.0272
X0.6001 Y3.4914 Z-0.0263
X0.5978 Y3.4909 Z-0.0248
X0.5958 Y3.4905 Z-0.0228
X0.5944 Y3.4901 Z-0.0204
X0.5935 Y3.4899 Z-0.0178
X0.5932 Z-0.015
G0 Z0.2
X0.5965 Y2.4757
G1 Z0.08 F30
Z-0.015
G18 G2 X0.609 Z-0.0275 I0.0125 K0
G1 X0.6215
G17 G3 X0.634 Y2.4882 I0 J0.0125
X0.512 I-0.061 J0
X0.634 I0.061 J0
X0.6215 Y2.5007 I-0.0125 J0
G1 X0.609
G18 G3 X0.5965 Z-0.015 I0 K0.0125
G0 Z0.2
Y1.4914
G1 Z0.08 F30
Z-0.015
G2 X0.609 Z-0.0275 I0.0125 K0
G1 X0.6215
G17 G3 X0.634 Y1.5039 I0 J0.0125
X0.512 I-0.061 J0
X0.634 I0.061 J0
X0.6215 Y1.5164 I-0.0125 J0
G1 X0.609
G18 G3 X0.5965 Z-0.015 I0 K0.0125
G0 Z0.2
X7.2005 Y1.4914
G1 Z0.08 F30
Z-0.015
G2 X7.213 Z-0.0275 I0.0125 K0
G1 X7.2255
G17 G3 X7.238 Y1.5039 I0 J0.0125
X7.116 I-0.061 J0
X7.238 I0.061 J0
X7.2255 Y1.5164 I-0.0125 J0
G1 X7.213
G18 G3 X7.2005 Z-0.015 I0 K0.0125
G0 Z0.2
Y2.4757
G1 Z0.08 F30
Z-0.015
G2 X7.213 Z-0.0275 I0.0125 K0
G1 X7.2255
G17 G3 X7.238 Y2.4882 I0 J0.0125
X7.116 I-0.061 J0
X7.238 I0.061 J0
X7.2255 Y2.5007 I-0.0125 J0
G1 X7.213
G18 G3 X7.2005 Z-0.015 I0 K0.0125
G0 Z0.2
Y3.4599
G1 Z0.08 F30
Z-0.015
G2 X7.213 Z-0.0275 I0.0125 K0
G1 X7.2255
G17 G3 X7.238 Y3.4724 I0 J0.0125
X7.116 I-0.061 J0
X7.238 I0.061 J0
X7.2255 Y3.4849 I-0.0125 J0
G1 X7.213
G18 G3 X7.2005 Z-0.015 I0 K0.0125
G0 Z0.2
Y4.4442
G1 Z0.08 F30
Z-0.015
G2 X7.213 Z-0.0275 I0.0125 K0
G1 X7.2255
G17 G3 X7.238 Y4.4567 I0 J0.0125
X7.116 I-0.061 J0
X7.238 I0.061 J0
X7.2255 Y4.4692 I-0.0125 J0
G1 X7.213
G18 G3 X7.2005 Z-0.015 I0 K0.0125
G0 Z0.2
Y5.4284
G1 Z0.08 F30
Z-0.015
G2 X7.213 Z-0.0275 I0.0125 K0
G1 X7.2255
G17 G3 X7.238 Y5.4409 I0 J0.0125
X7.116 I-0.061 J0
X7.238 I0.061 J0
X7.2255 Y5.4534 I-0.0125 J0
G1 X7.213
G18 G3 X7.2005 Z-0.015 I0 K0.0125
G0 Z0.2
Y6.4127
G1 Z0.08 F30
Z-0.015
G2 X7.213 Z-0.0275 I0.0125 K0
G1 X7.2255
G17 G3 X7.238 Y6.4252 I0 J0.0125
X7.116 I-0.061 J0
X7.238 I0.061 J0
X7.2255 Y6.4377 I-0.0125 J0
G1 X7.213
G18 G3 X7.2005 Z-0.015 I0 K0.0125
G0 Z0.2
Y7.3969
G1 Z0.08 F30
Z-0.015
G2 X7.213 Z-0.0275 I0.0125 K0
G1 X7.2255
G17 G3 X7.238 Y7.4094 I0 J0.0125
X7.116 I-0.061 J0
X7.238 I0.061 J0
X7.2255 Y7.4219 I-0.0125 J0
G1 X7.213
G18 G3 X7.2005 Z-0.015 I0 K0.0125
G0 Z0.6
G17
G28 G91 Z0
G90
G28 G91 X0 Y0
G90
M30
%
