%
(holddown bars )
(T1  D=0.25 CR=0 - ZMIN=-0.3765 - flat end mill)
G90
G17
G20
G28 G91 Z0
G90

(2D Contour1)
T1 M6
S10000 M3
G54
G0 X14.8 Y-0.025
Z0.6
Z0.2
G1 Z0.08 F30
Z-0.015
G18 G2 X14.825 Z-0.04 I0.025 K0 F60
G1 X14.85
G17 G3 X14.875 Y0 I0 J0.025
G1 Y1.5
G3 X14.85 Y1.525 I-0.025 J0
G1 X14.825
G18 G3 X14.8 Z-0.015 I0 K0.025
G1 Y-0.025
Z-0.055 F30
G2 X14.825 Z-0.08 I0.025 K0 F60
G1 X14.85
G17 G3 X14.875 Y0 I0 J0.025
G1 Y1.5
G3 X14.85 Y1.525 I-0.025 J0
G1 X14.825
G18 G3 X14.8 Z-0.055 I0 K0.025
G1 Y-0.025
Z-0.095 F30
G2 X14.825 Z-0.12 I0.025 K0 F60
G1 X14.85
G17 G3 X14.875 Y0 I0 J0.025
G1 Y1.5
G3 X14.85 Y1.525 I-0.025 J0
G1 X14.825
G18 G3 X14.8 Z-0.095 I0 K0.025
G1 Y-0.025
Z-0.135 F30
G2 X14.825 Z-0.16 I0.025 K0 F60
G1 X14.85
G17 G3 X14.875 Y0 I0 J0.025
G1 Y1.5
G3 X14.85 Y1.525 I-0.025 J0
G1 X14.825
G18 G3 X14.8 Z-0.135 I0 K0.025
G1 Y-0.025
Z-0.175 F30
G2 X14.825 Z-0.2 I0.025 K0 F60
G1 X14.85
G17 G3 X14.875 Y0 I0 J0.025
G1 Y1.5
G3 X14.85 Y1.525 I-0.025 J0
G1 X14.825
G18 G3 X14.8 Z-0.175 I0 K0.025
G1 Y-0.025
Z-0.215 F30
G2 X14.825 Z-0.24 I0.025 K0 F60
G1 X14.85
G17 G3 X14.875 Y0 I0 J0.025
G1 Y1.5
G3 X14.85 Y1.525 I-0.025 J0
G1 X14.825
G18 G3 X14.8 Z-0.215 I0 K0.025
G1 Y-0.025
Z-0.255 F30
G2 X14.825 Z-0.28 I0.025 K0 F60
G1 X14.85
G17 G3 X14.875 Y0 I0 J0.025
G1 Y1.5
G3 X14.85 Y1.525 I-0.025 J0
G1 X14.825
G18 G3 X14.8 Z-0.255 I0 K0.025
G1 Y-0.025
Z-0.295 F30
G2 X14.825 Z-0.32 I0.025 K0 F60
G1 X14.85
G17 G3 X14.875 Y0 I0 J0.025
G1 Y1.5
G3 X14.85 Y1.525 I-0.025 J0
G1 X14.825
G18 G3 X14.8 Z-0.295 I0 K0.025
G1 Y-0.025
Z-0.335 F30
G2 X14.825 Z-0.36 I0.025 K0 F60
G1 X14.85
G17 G3 X14.875 Y0 I0 J0.025
G1 Y1.5
G3 X14.85 Y1.525 I-0.025 J0
G1 X14.825
G18 G3 X14.8 Z-0.335 I0 K0.025
G1 Y-0.025
Z-0.3515 F30
G2 X14.825 Z-0.3765 I0.025 K0 F60
G1 X14.85
G17 G3 X14.875 Y0 I0 J0.025
G1 Y1.5
G3 X14.85 Y1.525 I-0.025 J0
G1 X14.825
G18 G3 X14.8 Z-0.3515 I0 K0.025
G0 Z0.2
X12.2
G1 Z0.08 F30
Z-0.015
G3 X12.175 Z-0.04 I-0.025 K0 F60
G1 X12.15
G17 G3 X12.125 Y1.5 I0 J-0.025
G1 Y0
G3 X12.15 Y-0.025 I0.025 J0
G1 X12.175
G18 G2 X12.2 Z-0.015 I0 K0.025
G1 Y1.525
Z-0.055 F30
G3 X12.175 Z-0.08 I-0.025 K0 F60
G1 X12.15
G17 G3 X12.125 Y1.5 I0 J-0.025
G1 Y0
G3 X12.15 Y-0.025 I0.025 J0
G1 X12.175
G18 G2 X12.2 Z-0.055 I0 K0.025
G1 Y1.525
Z-0.095 F30
G3 X12.175 Z-0.12 I-0.025 K0 F60
G1 X12.15
G17 G3 X12.125 Y1.5 I0 J-0.025
G1 Y0
G3 X12.15 Y-0.025 I0.025 J0
G1 X12.175
G18 G2 X12.2 Z-0.095 I0 K0.025
G1 Y1.525
Z-0.135 F30
G3 X12.175 Z-0.16 I-0.025 K0 F60
G1 X12.15
G17 G3 X12.125 Y1.5 I0 J-0.025
G1 Y0
G3 X12.15 Y-0.025 I0.025 J0
G1 X12.175
G18 G2 X12.2 Z-0.135 I0 K0.025
G1 Y1.525
Z-0.175 F30
G3 X12.175 Z-0.2 I-0.025 K0 F60
G1 X12.15
G17 G3 X12.125 Y1.5 I0 J-0.025
G1 Y0
G3 X12.15 Y-0.025 I0.025 J0
G1 X12.175
G18 G2 X12.2 Z-0.175 I0 K0.025
G1 Y1.525
Z-0.215 F30
G3 X12.175 Z-0.24 I-0.025 K0 F60
G1 X12.15
G17 G3 X12.125 Y1.5 I0 J-0.025
G1 Y0
G3 X12.15 Y-0.025 I0.025 J0
G1 X12.175
G18 G2 X12.2 Z-0.215 I0 K0.025
G1 Y1.525
Z-0.255 F30
G3 X12.175 Z-0.28 I-0.025 K0 F60
G1 X12.15
G17 G3 X12.125 Y1.5 I0 J-0.025
G1 Y0
G3 X12.15 Y-0.025 I0.025 J0
G1 X12.175
G18 G2 X12.2 Z-0.255 I0 K0.025
G1 Y1.525
Z-0.295 F30
G3 X12.175 Z-0.32 I-0.025 K0 F60
G1 X12.15
G17 G3 X12.125 Y1.5 I0 J-0.025
G1 Y0
G3 X12.15 Y-0.025 I0.025 J0
G1 X12.175
G18 G2 X12.2 Z-0.295 I0 K0.025
G1 Y1.525
Z-0.335 F30
G3 X12.175 Z-0.36 I-0.025 K0 F60
G1 X12.15
G17 G3 X12.125 Y1.5 I0 J-0.025
G1 Y0
G3 X12.15 Y-0.025 I0.025 J0
G1 X12.175
G18 G2 X12.2 Z-0.335 I0 K0.025
G1 Y1.525
Z-0.3515 F30
G3 X12.175 Z-0.3765 I-0.025 K0 F60
G1 X12.15
G17 G3 X12.125 Y1.5 I0 J-0.025
G1 Y0
G3 X12.15 Y-0.025 I0.025 J0
G1 X12.175
G18 G2 X12.2 Z-0.3515 I0 K0.025
G0 Z0.6
G17
G28 G91 Z0
G90
G28 G91 X0 Y0
G90
M30
%
