%
(holddown bars holes )
(T2  D=0.125 CR=0 - ZMIN=-0.3765 - ball end mill)
G90
G17
G20
G28 G91 Z0
G90

(2D Contour2)
T2 M6
S10000 M3
G54
G0 X6.3387 Y0.3682
Z0.6
Z0.2
G1 Z0.08 F30
Z-0.0275
X6.339 Z-0.0303
X6.3399 Y0.3684 Z-0.0329
X6.3414 Y0.3688 Z-0.0353
X6.3433 Y0.3692 Z-0.0373
X6.3456 Y0.3697 Z-0.0388
X6.3482 Y0.3703 Z-0.0397
X6.3509 Y0.3709 Z-0.04
X6.3631 Y0.3737
G3 X6.3725 Y0.3887 I-0.0028 J0.0122
X6.2525 Y0.3613 I-0.06 J-0.0137
X6.3725 Y0.3887 I0.06 J0.0137
X6.3575 Y0.3981 I-0.0122 J-0.0028
G1 X6.3453 Y0.3953
X6.3426 Y0.3947 Z-0.0397
X6.34 Y0.3941 Z-0.0388
X6.3377 Y0.3936 Z-0.0373
X6.3358 Y0.3931 Z-0.0353
X6.3343 Y0.3928 Z-0.0329
X6.3334 Y0.3926 Z-0.0303
X6.3331 Y0.3925 Z-0.0275
X6.3387 Y0.3682
Z-0.0675
X6.339 Z-0.0703
X6.3399 Y0.3684 Z-0.0729
X6.3414 Y0.3688 Z-0.0753
X6.3433 Y0.3692 Z-0.0773
X6.3456 Y0.3697 Z-0.0788
X6.3482 Y0.3703 Z-0.0797
X6.3509 Y0.3709 Z-0.08
X6.3631 Y0.3737
G3 X6.3725 Y0.3887 I-0.0028 J0.0122
X6.2525 Y0.3613 I-0.06 J-0.0137
X6.3725 Y0.3887 I0.06 J0.0137
X6.3575 Y0.3981 I-0.0122 J-0.0028
G1 X6.3453 Y0.3953
X6.3426 Y0.3947 Z-0.0797
X6.34 Y0.3941 Z-0.0788
X6.3377 Y0.3936 Z-0.0773
X6.3358 Y0.3931 Z-0.0753
X6.3343 Y0.3928 Z-0.0729
X6.3334 Y0.3926 Z-0.0703
X6.3331 Y0.3925 Z-0.0675
X6.3387 Y0.3682
Z-0.1075
X6.339 Z-0.1103
X6.3399 Y0.3684 Z-0.1129
X6.3414 Y0.3688 Z-0.1153
X6.3433 Y0.3692 Z-0.1173
X6.3456 Y0.3697 Z-0.1188
X6.3482 Y0.3703 Z-0.1197
X6.3509 Y0.3709 Z-0.12
X6.3631 Y0.3737
G3 X6.3725 Y0.3887 I-0.0028 J0.0122
X6.2525 Y0.3613 I-0.06 J-0.0137
X6.3725 Y0.3887 I0.06 J0.0137
X6.3575 Y0.3981 I-0.0122 J-0.0028
G1 X6.3453 Y0.3953
X6.3426 Y0.3947 Z-0.1197
X6.34 Y0.3941 Z-0.1188
X6.3377 Y0.3936 Z-0.1173
X6.3358 Y0.3931 Z-0.1153
X6.3343 Y0.3928 Z-0.1129
X6.3334 Y0.3926 Z-0.1103
X6.3331 Y0.3925 Z-0.1075
X6.3387 Y0.3682
Z-0.1475
X6.339 Z-0.1503
X6.3399 Y0.3684 Z-0.1529
X6.3414 Y0.3688 Z-0.1553
X6.3433 Y0.3692 Z-0.1573
X6.3456 Y0.3697 Z-0.1588
X6.3482 Y0.3703 Z-0.1597
X6.3509 Y0.3709 Z-0.16
X6.3631 Y0.3737
G3 X6.3725 Y0.3887 I-0.0028 J0.0122
X6.2525 Y0.3613 I-0.06 J-0.0137
X6.3725 Y0.3887 I0.06 J0.0137
X6.3575 Y0.3981 I-0.0122 J-0.0028
G1 X6.3453 Y0.3953
X6.3426 Y0.3947 Z-0.1597
X6.34 Y0.3941 Z-0.1588
X6.3377 Y0.3936 Z-0.1573
X6.3358 Y0.3931 Z-0.1553
X6.3343 Y0.3928 Z-0.1529
X6.3334 Y0.3926 Z-0.1503
X6.3331 Y0.3925 Z-0.1475
X6.3387 Y0.3682
Z-0.1875
X6.339 Z-0.1903
X6.3399 Y0.3684 Z-0.1929
X6.3414 Y0.3688 Z-0.1953
X6.3433 Y0.3692 Z-0.1973
X6.3456 Y0.3697 Z-0.1988
X6.3482 Y0.3703 Z-0.1997
X6.3509 Y0.3709 Z-0.2
X6.3631 Y0.3737
G3 X6.3725 Y0.3887 I-0.0028 J0.0122
X6.2525 Y0.3613 I-0.06 J-0.0137
X6.3725 Y0.3887 I0.06 J0.0137
X6.3575 Y0.3981 I-0.0122 J-0.0028
G1 X6.3453 Y0.3953
X6.3426 Y0.3947 Z-0.1997
X6.34 Y0.3941 Z-0.1988
X6.3377 Y0.3936 Z-0.1973
X6.3358 Y0.3931 Z-0.1953
X6.3343 Y0.3928 Z-0.1929
X6.3334 Y0.3926 Z-0.1903
X6.3331 Y0.3925 Z-0.1875
X6.3387 Y0.3682
Z-0.2275
X6.339 Z-0.2303
X6.3399 Y0.3684 Z-0.2329
X6.3414 Y0.3688 Z-0.2353
X6.3433 Y0.3692 Z-0.2373
X6.3456 Y0.3697 Z-0.2388
X6.3482 Y0.3703 Z-0.2397
X6.3509 Y0.3709 Z-0.24
X6.3631 Y0.3737
G3 X6.3725 Y0.3887 I-0.0028 J0.0122
X6.2525 Y0.3613 I-0.06 J-0.0137
X6.3725 Y0.3887 I0.06 J0.0137
X6.3575 Y0.3981 I-0.0122 J-0.0028
G1 X6.3453 Y0.3953
X6.3426 Y0.3947 Z-0.2397
X6.34 Y0.3941 Z-0.2388
X6.3377 Y0.3936 Z-0.2373
X6.3358 Y0.3931 Z-0.2353
X6.3343 Y0.3928 Z-0.2329
X6.3334 Y0.3926 Z-0.2303
X6.3331 Y0.3925 Z-0.2275
X6.3387 Y0.3682
Z-0.2675
X6.339 Z-0.2703
X6.3399 Y0.3684 Z-0.2729
X6.3414 Y0.3688 Z-0.2753
X6.3433 Y0.3692 Z-0.2773
X6.3456 Y0.3697 Z-0.2788
X6.3482 Y0.3703 Z-0.2797
X6.3509 Y0.3709 Z-0.28
X6.3631 Y0.3737
G3 X6.3725 Y0.3887 I-0.0028 J0.0122
X6.2525 Y0.3613 I-0.06 J-0.0137
X6.3725 Y0.3887 I0.06 J0.0137
X6.3575 Y0.3981 I-0.0122 J-0.0028
G1 X6.3453 Y0.3953
X6.3426 Y0.3947 Z-0.2797
X6.34 Y0.3941 Z-0.2788
X6.3377 Y0.3936 Z-0.2773
X6.3358 Y0.3931 Z-0.2753
X6.3343 Y0.3928 Z-0.2729
X6.3334 Y0.3926 Z-0.2703
X6.3331 Y0.3925 Z-0.2675
X6.3387 Y0.3682
Z-0.3075
X6.339 Z-0.3103
X6.3399 Y0.3684 Z-0.3129
X6.3414 Y0.3688 Z-0.3153
X6.3433 Y0.3692 Z-0.3173
X6.3456 Y0.3697 Z-0.3188
X6.3482 Y0.3703 Z-0.3197
X6.3509 Y0.3709 Z-0.32
X6.3631 Y0.3737
G3 X6.3725 Y0.3887 I-0.0028 J0.0122
X6.2525 Y0.3613 I-0.06 J-0.0137
X6.3725 Y0.3887 I0.06 J0.0137
X6.3575 Y0.3981 I-0.0122 J-0.0028
G1 X6.3453 Y0.3953
X6.3426 Y0.3947 Z-0.3197
X6.34 Y0.3941 Z-0.3188
X6.3377 Y0.3936 Z-0.3173
X6.3358 Y0.3931 Z-0.3153
X6.3343 Y0.3928 Z-0.3129
X6.3334 Y0.3926 Z-0.3103
X6.3331 Y0.3925 Z-0.3075
X6.3387 Y0.3682
Z-0.3475
X6.339 Z-0.3503
X6.3399 Y0.3684 Z-0.3529
X6.3414 Y0.3688 Z-0.3553
X6.3433 Y0.3692 Z-0.3573
X6.3456 Y0.3697 Z-0.3588
X6.3482 Y0.3703 Z-0.3597
X6.3509 Y0.3709 Z-0.36
X6.3631 Y0.3737
G3 X6.3725 Y0.3887 I-0.0028 J0.0122
X6.2525 Y0.3613 I-0.06 J-0.0137
X6.3725 Y0.3887 I0.06 J0.0137
X6.3575 Y0.3981 I-0.0122 J-0.0028
G1 X6.3453 Y0.3953
X6.3426 Y0.3947 Z-0.3597
X6.34 Y0.3941 Z-0.3588
X6.3377 Y0.3936 Z-0.3573
X6.3358 Y0.3931 Z-0.3553
X6.3343 Y0.3928 Z-0.3529
X6.3334 Y0.3926 Z-0.3503
X6.3331 Y0.3925 Z-0.3475
X6.3387 Y0.3682
Z-0.364
X6.339 Z-0.3668
X6.3399 Y0.3684 Z-0.3694
X6.3414 Y0.3688 Z-0.3718
X6.3433 Y0.3692 Z-0.3738
X6.3456 Y0.3697 Z-0.3753
X6.3482 Y0.3703 Z-0.3762
X6.3509 Y0.3709 Z-0.3765
X6.3631 Y0.3737
G3 X6.3725 Y0.3887 I-0.0028 J0.0122
X6.2525 Y0.3613 I-0.06 J-0.0137
X6.3725 Y0.3887 I0.06 J0.0137
X6.3575 Y0.3981 I-0.0122 J-0.0028
G1 X6.3453 Y0.3953
X6.3426 Y0.3947 Z-0.3762
X6.34 Y0.3941 Z-0.3753
X6.3377 Y0.3936 Z-0.3738
X6.3358 Y0.3931 Z-0.3718
X6.3343 Y0.3928 Z-0.3694
X6.3334 Y0.3926 Z-0.3668
X6.3331 Y0.3925 Z-0.364
G0 Z0.2
X10.2762 Y0.3682
G1 Z0.08 F30
Z-0.0275
X10.2765 Z-0.0303
X10.2774 Y0.3684 Z-0.0329
X10.2789 Y0.3688 Z-0.0353
X10.2808 Y0.3692 Z-0.0373
X10.2831 Y0.3697 Z-0.0388
X10.2857 Y0.3703 Z-0.0397
X10.2884 Y0.3709 Z-0.04
X10.3006 Y0.3737
G3 X10.31 Y0.3887 I-0.0028 J0.0122
X10.19 Y0.3613 I-0.06 J-0.0137
X10.31 Y0.3887 I0.06 J0.0137
X10.295 Y0.3981 I-0.0122 J-0.0028
G1 X10.2828 Y0.3953
X10.2801 Y0.3947 Z-0.0397
X10.2775 Y0.3941 Z-0.0388
X10.2752 Y0.3936 Z-0.0373
X10.2733 Y0.3931 Z-0.0353
X10.2718 Y0.3928 Z-0.0329
X10.2709 Y0.3926 Z-0.0303
X10.2706 Y0.3925 Z-0.0275
X10.2762 Y0.3682
Z-0.0675
X10.2765 Z-0.0703
X10.2774 Y0.3684 Z-0.0729
X10.2789 Y0.3688 Z-0.0753
X10.2808 Y0.3692 Z-0.0773
X10.2831 Y0.3697 Z-0.0788
X10.2857 Y0.3703 Z-0.0797
X10.2884 Y0.3709 Z-0.08
X10.3006 Y0.3737
G3 X10.31 Y0.3887 I-0.0028 J0.0122
X10.19 Y0.3613 I-0.06 J-0.0137
X10.31 Y0.3887 I0.06 J0.0137
X10.295 Y0.3981 I-0.0122 J-0.0028
G1 X10.2828 Y0.3953
X10.2801 Y0.3947 Z-0.0797
X10.2775 Y0.3941 Z-0.0788
X10.2752 Y0.3936 Z-0.0773
X10.2733 Y0.3931 Z-0.0753
X10.2718 Y0.3928 Z-0.0729
X10.2709 Y0.3926 Z-0.0703
X10.2706 Y0.3925 Z-0.0675
X10.2762 Y0.3682
Z-0.1075
X10.2765 Z-0.1103
X10.2774 Y0.3684 Z-0.1129
X10.2789 Y0.3688 Z-0.1153
X10.2808 Y0.3692 Z-0.1173
X10.2831 Y0.3697 Z-0.1188
X10.2857 Y0.3703 Z-0.1197
X10.2884 Y0.3709 Z-0.12
X10.3006 Y0.3737
G3 X10.31 Y0.3887 I-0.0028 J0.0122
X10.19 Y0.3613 I-0.06 J-0.0137
X10.31 Y0.3887 I0.06 J0.0137
X10.295 Y0.3981 I-0.0122 J-0.0028
G1 X10.2828 Y0.3953
X10.2801 Y0.3947 Z-0.1197
X10.2775 Y0.3941 Z-0.1188
X10.2752 Y0.3936 Z-0.1173
X10.2733 Y0.3931 Z-0.1153
X10.2718 Y0.3928 Z-0.1129
X10.2709 Y0.3926 Z-0.1103
X10.2706 Y0.3925 Z-0.1075
X10.2762 Y0.3682
Z-0.1475
X10.2765 Z-0.1503
X10.2774 Y0.3684 Z-0.1529
X10.2789 Y0.3688 Z-0.1553
X10.2808 Y0.3692 Z-0.1573
X10.2831 Y0.3697 Z-0.1588
X10.2857 Y0.3703 Z-0.1597
X10.2884 Y0.3709 Z-0.16
X10.3006 Y0.3737
G3 X10.31 Y0.3887 I-0.0028 J0.0122
X10.19 Y0.3613 I-0.06 J-0.0137
X10.31 Y0.3887 I0.06 J0.0137
X10.295 Y0.3981 I-0.0122 J-0.0028
G1 X10.2828 Y0.3953
X10.2801 Y0.3947 Z-0.1597
X10.2775 Y0.3941 Z-0.1588
X10.2752 Y0.3936 Z-0.1573
X10.2733 Y0.3931 Z-0.1553
X10.2718 Y0.3928 Z-0.1529
X10.2709 Y0.3926 Z-0.1503
X10.2706 Y0.3925 Z-0.1475
X10.2762 Y0.3682
Z-0.1875
X10.2765 Z-0.1903
X10.2774 Y0.3684 Z-0.1929
X10.2789 Y0.3688 Z-0.1953
X10.2808 Y0.3692 Z-0.1973
X10.2831 Y0.3697 Z-0.1988
X10.2857 Y0.3703 Z-0.1997
X10.2884 Y0.3709 Z-0.2
X10.3006 Y0.3737
G3 X10.31 Y0.3887 I-0.0028 J0.0122
X10.19 Y0.3613 I-0.06 J-0.0137
X10.31 Y0.3887 I0.06 J0.0137
X10.295 Y0.3981 I-0.0122 J-0.0028
G1 X10.2828 Y0.3953
X10.2801 Y0.3947 Z-0.1997
X10.2775 Y0.3941 Z-0.1988
X10.2752 Y0.3936 Z-0.1973
X10.2733 Y0.3931 Z-0.1953
X10.2718 Y0.3928 Z-0.1929
X10.2709 Y0.3926 Z-0.1903
X10.2706 Y0.3925 Z-0.1875
X10.2762 Y0.3682
Z-0.2275
X10.2765 Z-0.2303
X10.2774 Y0.3684 Z-0.2329
X10.2789 Y0.3688 Z-0.2353
X10.2808 Y0.3692 Z-0.2373
X10.2831 Y0.3697 Z-0.2388
X10.2857 Y0.3703 Z-0.2397
X10.2884 Y0.3709 Z-0.24
X10.3006 Y0.3737
G3 X10.31 Y0.3887 I-0.0028 J0.0122
X10.19 Y0.3613 I-0.06 J-0.0137
X10.31 Y0.3887 I0.06 J0.0137
X10.295 Y0.3981 I-0.0122 J-0.0028
G1 X10.2828 Y0.3953
X10.2801 Y0.3947 Z-0.2397
X10.2775 Y0.3941 Z-0.2388
X10.2752 Y0.3936 Z-0.2373
X10.2733 Y0.3931 Z-0.2353
X10.2718 Y0.3928 Z-0.2329
X10.2709 Y0.3926 Z-0.2303
X10.2706 Y0.3925 Z-0.2275
X10.2762 Y0.3682
Z-0.2675
X10.2765 Z-0.2703
X10.2774 Y0.3684 Z-0.2729
X10.2789 Y0.3688 Z-0.2753
X10.2808 Y0.3692 Z-0.2773
X10.2831 Y0.3697 Z-0.2788
X10.2857 Y0.3703 Z-0.2797
X10.2884 Y0.3709 Z-0.28
X10.3006 Y0.3737
G3 X10.31 Y0.3887 I-0.0028 J0.0122
X10.19 Y0.3613 I-0.06 J-0.0137
X10.31 Y0.3887 I0.06 J0.0137
X10.295 Y0.3981 I-0.0122 J-0.0028
G1 X10.2828 Y0.3953
X10.2801 Y0.3947 Z-0.2797
X10.2775 Y0.3941 Z-0.2788
X10.2752 Y0.3936 Z-0.2773
X10.2733 Y0.3931 Z-0.2753
X10.2718 Y0.3928 Z-0.2729
X10.2709 Y0.3926 Z-0.2703
X10.2706 Y0.3925 Z-0.2675
X10.2762 Y0.3682
Z-0.3075
X10.2765 Z-0.3103
X10.2774 Y0.3684 Z-0.3129
X10.2789 Y0.3688 Z-0.3153
X10.2808 Y0.3692 Z-0.3173
X10.2831 Y0.3697 Z-0.3188
X10.2857 Y0.3703 Z-0.3197
X10.2884 Y0.3709 Z-0.32
X10.3006 Y0.3737
G3 X10.31 Y0.3887 I-0.0028 J0.0122
X10.19 Y0.3613 I-0.06 J-0.0137
X10.31 Y0.3887 I0.06 J0.0137
X10.295 Y0.3981 I-0.0122 J-0.0028
G1 X10.2828 Y0.3953
X10.2801 Y0.3947 Z-0.3197
X10.2775 Y0.3941 Z-0.3188
X10.2752 Y0.3936 Z-0.3173
X10.2733 Y0.3931 Z-0.3153
X10.2718 Y0.3928 Z-0.3129
X10.2709 Y0.3926 Z-0.3103
X10.2706 Y0.3925 Z-0.3075
X10.2762 Y0.3682
Z-0.3475
X10.2765 Z-0.3503
X10.2774 Y0.3684 Z-0.3529
X10.2789 Y0.3688 Z-0.3553
X10.2808 Y0.3692 Z-0.3573
X10.2831 Y0.3697 Z-0.3588
X10.2857 Y0.3703 Z-0.3597
X10.2884 Y0.3709 Z-0.36
X10.3006 Y0.3737
G3 X10.31 Y0.3887 I-0.0028 J0.0122
X10.19 Y0.3613 I-0.06 J-0.0137
X10.31 Y0.3887 I0.06 J0.0137
X10.295 Y0.3981 I-0.0122 J-0.0028
G1 X10.2828 Y0.3953
X10.2801 Y0.3947 Z-0.3597
X10.2775 Y0.3941 Z-0.3588
X10.2752 Y0.3936 Z-0.3573
X10.2733 Y0.3931 Z-0.3553
X10.2718 Y0.3928 Z-0.3529
X10.2709 Y0.3926 Z-0.3503
X10.2706 Y0.3925 Z-0.3475
X10.2762 Y0.3682
Z-0.364
X10.2765 Z-0.3668
X10.2774 Y0.3684 Z-0.3694
X10.2789 Y0.3688 Z-0.3718
X10.2808 Y0.3692 Z-0.3738
X10.2831 Y0.3697 Z-0.3753
X10.2857 Y0.3703 Z-0.3762
X10.2884 Y0.3709 Z-0.3765
X10.3006 Y0.3737
G3 X10.31 Y0.3887 I-0.0028 J0.0122
X10.19 Y0.3613 I-0.06 J-0.0137
X10.31 Y0.3887 I0.06 J0.0137
X10.295 Y0.3981 I-0.0122 J-0.0028
G1 X10.2828 Y0.3953
X10.2801 Y0.3947 Z-0.3762
X10.2775 Y0.3941 Z-0.3753
X10.2752 Y0.3936 Z-0.3738
X10.2733 Y0.3931 Z-0.3718
X10.2718 Y0.3928 Z-0.3694
X10.2709 Y0.3926 Z-0.3668
X10.2706 Y0.3925 Z-0.364
G0 Z0.2
X2.399 Y0.3625
G1 Z0.08 F30
Z-0.0275
G18 G2 X2.4115 Z-0.04 I0.0125 K0
G1 X2.424
G17 G3 X2.4365 Y0.375 I0 J0.0125
X2.3135 I-0.0615 J0
X2.4365 I0.0615 J0
X2.424 Y0.3875 I-0.0125 J0
G1 X2.4115
G18 G3 X2.399 Z-0.0275 I0 K0.0125
G1 Y0.3625
Z-0.0675
G2 X2.4115 Z-0.08 I0.0125 K0
G1 X2.424
G17 G3 X2.4365 Y0.375 I0 J0.0125
X2.3135 I-0.0615 J0
X2.4365 I0.0615 J0
X2.424 Y0.3875 I-0.0125 J0
G1 X2.4115
G18 G3 X2.399 Z-0.0675 I0 K0.0125
G1 Y0.3625
Z-0.1075
G2 X2.4115 Z-0.12 I0.0125 K0
G1 X2.424
G17 G3 X2.4365 Y0.375 I0 J0.0125
X2.3135 I-0.0615 J0
X2.4365 I0.0615 J0
X2.424 Y0.3875 I-0.0125 J0
G1 X2.4115
G18 G3 X2.399 Z-0.1075 I0 K0.0125
G1 Y0.3625
Z-0.1475
G2 X2.4115 Z-0.16 I0.0125 K0
G1 X2.424
G17 G3 X2.4365 Y0.375 I0 J0.0125
X2.3135 I-0.0615 J0
X2.4365 I0.0615 J0
X2.424 Y0.3875 I-0.0125 J0
G1 X2.4115
G18 G3 X2.399 Z-0.1475 I0 K0.0125
G1 Y0.3625
Z-0.1875
G2 X2.4115 Z-0.2 I0.0125 K0
G1 X2.424
G17 G3 X2.4365 Y0.375 I0 J0.0125
X2.3135 I-0.0615 J0
X2.4365 I0.0615 J0
X2.424 Y0.3875 I-0.0125 J0
G1 X2.4115
G18 G3 X2.399 Z-0.1875 I0 K0.0125
G1 Y0.3625
Z-0.2275
G2 X2.4115 Z-0.24 I0.0125 K0
G1 X2.424
G17 G3 X2.4365 Y0.375 I0 J0.0125
X2.3135 I-0.0615 J0
X2.4365 I0.0615 J0
X2.424 Y0.3875 I-0.0125 J0
G1 X2.4115
G18 G3 X2.399 Z-0.2275 I0 K0.0125
G1 Y0.3625
Z-0.2675
G2 X2.4115 Z-0.28 I0.0125 K0
G1 X2.424
G17 G3 X2.4365 Y0.375 I0 J0.0125
X2.3135 I-0.0615 J0
X2.4365 I0.0615 J0
X2.424 Y0.3875 I-0.0125 J0
G1 X2.4115
G18 G3 X2.399 Z-0.2675 I0 K0.0125
G1 Y0.3625
Z-0.3075
G2 X2.4115 Z-0.32 I0.0125 K0
G1 X2.424
G17 G3 X2.4365 Y0.375 I0 J0.0125
X2.3135 I-0.0615 J0
X2.4365 I0.0615 J0
X2.424 Y0.3875 I-0.0125 J0
G1 X2.4115
G18 G3 X2.399 Z-0.3075 I0 K0.0125
G1 Y0.3625
Z-0.3475
G2 X2.4115 Z-0.36 I0.0125 K0
G1 X2.424
G17 G3 X2.4365 Y0.375 I0 J0.0125
X2.3135 I-0.0615 J0
X2.4365 I0.0615 J0
X2.424 Y0.3875 I-0.0125 J0
G1 X2.4115
G18 G3 X2.399 Z-0.3475 I0 K0.0125
G1 Y0.3625
Z-0.364
G2 X2.4115 Z-0.3765 I0.0125 K0
G1 X2.424
G17 G3 X2.4365 Y0.375 I0 J0.0125
X2.3135 I-0.0615 J0
X2.4365 I0.0615 J0
X2.424 Y0.3875 I-0.0125 J0
G1 X2.4115
G18 G3 X2.399 Z-0.364 I0 K0.0125
G0 Z0.6
G17
G28 G91 Z0
G90
G28 G91 X0 Y0
G90
M30
%
