%
(holddown bars holes 1)
(T3  D=0.125 CR=0 - ZMIN=-0.3965 - flat end mill)
G90
G17
G20
G28 G91 Z0
G90

(2D Contour3)
T3 M6
S10000 M3
G54
G0 X6.3424 Y0.3686
Z0.6
Z0.2
G1 Z0.08 F30
Z-0.0275
X6.3427 Y0.3687 Z-0.0303
X6.3437 Y0.3688 Z-0.0329
X6.3451 Y0.3692 Z-0.0353
X6.347 Y0.3696 Z-0.0373
X6.3494 Y0.3701 Z-0.0388
X6.3519 Y0.3706 Z-0.0397
X6.3547 Y0.3712 Z-0.04
X6.3669 Y0.3738
G3 X6.3765 Y0.3886 I-0.0026 J0.0122
X6.2485 Y0.3614 I-0.064 J-0.0136
X6.3765 Y0.3886 I0.064 J0.0136
X6.3617 Y0.3982 I-0.0122 J-0.0026
G1 X6.3495 Y0.3956
X6.3467 Y0.3951 Z-0.0397
X6.3442 Y0.3945 Z-0.0388
X6.3418 Y0.394 Z-0.0373
X6.3399 Y0.3936 Z-0.0353
X6.3385 Y0.3933 Z-0.0329
X6.3375 Y0.3931 Z-0.0303
X6.3372 Y0.393 Z-0.0275
X6.3424 Y0.3686
Z-0.0675
X6.3427 Y0.3687 Z-0.0703
X6.3437 Y0.3688 Z-0.0729
X6.3451 Y0.3692 Z-0.0753
X6.347 Y0.3696 Z-0.0773
X6.3494 Y0.3701 Z-0.0788
X6.3519 Y0.3706 Z-0.0797
X6.3547 Y0.3712 Z-0.08
X6.3669 Y0.3738
G3 X6.3765 Y0.3886 I-0.0026 J0.0122
X6.2485 Y0.3614 I-0.064 J-0.0136
X6.3765 Y0.3886 I0.064 J0.0136
X6.3617 Y0.3982 I-0.0122 J-0.0026
G1 X6.3495 Y0.3956
X6.3467 Y0.3951 Z-0.0797
X6.3442 Y0.3945 Z-0.0788
X6.3418 Y0.394 Z-0.0773
X6.3399 Y0.3936 Z-0.0753
X6.3385 Y0.3933 Z-0.0729
X6.3375 Y0.3931 Z-0.0703
X6.3372 Y0.393 Z-0.0675
X6.3424 Y0.3686
Z-0.1075
X6.3427 Y0.3687 Z-0.1103
X6.3437 Y0.3688 Z-0.1129
X6.3451 Y0.3692 Z-0.1153
X6.347 Y0.3696 Z-0.1173
X6.3494 Y0.3701 Z-0.1188
X6.3519 Y0.3706 Z-0.1197
X6.3547 Y0.3712 Z-0.12
X6.3669 Y0.3738
G3 X6.3765 Y0.3886 I-0.0026 J0.0122
X6.2485 Y0.3614 I-0.064 J-0.0136
X6.3765 Y0.3886 I0.064 J0.0136
X6.3617 Y0.3982 I-0.0122 J-0.0026
G1 X6.3495 Y0.3956
X6.3467 Y0.3951 Z-0.1197
X6.3442 Y0.3945 Z-0.1188
X6.3418 Y0.394 Z-0.1173
X6.3399 Y0.3936 Z-0.1153
X6.3385 Y0.3933 Z-0.1129
X6.3375 Y0.3931 Z-0.1103
X6.3372 Y0.393 Z-0.1075
X6.3424 Y0.3686
Z-0.1475
X6.3427 Y0.3687 Z-0.1503
X6.3437 Y0.3688 Z-0.1529
X6.3451 Y0.3692 Z-0.1553
X6.347 Y0.3696 Z-0.1573
X6.3494 Y0.3701 Z-0.1588
X6.3519 Y0.3706 Z-0.1597
X6.3547 Y0.3712 Z-0.16
X6.3669 Y0.3738
G3 X6.3765 Y0.3886 I-0.0026 J0.0122
X6.2485 Y0.3614 I-0.064 J-0.0136
X6.3765 Y0.3886 I0.064 J0.0136
X6.3617 Y0.3982 I-0.0122 J-0.0026
G1 X6.3495 Y0.3956
X6.3467 Y0.3951 Z-0.1597
X6.3442 Y0.3945 Z-0.1588
X6.3418 Y0.394 Z-0.1573
X6.3399 Y0.3936 Z-0.1553
X6.3385 Y0.3933 Z-0.1529
X6.3375 Y0.3931 Z-0.1503
X6.3372 Y0.393 Z-0.1475
X6.3424 Y0.3686
Z-0.1875
X6.3427 Y0.3687 Z-0.1903
X6.3437 Y0.3688 Z-0.1929
X6.3451 Y0.3692 Z-0.1953
X6.347 Y0.3696 Z-0.1973
X6.3494 Y0.3701 Z-0.1988
X6.3519 Y0.3706 Z-0.1997
X6.3547 Y0.3712 Z-0.2
X6.3669 Y0.3738
G3 X6.3765 Y0.3886 I-0.0026 J0.0122
X6.2485 Y0.3614 I-0.064 J-0.0136
X6.3765 Y0.3886 I0.064 J0.0136
X6.3617 Y0.3982 I-0.0122 J-0.0026
G1 X6.3495 Y0.3956
X6.3467 Y0.3951 Z-0.1997
X6.3442 Y0.3945 Z-0.1988
X6.3418 Y0.394 Z-0.1973
X6.3399 Y0.3936 Z-0.1953
X6.3385 Y0.3933 Z-0.1929
X6.3375 Y0.3931 Z-0.1903
X6.3372 Y0.393 Z-0.1875
X6.3424 Y0.3686
Z-0.2275
X6.3427 Y0.3687 Z-0.2303
X6.3437 Y0.3688 Z-0.2329
X6.3451 Y0.3692 Z-0.2353
X6.347 Y0.3696 Z-0.2373
X6.3494 Y0.3701 Z-0.2388
X6.3519 Y0.3706 Z-0.2397
X6.3547 Y0.3712 Z-0.24
X6.3669 Y0.3738
G3 X6.3765 Y0.3886 I-0.0026 J0.0122
X6.2485 Y0.3614 I-0.064 J-0.0136
X6.3765 Y0.3886 I0.064 J0.0136
X6.3617 Y0.3982 I-0.0122 J-0.0026
G1 X6.3495 Y0.3956
X6.3467 Y0.3951 Z-0.2397
X6.3442 Y0.3945 Z-0.2388
X6.3418 Y0.394 Z-0.2373
X6.3399 Y0.3936 Z-0.2353
X6.3385 Y0.3933 Z-0.2329
X6.3375 Y0.3931 Z-0.2303
X6.3372 Y0.393 Z-0.2275
X6.3424 Y0.3686
Z-0.2675
X6.3427 Y0.3687 Z-0.2703
X6.3437 Y0.3688 Z-0.2729
X6.3451 Y0.3692 Z-0.2753
X6.347 Y0.3696 Z-0.2773
X6.3494 Y0.3701 Z-0.2788
X6.3519 Y0.3706 Z-0.2797
X6.3547 Y0.3712 Z-0.28
X6.3669 Y0.3738
G3 X6.3765 Y0.3886 I-0.0026 J0.0122
X6.2485 Y0.3614 I-0.064 J-0.0136
X6.3765 Y0.3886 I0.064 J0.0136
X6.3617 Y0.3982 I-0.0122 J-0.0026
G1 X6.3495 Y0.3956
X6.3467 Y0.3951 Z-0.2797
X6.3442 Y0.3945 Z-0.2788
X6.3418 Y0.394 Z-0.2773
X6.3399 Y0.3936 Z-0.2753
X6.3385 Y0.3933 Z-0.2729
X6.3375 Y0.3931 Z-0.2703
X6.3372 Y0.393 Z-0.2675
X6.3424 Y0.3686
Z-0.3075
X6.3427 Y0.3687 Z-0.3103
X6.3437 Y0.3688 Z-0.3129
X6.3451 Y0.3692 Z-0.3153
X6.347 Y0.3696 Z-0.3173
X6.3494 Y0.3701 Z-0.3188
X6.3519 Y0.3706 Z-0.3197
X6.3547 Y0.3712 Z-0.32
X6.3669 Y0.3738
G3 X6.3765 Y0.3886 I-0.0026 J0.0122
X6.2485 Y0.3614 I-0.064 J-0.0136
X6.3765 Y0.3886 I0.064 J0.0136
X6.3617 Y0.3982 I-0.0122 J-0.0026
G1 X6.3495 Y0.3956
X6.3467 Y0.3951 Z-0.3197
X6.3442 Y0.3945 Z-0.3188
X6.3418 Y0.394 Z-0.3173
X6.3399 Y0.3936 Z-0.3153
X6.3385 Y0.3933 Z-0.3129
X6.3375 Y0.3931 Z-0.3103
X6.3372 Y0.393 Z-0.3075
X6.3424 Y0.3686
Z-0.3475
X6.3427 Y0.3687 Z-0.3503
X6.3437 Y0.3688 Z-0.3529
X6.3451 Y0.3692 Z-0.3553
X6.347 Y0.3696 Z-0.3573
X6.3494 Y0.3701 Z-0.3588
X6.3519 Y0.3706 Z-0.3597
X6.3547 Y0.3712 Z-0.36
X6.3669 Y0.3738
G3 X6.3765 Y0.3886 I-0.0026 J0.0122
X6.2485 Y0.3614 I-0.064 J-0.0136
X6.3765 Y0.3886 I0.064 J0.0136
X6.3617 Y0.3982 I-0.0122 J-0.0026
G1 X6.3495 Y0.3956
X6.3467 Y0.3951 Z-0.3597
X6.3442 Y0.3945 Z-0.3588
X6.3418 Y0.394 Z-0.3573
X6.3399 Y0.3936 Z-0.3553
X6.3385 Y0.3933 Z-0.3529
X6.3375 Y0.3931 Z-0.3503
X6.3372 Y0.393 Z-0.3475
X6.3424 Y0.3686
Z-0.384
X6.3427 Y0.3687 Z-0.3868
X6.3437 Y0.3688 Z-0.3894
X6.3451 Y0.3692 Z-0.3918
X6.347 Y0.3696 Z-0.3938
X6.3494 Y0.3701 Z-0.3953
X6.3519 Y0.3706 Z-0.3962
X6.3547 Y0.3712 Z-0.3965
X6.3669 Y0.3738
G3 X6.3765 Y0.3886 I-0.0026 J0.0122
X6.2485 Y0.3614 I-0.064 J-0.0136
X6.3765 Y0.3886 I0.064 J0.0136
X6.3617 Y0.3982 I-0.0122 J-0.0026
G1 X6.3495 Y0.3956
X6.3467 Y0.3951 Z-0.3962
X6.3442 Y0.3945 Z-0.3953
X6.3418 Y0.394 Z-0.3938
X6.3399 Y0.3936 Z-0.3918
X6.3385 Y0.3933 Z-0.3894
X6.3375 Y0.3931 Z-0.3868
X6.3372 Y0.393 Z-0.384
G0 Z0.2
X10.2799 Y0.3686
G1 Z0.08 F30
Z-0.0275
X10.2802 Y0.3687 Z-0.0303
X10.2812 Y0.3688 Z-0.0329
X10.2826 Y0.3692 Z-0.0353
X10.2845 Y0.3696 Z-0.0373
X10.2869 Y0.3701 Z-0.0388
X10.2894 Y0.3706 Z-0.0397
X10.2922 Y0.3712 Z-0.04
X10.3044 Y0.3738
G3 X10.314 Y0.3886 I-0.0026 J0.0122
X10.186 Y0.3614 I-0.064 J-0.0136
X10.314 Y0.3886 I0.064 J0.0136
X10.2992 Y0.3982 I-0.0122 J-0.0026
G1 X10.287 Y0.3956
X10.2842 Y0.3951 Z-0.0397
X10.2817 Y0.3945 Z-0.0388
X10.2793 Y0.394 Z-0.0373
X10.2774 Y0.3936 Z-0.0353
X10.276 Y0.3933 Z-0.0329
X10.275 Y0.3931 Z-0.0303
X10.2747 Y0.393 Z-0.0275
X10.2799 Y0.3686
Z-0.0675
X10.2802 Y0.3687 Z-0.0703
X10.2812 Y0.3688 Z-0.0729
X10.2826 Y0.3692 Z-0.0753
X10.2845 Y0.3696 Z-0.0773
X10.2869 Y0.3701 Z-0.0788
X10.2894 Y0.3706 Z-0.0797
X10.2922 Y0.3712 Z-0.08
X10.3044 Y0.3738
G3 X10.314 Y0.3886 I-0.0026 J0.0122
X10.186 Y0.3614 I-0.064 J-0.0136
X10.314 Y0.3886 I0.064 J0.0136
X10.2992 Y0.3982 I-0.0122 J-0.0026
G1 X10.287 Y0.3956
X10.2842 Y0.3951 Z-0.0797
X10.2817 Y0.3945 Z-0.0788
X10.2793 Y0.394 Z-0.0773
X10.2774 Y0.3936 Z-0.0753
X10.276 Y0.3933 Z-0.0729
X10.275 Y0.3931 Z-0.0703
X10.2747 Y0.393 Z-0.0675
X10.2799 Y0.3686
Z-0.1075
X10.2802 Y0.3687 Z-0.1103
X10.2812 Y0.3688 Z-0.1129
X10.2826 Y0.3692 Z-0.1153
X10.2845 Y0.3696 Z-0.1173
X10.2869 Y0.3701 Z-0.1188
X10.2894 Y0.3706 Z-0.1197
X10.2922 Y0.3712 Z-0.12
X10.3044 Y0.3738
G3 X10.314 Y0.3886 I-0.0026 J0.0122
X10.186 Y0.3614 I-0.064 J-0.0136
X10.314 Y0.3886 I0.064 J0.0136
X10.2992 Y0.3982 I-0.0122 J-0.0026
G1 X10.287 Y0.3956
X10.2842 Y0.3951 Z-0.1197
X10.2817 Y0.3945 Z-0.1188
X10.2793 Y0.394 Z-0.1173
X10.2774 Y0.3936 Z-0.1153
X10.276 Y0.3933 Z-0.1129
X10.275 Y0.3931 Z-0.1103
X10.2747 Y0.393 Z-0.1075
X10.2799 Y0.3686
Z-0.1475
X10.2802 Y0.3687 Z-0.1503
X10.2812 Y0.3688 Z-0.1529
X10.2826 Y0.3692 Z-0.1553
X10.2845 Y0.3696 Z-0.1573
X10.2869 Y0.3701 Z-0.1588
X10.2894 Y0.3706 Z-0.1597
X10.2922 Y0.3712 Z-0.16
X10.3044 Y0.3738
G3 X10.314 Y0.3886 I-0.0026 J0.0122
X10.186 Y0.3614 I-0.064 J-0.0136
X10.314 Y0.3886 I0.064 J0.0136
X10.2992 Y0.3982 I-0.0122 J-0.0026
G1 X10.287 Y0.3956
X10.2842 Y0.3951 Z-0.1597
X10.2817 Y0.3945 Z-0.1588
X10.2793 Y0.394 Z-0.1573
X10.2774 Y0.3936 Z-0.1553
X10.276 Y0.3933 Z-0.1529
X10.275 Y0.3931 Z-0.1503
X10.2747 Y0.393 Z-0.1475
X10.2799 Y0.3686
Z-0.1875
X10.2802 Y0.3687 Z-0.1903
X10.2812 Y0.3688 Z-0.1929
X10.2826 Y0.3692 Z-0.1953
X10.2845 Y0.3696 Z-0.1973
X10.2869 Y0.3701 Z-0.1988
X10.2894 Y0.3706 Z-0.1997
X10.2922 Y0.3712 Z-0.2
X10.3044 Y0.3738
G3 X10.314 Y0.3886 I-0.0026 J0.0122
X10.186 Y0.3614 I-0.064 J-0.0136
X10.314 Y0.3886 I0.064 J0.0136
X10.2992 Y0.3982 I-0.0122 J-0.0026
G1 X10.287 Y0.3956
X10.2842 Y0.3951 Z-0.1997
X10.2817 Y0.3945 Z-0.1988
X10.2793 Y0.394 Z-0.1973
X10.2774 Y0.3936 Z-0.1953
X10.276 Y0.3933 Z-0.1929
X10.275 Y0.3931 Z-0.1903
X10.2747 Y0.393 Z-0.1875
X10.2799 Y0.3686
Z-0.2275
X10.2802 Y0.3687 Z-0.2303
X10.2812 Y0.3688 Z-0.2329
X10.2826 Y0.3692 Z-0.2353
X10.2845 Y0.3696 Z-0.2373
X10.2869 Y0.3701 Z-0.2388
X10.2894 Y0.3706 Z-0.2397
X10.2922 Y0.3712 Z-0.24
X10.3044 Y0.3738
G3 X10.314 Y0.3886 I-0.0026 J0.0122
X10.186 Y0.3614 I-0.064 J-0.0136
X10.314 Y0.3886 I0.064 J0.0136
X10.2992 Y0.3982 I-0.0122 J-0.0026
G1 X10.287 Y0.3956
X10.2842 Y0.3951 Z-0.2397
X10.2817 Y0.3945 Z-0.2388
X10.2793 Y0.394 Z-0.2373
X10.2774 Y0.3936 Z-0.2353
X10.276 Y0.3933 Z-0.2329
X10.275 Y0.3931 Z-0.2303
X10.2747 Y0.393 Z-0.2275
X10.2799 Y0.3686
Z-0.2675
X10.2802 Y0.3687 Z-0.2703
X10.2812 Y0.3688 Z-0.2729
X10.2826 Y0.3692 Z-0.2753
X10.2845 Y0.3696 Z-0.2773
X10.2869 Y0.3701 Z-0.2788
X10.2894 Y0.3706 Z-0.2797
X10.2922 Y0.3712 Z-0.28
X10.3044 Y0.3738
G3 X10.314 Y0.3886 I-0.0026 J0.0122
X10.186 Y0.3614 I-0.064 J-0.0136
X10.314 Y0.3886 I0.064 J0.0136
X10.2992 Y0.3982 I-0.0122 J-0.0026
G1 X10.287 Y0.3956
X10.2842 Y0.3951 Z-0.2797
X10.2817 Y0.3945 Z-0.2788
X10.2793 Y0.394 Z-0.2773
X10.2774 Y0.3936 Z-0.2753
X10.276 Y0.3933 Z-0.2729
X10.275 Y0.3931 Z-0.2703
X10.2747 Y0.393 Z-0.2675
X10.2799 Y0.3686
Z-0.3075
X10.2802 Y0.3687 Z-0.3103
X10.2812 Y0.3688 Z-0.3129
X10.2826 Y0.3692 Z-0.3153
X10.2845 Y0.3696 Z-0.3173
X10.2869 Y0.3701 Z-0.3188
X10.2894 Y0.3706 Z-0.3197
X10.2922 Y0.3712 Z-0.32
X10.3044 Y0.3738
G3 X10.314 Y0.3886 I-0.0026 J0.0122
X10.186 Y0.3614 I-0.064 J-0.0136
X10.314 Y0.3886 I0.064 J0.0136
X10.2992 Y0.3982 I-0.0122 J-0.0026
G1 X10.287 Y0.3956
X10.2842 Y0.3951 Z-0.3197
X10.2817 Y0.3945 Z-0.3188
X10.2793 Y0.394 Z-0.3173
X10.2774 Y0.3936 Z-0.3153
X10.276 Y0.3933 Z-0.3129
X10.275 Y0.3931 Z-0.3103
X10.2747 Y0.393 Z-0.3075
X10.2799 Y0.3686
Z-0.3475
X10.2802 Y0.3687 Z-0.3503
X10.2812 Y0.3688 Z-0.3529
X10.2826 Y0.3692 Z-0.3553
X10.2845 Y0.3696 Z-0.3573
X10.2869 Y0.3701 Z-0.3588
X10.2894 Y0.3706 Z-0.3597
X10.2922 Y0.3712 Z-0.36
X10.3044 Y0.3738
G3 X10.314 Y0.3886 I-0.0026 J0.0122
X10.186 Y0.3614 I-0.064 J-0.0136
X10.314 Y0.3886 I0.064 J0.0136
X10.2992 Y0.3982 I-0.0122 J-0.0026
G1 X10.287 Y0.3956
X10.2842 Y0.3951 Z-0.3597
X10.2817 Y0.3945 Z-0.3588
X10.2793 Y0.394 Z-0.3573
X10.2774 Y0.3936 Z-0.3553
X10.276 Y0.3933 Z-0.3529
X10.275 Y0.3931 Z-0.3503
X10.2747 Y0.393 Z-0.3475
X10.2799 Y0.3686
Z-0.384
X10.2802 Y0.3687 Z-0.3868
X10.2812 Y0.3688 Z-0.3894
X10.2826 Y0.3692 Z-0.3918
X10.2845 Y0.3696 Z-0.3938
X10.2869 Y0.3701 Z-0.3953
X10.2894 Y0.3706 Z-0.3962
X10.2922 Y0.3712 Z-0.3965
X10.3044 Y0.3738
G3 X10.314 Y0.3886 I-0.0026 J0.0122
X10.186 Y0.3614 I-0.064 J-0.0136
X10.314 Y0.3886 I0.064 J0.0136
X10.2992 Y0.3982 I-0.0122 J-0.0026
G1 X10.287 Y0.3956
X10.2842 Y0.3951 Z-0.3962
X10.2817 Y0.3945 Z-0.3953
X10.2793 Y0.394 Z-0.3938
X10.2774 Y0.3936 Z-0.3918
X10.276 Y0.3933 Z-0.3894
X10.275 Y0.3931 Z-0.3868
X10.2747 Y0.393 Z-0.384
G0 Z0.2
X2.403 Y0.3625
G1 Z0.08 F30
Z-0.0275
G18 G2 X2.4155 Z-0.04 I0.0125 K0
G1 X2.428
G17 G3 X2.4405 Y0.375 I0 J0.0125
X2.3095 I-0.0655 J0
X2.4405 I0.0655 J0
X2.428 Y0.3875 I-0.0125 J0
G1 X2.4155
G18 G3 X2.403 Z-0.0275 I0 K0.0125
G1 Y0.3625
Z-0.0675
G2 X2.4155 Z-0.08 I0.0125 K0
G1 X2.428
G17 G3 X2.4405 Y0.375 I0 J0.0125
X2.3095 I-0.0655 J0
X2.4405 I0.0655 J0
X2.428 Y0.3875 I-0.0125 J0
G1 X2.4155
G18 G3 X2.403 Z-0.0675 I0 K0.0125
G1 Y0.3625
Z-0.1075
G2 X2.4155 Z-0.12 I0.0125 K0
G1 X2.428
G17 G3 X2.4405 Y0.375 I0 J0.0125
X2.3095 I-0.0655 J0
X2.4405 I0.0655 J0
X2.428 Y0.3875 I-0.0125 J0
G1 X2.4155
G18 G3 X2.403 Z-0.1075 I0 K0.0125
G1 Y0.3625
Z-0.1475
G2 X2.4155 Z-0.16 I0.0125 K0
G1 X2.428
G17 G3 X2.4405 Y0.375 I0 J0.0125
X2.3095 I-0.0655 J0
X2.4405 I0.0655 J0
X2.428 Y0.3875 I-0.0125 J0
G1 X2.4155
G18 G3 X2.403 Z-0.1475 I0 K0.0125
G1 Y0.3625
Z-0.1875
G2 X2.4155 Z-0.2 I0.0125 K0
G1 X2.428
G17 G3 X2.4405 Y0.375 I0 J0.0125
X2.3095 I-0.0655 J0
X2.4405 I0.0655 J0
X2.428 Y0.3875 I-0.0125 J0
G1 X2.4155
G18 G3 X2.403 Z-0.1875 I0 K0.0125
G1 Y0.3625
Z-0.2275
G2 X2.4155 Z-0.24 I0.0125 K0
G1 X2.428
G17 G3 X2.4405 Y0.375 I0 J0.0125
X2.3095 I-0.0655 J0
X2.4405 I0.0655 J0
X2.428 Y0.3875 I-0.0125 J0
G1 X2.4155
G18 G3 X2.403 Z-0.2275 I0 K0.0125
G1 Y0.3625
Z-0.2675
G2 X2.4155 Z-0.28 I0.0125 K0
G1 X2.428
G17 G3 X2.4405 Y0.375 I0 J0.0125
X2.3095 I-0.0655 J0
X2.4405 I0.0655 J0
X2.428 Y0.3875 I-0.0125 J0
G1 X2.4155
G18 G3 X2.403 Z-0.2675 I0 K0.0125
G1 Y0.3625
Z-0.3075
G2 X2.4155 Z-0.32 I0.0125 K0
G1 X2.428
G17 G3 X2.4405 Y0.375 I0 J0.0125
X2.3095 I-0.0655 J0
X2.4405 I0.0655 J0
X2.428 Y0.3875 I-0.0125 J0
G1 X2.4155
G18 G3 X2.403 Z-0.3075 I0 K0.0125
G1 Y0.3625
Z-0.3475
G2 X2.4155 Z-0.36 I0.0125 K0
G1 X2.428
G17 G3 X2.4405 Y0.375 I0 J0.0125
X2.3095 I-0.0655 J0
X2.4405 I0.0655 J0
X2.428 Y0.3875 I-0.0125 J0
G1 X2.4155
G18 G3 X2.403 Z-0.3475 I0 K0.0125
G1 Y0.3625
Z-0.384
G2 X2.4155 Z-0.3965 I0.0125 K0
G1 X2.428
G17 G3 X2.4405 Y0.375 I0 J0.0125
X2.3095 I-0.0655 J0
X2.4405 I0.0655 J0
X2.428 Y0.3875 I-0.0125 J0
G1 X2.4155
G18 G3 X2.403 Z-0.384 I0 K0.0125
G0 Z0.6
G17
G28 G91 Z0
G90
G28 G91 X0 Y0
G90
M30
%
