%
(FaceplateV3)
(T2  D=0.25 CR=0.015 - ZMIN=-0.082 - bullnose end mill)
G90
G17
G20
G28 G91 Z0
G90

(Drill4)
T2 M6
S10000 M3
G54
G0 X11.5531 Y1.5412
Z0.6
Z0.2
G1 Z-0.082 F30
G0 Z0.2
Y2.5255
G1 Z-0.082 F30
G0 Z0.2
Y3.5097
G1 Z-0.082 F30
G0 Z0.2
Y4.494
G1 Z-0.082 F30
G0 Z0.2
Y5.4782
G1 Z-0.082 F30
G0 Z0.2
Y6.4625
G1 Z-0.082 F30
G0 Z0.2
Y7.4467
G1 Z-0.082 F30
G0 Z0.2
X5.1969
G1 Z-0.082 F30
G0 Z0.2
Y6.4625
G1 Z-0.082 F30
G0 Z0.2
Y5.4782
G1 Z-0.082 F30
G0 Z0.2
Y4.494
G1 Z-0.082 F30
G0 Z0.2
Y3.5097
G1 Z-0.082 F30
G0 Z0.2
Y2.5255
G1 Z-0.082 F30
G0 Z0.2
Y1.5412
G1 Z-0.082 F30
G0 Z0.2
Z0.6
G28 G91 Z0
G90
G28 G91 X0 Y0
G90
M30
%
