%
(Faceplate_Holes_Final)
(T1  D=0.25 CR=0 - ZMIN=-0.0535 - flat end mill)
G90
G17
G20
G28 G91 Z0
G90

(Middle Holes )
T1 M6
S10000 M3
G54
G0 X2.5055 Y5.475
Z0.6
Z0.2
G1 Z0.08 F30
Z0.015
G18 G2 X2.5305 Z-0.01 I0.025 K0 F60
G1 X2.5555
G17 G3 X2.5805 Y5.5 I0 J0.025
X2.3187 I-0.1309 J0
G1 Y4.4961
G3 X2.5805 I0.1309 J0
G1 Y5.5
G3 X2.5555 Y5.525 I-0.025 J0
G1 X2.5305
G18 G3 X2.5055 Z0.015 I0 K0.025
G0 Z0.2
Y5.475
G1 Z0.07 F30
Z0.005
G2 X2.5305 Z-0.02 I0.025 K0 F60
G1 X2.5555
G17 G3 X2.5805 Y5.5 I0 J0.025
X2.3187 I-0.1309 J0
G1 Y4.4961
G3 X2.5805 I0.1309 J0
G1 Y5.5
G3 X2.5555 Y5.525 I-0.025 J0
G1 X2.5305
G18 G3 X2.5055 Z0.005 I0 K0.025
G0 Z0.2
Y5.475
G1 Z0.06 F30
Z0.0015
G2 X2.5305 Z-0.0235 I0.025 K0 F60
G1 X2.5555
G17 G3 X2.5805 Y5.5 I0 J0.025
X2.3187 I-0.1309 J0
G1 Y4.4961
G3 X2.5805 I0.1309 J0
G1 Y5.5
G3 X2.5555 Y5.525 I-0.025 J0
G1 X2.5305
G18 G3 X2.5055 Z0.0015 I0 K0.025
G0 Z0.2
X5.3855 Y5.475
G1 Z0.08 F30
Z0.015
G2 X5.4105 Z-0.01 I0.025 K0 F60
G1 X5.4355
G17 G3 X5.4605 Y5.5 I0 J0.025
X5.1987 I-0.1309 J0
G1 Y4.4961
G3 X5.4605 I0.1309 J0
G1 Y5.5
G3 X5.4355 Y5.525 I-0.025 J0
G1 X5.4105
G18 G3 X5.3855 Z0.015 I0 K0.025
G0 Z0.2
Y5.475
G1 Z0.07 F30
Z0.005
G2 X5.4105 Z-0.02 I0.025 K0 F60
G1 X5.4355
G17 G3 X5.4605 Y5.5 I0 J0.025
X5.1987 I-0.1309 J0
G1 Y4.4961
G3 X5.4605 I0.1309 J0
G1 Y5.5
G3 X5.4355 Y5.525 I-0.025 J0
G1 X5.4105
G18 G3 X5.3855 Z0.005 I0 K0.025
G0 Z0.2
Y5.475
G1 Z0.06 F30
Z0.0015
G2 X5.4105 Z-0.0235 I0.025 K0 F60
G1 X5.4355
G17 G3 X5.4605 Y5.5 I0 J0.025
X5.1987 I-0.1309 J0
G1 Y4.4961
G3 X5.4605 I0.1309 J0
G1 Y5.5
G3 X5.4355 Y5.525 I-0.025 J0
G1 X5.4105
G18 G3 X5.3855 Z0.0015 I0 K0.025
G0 Z0.6
G17

(Drill3)
G0 X7.177 Y1.5039
Z0.6
Z0.207
G1 Z-0.0535 F30
G0 Z0.207
Y2.4882
G1 Z-0.0535 F30
G0 Z0.207
Y3.4724
G1 Z-0.0535 F30
G0 Z0.207
Y4.4567
G1 Z-0.0535 F30
G0 Z0.207
Y5.4409
G1 Z-0.0535 F30
G0 Z0.207
Y6.4252
G1 Z-0.0535 F30
G0 Z0.207
Y7.4094
G1 Z-0.0535 F30
G0 Z0.207
X0.573
G1 Z-0.0535 F30
G0 Z0.207
Y6.4252
G1 Z-0.0535 F30
G0 Z0.207
Y5.4409
G1 Z-0.0535 F30
G0 Z0.207
Y4.4567
G1 Z-0.0535 F30
G0 Z0.207
Y3.4724
G1 Z-0.0535 F30
G0 Z0.207
Y2.4882
G1 Z-0.0535 F30
G0 Z0.207
Y1.5039
G1 Z-0.0535 F30
G0 Z0.207
Z0.6
G28 G91 Z0
G90
G28 G91 X0 Y0
G90
M30
%
