%
(FaceplateV2)
(T2  D=0.25 CR=0.015 - ZMIN=-0.042 - bullnose end mill)
G90
G17
G20
G28 G91 Z0
G90

(2D Contour3)
T2 M6
S10000 M3
G54
G0 X9.7469 Y5.475
Z0.6
Z0.2
G1 Z0.08 F30
Z-0.007
G18 G2 X9.7719 Z-0.032 I0.025 K0 F60
G1 X9.7969
G17 G3 X9.8219 Y5.5 I0 J0.025
X9.5599 I-0.131 J0
G1 X9.56 Y4.4961
G3 X9.8218 I0.1309 J0
G1 X9.8219 Y5.5
G3 X9.7969 Y5.525 I-0.025 J0
G1 X9.7719
G18 G3 X9.7469 Z-0.007 I0 K0.025
G0 Z0.2
X7.115 Y4.4711
G1 Z0.08 F30
Z-0.007
G2 X7.14 Z-0.032 I0.025 K0 F60
G1 X7.165
G17 G3 X7.19 Y4.4961 I0 J0.025
G1 Y5.5
G3 X6.9282 I-0.1309 J0
G1 X6.9281 Y4.4961
G3 X7.1901 I0.131 J0
X7.165 Y4.5212 I-0.0251 J0
G1 X7.14 Y4.5211
G18 G3 X7.115 Z-0.007 I0 K0.025
G0 Z0.6
G17

(Drill4)
G0 X11.5531 Y1.5412
Z0.6
Z0.2
G1 Z-0.042 F30
G0 Z0.2
Y2.5255
G1 Z-0.042 F30
G0 Z0.2
Y3.5097
G1 Z-0.042 F30
G0 Z0.2
Y4.494
G1 Z-0.042 F30
G0 Z0.2
Y5.4782
G1 Z-0.042 F30
G0 Z0.2
Y6.4625
G1 Z-0.042 F30
G0 Z0.2
Y7.4467
G1 Z-0.042 F30
G0 Z0.2
X5.1969
G1 Z-0.042 F30
G0 Z0.2
Y6.4625
G1 Z-0.042 F30
G0 Z0.2
Y5.4782
G1 Z-0.042 F30
G0 Z0.2
Y4.494
G1 Z-0.042 F30
G0 Z0.2
Y3.5097
G1 Z-0.042 F30
G0 Z0.2
Y2.5255
G1 Z-0.042 F30
G0 Z0.2
Y1.5412
G1 Z-0.042 F30
G0 Z0.2
Z0.6
G28 G91 Z0
G90
G28 G91 X0 Y0
G90
M30
%
