%
(FaceplateCutout)
(T2  D=0.25 CR=0.015 - ZMIN=0 - bullnose end mill)
G90
G17
G20
G28 G91 Z0
G90

(2D Contour5)
T2 M6
S10000 M3
G54
G0 X4.3 Y-0.025
Z0.6
Z0.2
G1 Z0.08 F30
Z0.025
G18 G2 X4.325 Z0 I0.025 K0 F60
G1 X4.35
G17 G3 X4.375 Y0 I0 J0.025
G1 Y8
G2 X4.5 Y8.125 I0.125 J0
G1 X12.25
G3 X12.275 Y8.15 I0 J0.025
G1 Y8.175
G19 G3 Y8.2 Z0.025 J0 K0.025
G0 Z0.6
G17
G28 G91 Z0
G90
G28 G91 X0 Y0
G90
M30
%
