%
(Faceplate_Holes_FinalCorner)
(T1  D=0.25 CR=0 - ZMIN=-0.0235 - flat end mill)
G90
G17
G20
G28 G91 Z0
G90

(2D Contour10)
T1 M6
S10000 M3
G54
G0 X7.95 Y8.025
Z0.6
Z0.2
G1 Z0.08 F30
Z0.015
G18 G3 X7.925 Z-0.01 I-0.025 K0 F60
G1 X7.9
G17 G3 X7.875 Y8 I0 J-0.025
G1 Y0
G3 X7.9 Y-0.025 I0.025 J0
G1 X7.925
G18 G2 X7.95 Z0.015 I0 K0.025
G0 Z0.2
Y8.025
G1 Z0.07 F30
Z0.005
G3 X7.925 Z-0.02 I-0.025 K0 F60
G1 X7.9
G17 G3 X7.875 Y8 I0 J-0.025
G1 Y0
G3 X7.9 Y-0.025 I0.025 J0
G1 X7.925
G18 G2 X7.95 Z0.005 I0 K0.025
G0 Z0.2
Y8.025
G1 Z0.06 F30
Z0.0015
G3 X7.925 Z-0.0235 I-0.025 K0 F60
G1 X7.9
G17 G3 X7.875 Y8 I0 J-0.025
G1 Y0
G3 X7.9 Y-0.025 I0.025 J0
G1 X7.925
G18 G2 X7.95 Z0.0015 I0 K0.025
G0 Z0.6
G17
G28 G91 Z0
G90
G28 G91 X0 Y0
G90
M30
%
