%
(Faceplate_Holes_Corner)
(T1  D=0.25 CR=0 - ZMIN=-0.0235 - flat end mill)
G90
G17
G20
G28 G91 Z0
G90

(2D Contour10)
T1 M6
S10000 M3
G54
G0 X-0.2 Y-0.025
Z0.6
Z0.2
G1 Z0.08 F30
Z0.015
G18 G2 X-0.175 Z-0.01 I0.025 K0 F60
G1 X-0.15
G17 G3 X-0.125 Y0 I0 J0.025
G1 Y8
G2 X0 Y8.125 I0.125 J0
G1 X7.75
G3 X7.775 Y8.15 I0 J0.025
G1 Y8.175
G19 G3 Y8.2 Z0.015 J0 K0.025
G0 Z0.2
X-0.2 Y-0.025
G1 Z0.07 F30
Z0.005
G18 G2 X-0.175 Z-0.02 I0.025 K0 F60
G1 X-0.15
G17 G3 X-0.125 Y0 I0 J0.025
G1 Y8
G2 X0 Y8.125 I0.125 J0
G1 X7.75
G3 X7.775 Y8.15 I0 J0.025
G1 Y8.175
G19 G3 Y8.2 Z0.005 J0 K0.025
G0 Z0.2
X-0.2 Y-0.025
G1 Z0.06 F30
Z0.0015
G18 G2 X-0.175 Z-0.0235 I0.025 K0 F60
G1 X-0.15
G17 G3 X-0.125 Y0 I0 J0.025
G1 Y8
G2 X0 Y8.125 I0.125 J0
G1 X7.75
G3 X7.775 Y8.15 I0 J0.025
G1 Y8.175
G19 G3 Y8.2 Z0.0015 J0 K0.025
G0 Z0.6
G17
G28 G91 Z0
G90
G28 G91 X0 Y0
G90
M30
%
