%
(2D Contour1)
(T2  D=3.175 CR=0 - ZMIN=-7.528 - ball end mill)
G90
G17
G21
G28 G91 Z0
G90

(2D Contour1)
T2 M6
S10000 M3
G54
M7
G0 X45.117 Y-2.54
Z15
Z5
G1 Z2 F762
Z-0.683
G19 G3 Y-2.223 Z-1 J0.317 K0
G1 Y-1.905
G17 G3 X44.8 Y-1.588 I-0.317 J0
G1 X0 Y-1.587
G2 X-1.587 Y0 I0 J1.587
G1 Y15.478
G2 X0 Y17.065 I1.587 J0
G1 X5
G2 X6.587 Y15.478 I0 J-1.587
G1 X6.588 Y9.587
X44.8
G2 X46.387 Y8 I0 J-1.587
G1 Y0
G2 X44.8 Y-1.587 I-1.587 J0
G3 X44.482 Y-1.905 I0 J-0.318
G1 Y-2.223
G19 G2 Y-2.54 Z-0.683 J0 K0.317
G1 X45.117
Z-1.683
G3 Y-2.223 Z-2 J0.317 K0
G1 Y-1.905
G17 G3 X44.8 Y-1.588 I-0.317 J0
G1 X0 Y-1.587
G2 X-1.587 Y0 I0 J1.587
G1 Y15.478
G2 X0 Y17.065 I1.587 J0
G1 X5
G2 X6.587 Y15.478 I0 J-1.587
G1 X6.588 Y9.587
X44.8
G2 X46.387 Y8 I0 J-1.587
G1 Y0
G2 X44.8 Y-1.587 I-1.587 J0
G3 X44.482 Y-1.905 I0 J-0.318
G1 Y-2.223
G19 G2 Y-2.54 Z-1.683 J0 K0.317
G1 X45.117
Z-2.683
G3 Y-2.223 Z-2.999 J0.317 K0.001
G1 Y-1.905 Z-3
G17 G3 X44.8 Y-1.588 I-0.317 J0
G1 X0 Y-1.587
G2 X-1.587 Y0 I0 J1.587
G1 Y15.478
G2 X0 Y17.065 I1.587 J0
G1 X5
G2 X6.587 Y15.478 I0 J-1.587
G1 X6.588 Y9.587
X44.8
G2 X46.387 Y8 I0 J-1.587
G1 Y0
G2 X44.8 Y-1.587 I-1.587 J0
G3 X44.482 Y-1.905 I0 J-0.318
G1 Y-2.223
G19 G2 Y-2.541 Z-2.683 J0 K0.318
G1 X45.117 Y-2.54
Z-3.683
G3 Y-2.223 Z-3.999 J0.317 K0.001
G1 Y-1.905 Z-4
G17 G3 X44.8 Y-1.588 I-0.317 J0
G1 X0 Y-1.587
G2 X-1.587 Y0 I0 J1.587
G1 Y15.478
G2 X0 Y17.065 I1.587 J0
G1 X5
G2 X6.587 Y15.478 I0 J-1.587
G1 X6.588 Y9.587
X44.8
G2 X46.387 Y8 I0 J-1.587
G1 Y0
G2 X44.8 Y-1.587 I-1.587 J0
G3 X44.482 Y-1.905 I0 J-0.318
G1 Y-2.223
G19 G2 Y-2.541 Z-3.683 J0 K0.318
G1 X45.117 Y-2.54
Z-4.683
G3 Y-2.223 Z-4.999 J0.317 K0.001
G1 Y-1.905 Z-5
G17 G3 X44.8 Y-1.588 I-0.317 J0
G1 X0 Y-1.587
G2 X-1.587 Y0 I0 J1.587
G1 Y15.478
G2 X0 Y17.065 I1.587 J0
G1 X5
G2 X6.587 Y15.478 I0 J-1.587
G1 X6.588 Y9.587
X44.8
G2 X46.387 Y8 I0 J-1.587
G1 Y0
G2 X44.8 Y-1.587 I-1.587 J0
G3 X44.482 Y-1.905 I0 J-0.318
G1 Y-2.223
G19 G2 Y-2.541 Z-4.683 J0 K0.318
G1 X45.117 Y-2.54
Z-5.683
G3 Y-2.223 Z-5.999 J0.317 K0.001
G1 Y-1.905 Z-6
G17 G3 X44.8 Y-1.588 I-0.317 J0
G1 X0 Y-1.587
G2 X-1.587 Y0 I0 J1.587
G1 Y15.478
G2 X0 Y17.065 I1.587 J0
G1 X5
G2 X6.587 Y15.478 I0 J-1.587
G1 X6.588 Y9.587
X44.8
G2 X46.387 Y8 I0 J-1.587
G1 Y0
G2 X44.8 Y-1.587 I-1.587 J0
G3 X44.482 Y-1.905 I0 J-0.318
G1 Y-2.223
G19 G2 Y-2.541 Z-5.683 J0 K0.318
G1 X45.117 Y-2.54
Z-6.683
G3 Y-2.223 Z-6.999 J0.317 K0.001
G1 Y-1.905 Z-7
G17 G3 X44.8 Y-1.588 I-0.317 J0
G1 X0 Y-1.587
G2 X-1.587 Y0 I0 J1.587
G1 Y15.478
G2 X0 Y17.065 I1.587 J0
G1 X5
G2 X6.587 Y15.478 I0 J-1.587
G1 X6.588 Y9.587
X44.8
G2 X46.387 Y8 I0 J-1.587
G1 Y0
G2 X44.8 Y-1.587 I-1.587 J0
G3 X44.482 Y-1.905 I0 J-0.318
G1 Y-2.223
G19 G2 Y-2.541 Z-6.683 J0 K0.318
G1 X45.117 Y-2.54
Z-7.21
G3 Y-2.223 Z-7.527 J0.317 K0
G1 Y-1.905 Z-7.528
G17 G3 X44.8 Y-1.588 I-0.317 J0
G1 X0 Y-1.587
G2 X-1.587 Y0 I0 J1.587
G1 Y15.478
G2 X0 Y17.065 I1.587 J0
G1 X5
G2 X6.587 Y15.478 I0 J-1.587
G1 X6.588 Y9.587
X44.8
G2 X46.387 Y8 I0 J-1.587
G1 Y0
G2 X44.8 Y-1.587 I-1.587 J0
G3 X44.482 Y-1.905 I0 J-0.318
G1 Y-2.223
G19 G2 Y-2.541 Z-7.21 J0 K0.318
G0 Y-2.54 Z15
G17
M9
G28 G91 Z0
G90
G28 G91 X0 Y0
G90
M30
%
