%
(2D Contour1)
(T1  D=0.25 CR=0 - ZMIN=-0.2675 - flat end mill)
G90
G17
G20
G28 G91 Z0
G90

(2D Contour1)
T1 M6
S10000 M3
G54
G0 X11.7625 Y12.025
Z0.6
Z0.2
G1 Z0.08 F30
Z0.005
G18 G3 X11.7375 Z-0.02 I-0.025 K0 F60
G1 X11.7125
G17 G3 X11.6875 Y12 I0 J-0.025
G1 Y0
G3 X11.7125 Y-0.025 I0.025 J0
G1 X11.7375
G18 G2 X11.7625 Z0.005 I0 K0.025
G0 Z0.2
Y12.025
G1 Z0.06 F30
Z-0.015
G3 X11.7375 Z-0.04 I-0.025 K0 F60
G1 X11.7125
G17 G3 X11.6875 Y12 I0 J-0.025
G1 Y0
G3 X11.7125 Y-0.025 I0.025 J0
G1 X11.7375
G18 G2 X11.7625 Z-0.015 I0 K0.025
G0 Z0.2
Y12.025
G1 Z0.04 F30
Z-0.035
G3 X11.7375 Z-0.06 I-0.025 K0 F60
G1 X11.7125
G17 G3 X11.6875 Y12 I0 J-0.025
G1 Y0
G3 X11.7125 Y-0.025 I0.025 J0
G1 X11.7375
G18 G2 X11.7625 Z-0.035 I0 K0.025
G0 Z0.2
Y12.025
G1 Z0.02 F30
Z-0.055
G3 X11.7375 Z-0.08 I-0.025 K0 F60
G1 X11.7125
G17 G3 X11.6875 Y12 I0 J-0.025
G1 Y0
G3 X11.7125 Y-0.025 I0.025 J0
G1 X11.7375
G18 G2 X11.7625 Z-0.055 I0 K0.025
G0 Z0.2
Y12.025
G1 Z0 F30
Z-0.075
G3 X11.7375 Z-0.1 I-0.025 K0 F60
G1 X11.7125
G17 G3 X11.6875 Y12 I0 J-0.025
G1 Y0
G3 X11.7125 Y-0.025 I0.025 J0
G1 X11.7375
G18 G2 X11.7625 Z-0.075 I0 K0.025
G0 Z0.2
Y12.025
G1 Z-0.02 F30
Z-0.095
G3 X11.7375 Z-0.12 I-0.025 K0 F60
G1 X11.7125
G17 G3 X11.6875 Y12 I0 J-0.025
G1 Y0
G3 X11.7125 Y-0.025 I0.025 J0
G1 X11.7375
G18 G2 X11.7625 Z-0.095 I0 K0.025
G0 Z0.2
Y12.025
G1 Z-0.04 F30
Z-0.115
G3 X11.7375 Z-0.14 I-0.025 K0 F60
G1 X11.7125
G17 G3 X11.6875 Y12 I0 J-0.025
G1 Y0
G3 X11.7125 Y-0.025 I0.025 J0
G1 X11.7375
G18 G2 X11.7625 Z-0.115 I0 K0.025
G0 Z0.2
Y12.025
G1 Z-0.06 F30
Z-0.135
G3 X11.7375 Z-0.16 I-0.025 K0 F60
G1 X11.7125
G17 G3 X11.6875 Y12 I0 J-0.025
G1 Y0
G3 X11.7125 Y-0.025 I0.025 J0
G1 X11.7375
G18 G2 X11.7625 Z-0.135 I0 K0.025
G0 Z0.2
Y12.025
G1 Z-0.08 F30
Z-0.155
G3 X11.7375 Z-0.18 I-0.025 K0 F60
G1 X11.7125
G17 G3 X11.6875 Y12 I0 J-0.025
G1 Y0
G3 X11.7125 Y-0.025 I0.025 J0
G1 X11.7375
G18 G2 X11.7625 Z-0.155 I0 K0.025
G0 Z0.2
Y12.025
G1 Z-0.1 F30
Z-0.175
G3 X11.7375 Z-0.2 I-0.025 K0 F60
G1 X11.7125
G17 G3 X11.6875 Y12 I0 J-0.025
G1 Y0
G3 X11.7125 Y-0.025 I0.025 J0
G1 X11.7375
G18 G2 X11.7625 Z-0.175 I0 K0.025
G0 Z0.2
Y12.025
G1 Z-0.12 F30
Z-0.195
G3 X11.7375 Z-0.22 I-0.025 K0 F60
G1 X11.7125
G17 G3 X11.6875 Y12 I0 J-0.025
G1 Y0
G3 X11.7125 Y-0.025 I0.025 J0
G1 X11.7375
G18 G2 X11.7625 Z-0.195 I0 K0.025
G0 Z0.2
Y12.025
G1 Z-0.14 F30
Z-0.215
G3 X11.7375 Z-0.24 I-0.025 K0 F60
G1 X11.7125
G17 G3 X11.6875 Y12 I0 J-0.025
G1 Y0
G3 X11.7125 Y-0.025 I0.025 J0
G1 X11.7375
G18 G2 X11.7625 Z-0.215 I0 K0.025
G0 Z0.2
Y12.025
G1 Z-0.16 F30
Z-0.235
G3 X11.7375 Z-0.26 I-0.025 K0 F60
G1 X11.7125
G17 G3 X11.6875 Y12 I0 J-0.025
G1 Y0
G3 X11.7125 Y-0.025 I0.025 J0
G1 X11.7375
G18 G2 X11.7625 Z-0.235 I0 K0.025
G0 Z0.2
Y12.025
G1 Z-0.18 F30
Z-0.2425
G3 X11.7375 Z-0.2675 I-0.025 K0 F60
G1 X11.7125
G17 G3 X11.6875 Y12 I0 J-0.025
G1 Y0
G3 X11.7125 Y-0.025 I0.025 J0
G1 X11.7375
G18 G2 X11.7625 Z-0.2425 I0 K0.025
G0 Z0.6
G17
G28 G91 Z0
G90
G28 G91 X0 Y0
G90
M30
%
