%
(Board Holes)
(T1  D=0.25 CR=0 - ZMIN=-0.387 - flat end mill)
G90
G17
G20
G28 G91 Z0
G90

(2D Contour1)
T1 M6
S10000 M3
G54
G0 X12.4283 Y1.4206
Z0.75
G1 Z-0.015 F30
X12.4286 Y1.4207 Z-0.0189 F60
X12.4295 Y1.4208 Z-0.0227
X12.431 Y1.4211 Z-0.0263
X12.433 Y1.4214 Z-0.0297
X12.4355 Y1.4218 Z-0.0327
X12.4385 Y1.4222 Z-0.0352
X12.4418 Y1.4228 Z-0.0373
X12.4454 Y1.4233 Z-0.0388
X12.4491 Y1.4239 Z-0.0397
X12.453 Y1.4245 Z-0.04
X12.4777 Y1.4285
G3 X12.4984 Y1.457 I-0.0039 J0.0246
X12.2516 Y1.418 I-0.1234 J-0.0195
X12.4984 Y1.457 I0.1234 J0.0195
X12.4699 Y1.4777 I-0.0246 J-0.0039
G1 X12.4452 Y1.4739
X12.4413 Y1.4733 Z-0.0397
X12.4375 Y1.4727 Z-0.0388
X12.434 Y1.4721 Z-0.0373
X12.4307 Y1.4716 Z-0.0352
X12.4277 Y1.4712 Z-0.0327
X12.4252 Y1.4708 Z-0.0297
X12.4232 Y1.4704 Z-0.0263
X12.4217 Y1.4702 Z-0.0227
X12.4208 Y1.4701 Z-0.0189
X12.4205 Y1.47 Z-0.015
X12.4283 Y1.4206
Z-0.055 F30
X12.4286 Y1.4207 Z-0.0589 F60
X12.4295 Y1.4208 Z-0.0627
X12.431 Y1.4211 Z-0.0663
X12.433 Y1.4214 Z-0.0697
X12.4355 Y1.4218 Z-0.0727
X12.4385 Y1.4222 Z-0.0752
X12.4418 Y1.4228 Z-0.0773
X12.4454 Y1.4233 Z-0.0788
X12.4491 Y1.4239 Z-0.0797
X12.453 Y1.4245 Z-0.08
X12.4777 Y1.4285
G3 X12.4984 Y1.457 I-0.0039 J0.0246
X12.2516 Y1.418 I-0.1234 J-0.0195
X12.4984 Y1.457 I0.1234 J0.0195
X12.4699 Y1.4777 I-0.0246 J-0.0039
G1 X12.4452 Y1.4739
X12.4413 Y1.4733 Z-0.0797
X12.4375 Y1.4727 Z-0.0788
X12.434 Y1.4721 Z-0.0773
X12.4307 Y1.4716 Z-0.0752
X12.4277 Y1.4712 Z-0.0727
X12.4252 Y1.4708 Z-0.0697
X12.4232 Y1.4704 Z-0.0663
X12.4217 Y1.4702 Z-0.0627
X12.4208 Y1.4701 Z-0.0589
X12.4205 Y1.47 Z-0.055
X12.4283 Y1.4206
Z-0.095 F30
X12.4286 Y1.4207 Z-0.0989 F60
X12.4295 Y1.4208 Z-0.1027
X12.431 Y1.4211 Z-0.1063
X12.433 Y1.4214 Z-0.1097
X12.4355 Y1.4218 Z-0.1127
X12.4385 Y1.4222 Z-0.1152
X12.4418 Y1.4228 Z-0.1173
X12.4454 Y1.4233 Z-0.1188
X12.4491 Y1.4239 Z-0.1197
X12.453 Y1.4245 Z-0.12
X12.4777 Y1.4285
G3 X12.4984 Y1.457 I-0.0039 J0.0246
X12.2516 Y1.418 I-0.1234 J-0.0195
X12.4984 Y1.457 I0.1234 J0.0195
X12.4699 Y1.4777 I-0.0246 J-0.0039
G1 X12.4452 Y1.4739
X12.4413 Y1.4733 Z-0.1197
X12.4375 Y1.4727 Z-0.1188
X12.434 Y1.4721 Z-0.1173
X12.4307 Y1.4716 Z-0.1152
X12.4277 Y1.4712 Z-0.1127
X12.4252 Y1.4708 Z-0.1097
X12.4232 Y1.4704 Z-0.1063
X12.4217 Y1.4702 Z-0.1027
X12.4208 Y1.4701 Z-0.0989
X12.4205 Y1.47 Z-0.095
X12.4283 Y1.4206
Z-0.135 F30
X12.4286 Y1.4207 Z-0.1389 F60
X12.4295 Y1.4208 Z-0.1427
X12.431 Y1.4211 Z-0.1463
X12.433 Y1.4214 Z-0.1497
X12.4355 Y1.4218 Z-0.1527
X12.4385 Y1.4222 Z-0.1552
X12.4418 Y1.4228 Z-0.1573
X12.4454 Y1.4233 Z-0.1588
X12.4491 Y1.4239 Z-0.1597
X12.453 Y1.4245 Z-0.16
X12.4777 Y1.4285
G3 X12.4984 Y1.457 I-0.0039 J0.0246
X12.2516 Y1.418 I-0.1234 J-0.0195
X12.4984 Y1.457 I0.1234 J0.0195
X12.4699 Y1.4777 I-0.0246 J-0.0039
G1 X12.4452 Y1.4739
X12.4413 Y1.4733 Z-0.1597
X12.4375 Y1.4727 Z-0.1588
X12.434 Y1.4721 Z-0.1573
X12.4307 Y1.4716 Z-0.1552
X12.4277 Y1.4712 Z-0.1527
X12.4252 Y1.4708 Z-0.1497
X12.4232 Y1.4704 Z-0.1463
X12.4217 Y1.4702 Z-0.1427
X12.4208 Y1.4701 Z-0.1389
X12.4205 Y1.47 Z-0.135
X12.4283 Y1.4206
Z-0.175 F30
X12.4286 Y1.4207 Z-0.1789 F60
X12.4295 Y1.4208 Z-0.1827
X12.431 Y1.4211 Z-0.1863
X12.433 Y1.4214 Z-0.1897
X12.4355 Y1.4218 Z-0.1927
X12.4385 Y1.4222 Z-0.1952
X12.4418 Y1.4228 Z-0.1973
X12.4454 Y1.4233 Z-0.1988
X12.4491 Y1.4239 Z-0.1997
X12.453 Y1.4245 Z-0.2
X12.4777 Y1.4285
G3 X12.4984 Y1.457 I-0.0039 J0.0246
X12.2516 Y1.418 I-0.1234 J-0.0195
X12.4984 Y1.457 I0.1234 J0.0195
X12.4699 Y1.4777 I-0.0246 J-0.0039
G1 X12.4452 Y1.4739
X12.4413 Y1.4733 Z-0.1997
X12.4375 Y1.4727 Z-0.1988
X12.434 Y1.4721 Z-0.1973
X12.4307 Y1.4716 Z-0.1952
X12.4277 Y1.4712 Z-0.1927
X12.4252 Y1.4708 Z-0.1897
X12.4232 Y1.4704 Z-0.1863
X12.4217 Y1.4702 Z-0.1827
X12.4208 Y1.4701 Z-0.1789
X12.4205 Y1.47 Z-0.175
X12.4283 Y1.4206
Z-0.215 F30
X12.4286 Y1.4207 Z-0.2189 F60
X12.4295 Y1.4208 Z-0.2227
X12.431 Y1.4211 Z-0.2263
X12.433 Y1.4214 Z-0.2297
X12.4355 Y1.4218 Z-0.2327
X12.4385 Y1.4222 Z-0.2352
X12.4418 Y1.4228 Z-0.2373
X12.4454 Y1.4233 Z-0.2388
X12.4491 Y1.4239 Z-0.2397
X12.453 Y1.4245 Z-0.24
X12.4777 Y1.4285
G3 X12.4984 Y1.457 I-0.0039 J0.0246
X12.2516 Y1.418 I-0.1234 J-0.0195
X12.4984 Y1.457 I0.1234 J0.0195
X12.4699 Y1.4777 I-0.0246 J-0.0039
G1 X12.4452 Y1.4739
X12.4413 Y1.4733 Z-0.2397
X12.4375 Y1.4727 Z-0.2388
X12.434 Y1.4721 Z-0.2373
X12.4307 Y1.4716 Z-0.2352
X12.4277 Y1.4712 Z-0.2327
X12.4252 Y1.4708 Z-0.2297
X12.4232 Y1.4704 Z-0.2263
X12.4217 Y1.4702 Z-0.2227
X12.4208 Y1.4701 Z-0.2189
X12.4205 Y1.47 Z-0.215
X12.4283 Y1.4206
Z-0.255 F30
X12.4286 Y1.4207 Z-0.2589 F60
X12.4295 Y1.4208 Z-0.2627
X12.431 Y1.4211 Z-0.2663
X12.433 Y1.4214 Z-0.2697
X12.4355 Y1.4218 Z-0.2727
X12.4385 Y1.4222 Z-0.2752
X12.4418 Y1.4228 Z-0.2773
X12.4454 Y1.4233 Z-0.2788
X12.4491 Y1.4239 Z-0.2797
X12.453 Y1.4245 Z-0.28
X12.4777 Y1.4285
G3 X12.4984 Y1.457 I-0.0039 J0.0246
X12.2516 Y1.418 I-0.1234 J-0.0195
X12.4984 Y1.457 I0.1234 J0.0195
X12.4699 Y1.4777 I-0.0246 J-0.0039
G1 X12.4452 Y1.4739
X12.4413 Y1.4733 Z-0.2797
X12.4375 Y1.4727 Z-0.2788
X12.434 Y1.4721 Z-0.2773
X12.4307 Y1.4716 Z-0.2752
X12.4277 Y1.4712 Z-0.2727
X12.4252 Y1.4708 Z-0.2697
X12.4232 Y1.4704 Z-0.2663
X12.4217 Y1.4702 Z-0.2627
X12.4208 Y1.4701 Z-0.2589
X12.4205 Y1.47 Z-0.255
X12.4283 Y1.4206
Z-0.295 F30
X12.4286 Y1.4207 Z-0.2989 F60
X12.4295 Y1.4208 Z-0.3027
X12.431 Y1.4211 Z-0.3063
X12.433 Y1.4214 Z-0.3097
X12.4355 Y1.4218 Z-0.3127
X12.4385 Y1.4222 Z-0.3152
X12.4418 Y1.4228 Z-0.3173
X12.4454 Y1.4233 Z-0.3188
X12.4491 Y1.4239 Z-0.3197
X12.453 Y1.4245 Z-0.32
X12.4777 Y1.4285
G3 X12.4984 Y1.457 I-0.0039 J0.0246
X12.2516 Y1.418 I-0.1234 J-0.0195
X12.4984 Y1.457 I0.1234 J0.0195
X12.4699 Y1.4777 I-0.0246 J-0.0039
G1 X12.4452 Y1.4739
X12.4413 Y1.4733 Z-0.3197
X12.4375 Y1.4727 Z-0.3188
X12.434 Y1.4721 Z-0.3173
X12.4307 Y1.4716 Z-0.3152
X12.4277 Y1.4712 Z-0.3127
X12.4252 Y1.4708 Z-0.3097
X12.4232 Y1.4704 Z-0.3063
X12.4217 Y1.4702 Z-0.3027
X12.4208 Y1.4701 Z-0.2989
X12.4205 Y1.47 Z-0.295
X12.4283 Y1.4206
Z-0.335 F30
X12.4286 Y1.4207 Z-0.3389 F60
X12.4295 Y1.4208 Z-0.3427
X12.431 Y1.4211 Z-0.3463
X12.433 Y1.4214 Z-0.3497
X12.4355 Y1.4218 Z-0.3527
X12.4385 Y1.4222 Z-0.3552
X12.4418 Y1.4228 Z-0.3573
X12.4454 Y1.4233 Z-0.3588
X12.4491 Y1.4239 Z-0.3597
X12.453 Y1.4245 Z-0.36
X12.4777 Y1.4285
G3 X12.4984 Y1.457 I-0.0039 J0.0246
X12.2516 Y1.418 I-0.1234 J-0.0195
X12.4984 Y1.457 I0.1234 J0.0195
X12.4699 Y1.4777 I-0.0246 J-0.0039
G1 X12.4452 Y1.4739
X12.4413 Y1.4733 Z-0.3597
X12.4375 Y1.4727 Z-0.3588
X12.434 Y1.4721 Z-0.3573
X12.4307 Y1.4716 Z-0.3552
X12.4277 Y1.4712 Z-0.3527
X12.4252 Y1.4708 Z-0.3497
X12.4232 Y1.4704 Z-0.3463
X12.4217 Y1.4702 Z-0.3427
X12.4208 Y1.4701 Z-0.3389
X12.4205 Y1.47 Z-0.335
X12.4283 Y1.4206
Z-0.362 F30
X12.4286 Y1.4207 Z-0.3659 F60
X12.4295 Y1.4208 Z-0.3697
X12.431 Y1.4211 Z-0.3733
X12.433 Y1.4214 Z-0.3767
X12.4355 Y1.4218 Z-0.3797
X12.4385 Y1.4222 Z-0.3822
X12.4418 Y1.4228 Z-0.3843
X12.4454 Y1.4233 Z-0.3858
X12.4491 Y1.4239 Z-0.3867
X12.453 Y1.4245 Z-0.387
X12.4777 Y1.4285
G3 X12.4984 Y1.457 I-0.0039 J0.0246
X12.2516 Y1.418 I-0.1234 J-0.0195
X12.4984 Y1.457 I0.1234 J0.0195
X12.4699 Y1.4777 I-0.0246 J-0.0039
G1 X12.4452 Y1.4739
X12.4413 Y1.4733 Z-0.3867
X12.4375 Y1.4727 Z-0.3858
X12.434 Y1.4721 Z-0.3843
X12.4307 Y1.4716 Z-0.3822
X12.4277 Y1.4712 Z-0.3797
X12.4252 Y1.4708 Z-0.3767
X12.4232 Y1.4704 Z-0.3733
X12.4217 Y1.4702 Z-0.3697
X12.4208 Y1.4701 Z-0.3659
X12.4205 Y1.47 Z-0.362
G0 Z0.75
X22.8033 Y1.4206
G1 Z-0.015 F30
X22.8036 Y1.4207 Z-0.0189 F60
X22.8045 Y1.4208 Z-0.0227
X22.806 Y1.4211 Z-0.0263
X22.808 Y1.4214 Z-0.0297
X22.8105 Y1.4218 Z-0.0327
X22.8135 Y1.4222 Z-0.0352
X22.8168 Y1.4228 Z-0.0373
X22.8204 Y1.4233 Z-0.0388
X22.8241 Y1.4239 Z-0.0397
X22.828 Y1.4245 Z-0.04
X22.8527 Y1.4285
G3 X22.8734 Y1.457 I-0.0039 J0.0246
X22.6266 Y1.418 I-0.1234 J-0.0195
X22.8734 Y1.457 I0.1234 J0.0195
X22.8449 Y1.4777 I-0.0246 J-0.0039
G1 X22.8202 Y1.4739
X22.8163 Y1.4733 Z-0.0397
X22.8125 Y1.4727 Z-0.0388
X22.809 Y1.4721 Z-0.0373
X22.8057 Y1.4716 Z-0.0352
X22.8027 Y1.4712 Z-0.0327
X22.8002 Y1.4708 Z-0.0297
X22.7982 Y1.4704 Z-0.0263
X22.7967 Y1.4702 Z-0.0227
X22.7958 Y1.4701 Z-0.0189
X22.7955 Y1.47 Z-0.015
X22.8033 Y1.4206
Z-0.055 F30
X22.8036 Y1.4207 Z-0.0589 F60
X22.8045 Y1.4208 Z-0.0627
X22.806 Y1.4211 Z-0.0663
X22.808 Y1.4214 Z-0.0697
X22.8105 Y1.4218 Z-0.0727
X22.8135 Y1.4222 Z-0.0752
X22.8168 Y1.4228 Z-0.0773
X22.8204 Y1.4233 Z-0.0788
X22.8241 Y1.4239 Z-0.0797
X22.828 Y1.4245 Z-0.08
X22.8527 Y1.4285
G3 X22.8734 Y1.457 I-0.0039 J0.0246
X22.6266 Y1.418 I-0.1234 J-0.0195
X22.8734 Y1.457 I0.1234 J0.0195
X22.8449 Y1.4777 I-0.0246 J-0.0039
G1 X22.8202 Y1.4739
X22.8163 Y1.4733 Z-0.0797
X22.8125 Y1.4727 Z-0.0788
X22.809 Y1.4721 Z-0.0773
X22.8057 Y1.4716 Z-0.0752
X22.8027 Y1.4712 Z-0.0727
X22.8002 Y1.4708 Z-0.0697
X22.7982 Y1.4704 Z-0.0663
X22.7967 Y1.4702 Z-0.0627
X22.7958 Y1.4701 Z-0.0589
X22.7955 Y1.47 Z-0.055
X22.8033 Y1.4206
Z-0.095 F30
X22.8036 Y1.4207 Z-0.0989 F60
X22.8045 Y1.4208 Z-0.1027
X22.806 Y1.4211 Z-0.1063
X22.808 Y1.4214 Z-0.1097
X22.8105 Y1.4218 Z-0.1127
X22.8135 Y1.4222 Z-0.1152
X22.8168 Y1.4228 Z-0.1173
X22.8204 Y1.4233 Z-0.1188
X22.8241 Y1.4239 Z-0.1197
X22.828 Y1.4245 Z-0.12
X22.8527 Y1.4285
G3 X22.8734 Y1.457 I-0.0039 J0.0246
X22.6266 Y1.418 I-0.1234 J-0.0195
X22.8734 Y1.457 I0.1234 J0.0195
X22.8449 Y1.4777 I-0.0246 J-0.0039
G1 X22.8202 Y1.4739
X22.8163 Y1.4733 Z-0.1197
X22.8125 Y1.4727 Z-0.1188
X22.809 Y1.4721 Z-0.1173
X22.8057 Y1.4716 Z-0.1152
X22.8027 Y1.4712 Z-0.1127
X22.8002 Y1.4708 Z-0.1097
X22.7982 Y1.4704 Z-0.1063
X22.7967 Y1.4702 Z-0.1027
X22.7958 Y1.4701 Z-0.0989
X22.7955 Y1.47 Z-0.095
X22.8033 Y1.4206
Z-0.135 F30
X22.8036 Y1.4207 Z-0.1389 F60
X22.8045 Y1.4208 Z-0.1427
X22.806 Y1.4211 Z-0.1463
X22.808 Y1.4214 Z-0.1497
X22.8105 Y1.4218 Z-0.1527
X22.8135 Y1.4222 Z-0.1552
X22.8168 Y1.4228 Z-0.1573
X22.8204 Y1.4233 Z-0.1588
X22.8241 Y1.4239 Z-0.1597
X22.828 Y1.4245 Z-0.16
X22.8527 Y1.4285
G3 X22.8734 Y1.457 I-0.0039 J0.0246
X22.6266 Y1.418 I-0.1234 J-0.0195
X22.8734 Y1.457 I0.1234 J0.0195
X22.8449 Y1.4777 I-0.0246 J-0.0039
G1 X22.8202 Y1.4739
X22.8163 Y1.4733 Z-0.1597
X22.8125 Y1.4727 Z-0.1588
X22.809 Y1.4721 Z-0.1573
X22.8057 Y1.4716 Z-0.1552
X22.8027 Y1.4712 Z-0.1527
X22.8002 Y1.4708 Z-0.1497
X22.7982 Y1.4704 Z-0.1463
X22.7967 Y1.4702 Z-0.1427
X22.7958 Y1.4701 Z-0.1389
X22.7955 Y1.47 Z-0.135
X22.8033 Y1.4206
Z-0.175 F30
X22.8036 Y1.4207 Z-0.1789 F60
X22.8045 Y1.4208 Z-0.1827
X22.806 Y1.4211 Z-0.1863
X22.808 Y1.4214 Z-0.1897
X22.8105 Y1.4218 Z-0.1927
X22.8135 Y1.4222 Z-0.1952
X22.8168 Y1.4228 Z-0.1973
X22.8204 Y1.4233 Z-0.1988
X22.8241 Y1.4239 Z-0.1997
X22.828 Y1.4245 Z-0.2
X22.8527 Y1.4285
G3 X22.8734 Y1.457 I-0.0039 J0.0246
X22.6266 Y1.418 I-0.1234 J-0.0195
X22.8734 Y1.457 I0.1234 J0.0195
X22.8449 Y1.4777 I-0.0246 J-0.0039
G1 X22.8202 Y1.4739
X22.8163 Y1.4733 Z-0.1997
X22.8125 Y1.4727 Z-0.1988
X22.809 Y1.4721 Z-0.1973
X22.8057 Y1.4716 Z-0.1952
X22.8027 Y1.4712 Z-0.1927
X22.8002 Y1.4708 Z-0.1897
X22.7982 Y1.4704 Z-0.1863
X22.7967 Y1.4702 Z-0.1827
X22.7958 Y1.4701 Z-0.1789
X22.7955 Y1.47 Z-0.175
X22.8033 Y1.4206
Z-0.215 F30
X22.8036 Y1.4207 Z-0.2189 F60
X22.8045 Y1.4208 Z-0.2227
X22.806 Y1.4211 Z-0.2263
X22.808 Y1.4214 Z-0.2297
X22.8105 Y1.4218 Z-0.2327
X22.8135 Y1.4222 Z-0.2352
X22.8168 Y1.4228 Z-0.2373
X22.8204 Y1.4233 Z-0.2388
X22.8241 Y1.4239 Z-0.2397
X22.828 Y1.4245 Z-0.24
X22.8527 Y1.4285
G3 X22.8734 Y1.457 I-0.0039 J0.0246
X22.6266 Y1.418 I-0.1234 J-0.0195
X22.8734 Y1.457 I0.1234 J0.0195
X22.8449 Y1.4777 I-0.0246 J-0.0039
G1 X22.8202 Y1.4739
X22.8163 Y1.4733 Z-0.2397
X22.8125 Y1.4727 Z-0.2388
X22.809 Y1.4721 Z-0.2373
X22.8057 Y1.4716 Z-0.2352
X22.8027 Y1.4712 Z-0.2327
X22.8002 Y1.4708 Z-0.2297
X22.7982 Y1.4704 Z-0.2263
X22.7967 Y1.4702 Z-0.2227
X22.7958 Y1.4701 Z-0.2189
X22.7955 Y1.47 Z-0.215
X22.8033 Y1.4206
Z-0.255 F30
X22.8036 Y1.4207 Z-0.2589 F60
X22.8045 Y1.4208 Z-0.2627
X22.806 Y1.4211 Z-0.2663
X22.808 Y1.4214 Z-0.2697
X22.8105 Y1.4218 Z-0.2727
X22.8135 Y1.4222 Z-0.2752
X22.8168 Y1.4228 Z-0.2773
X22.8204 Y1.4233 Z-0.2788
X22.8241 Y1.4239 Z-0.2797
X22.828 Y1.4245 Z-0.28
X22.8527 Y1.4285
G3 X22.8734 Y1.457 I-0.0039 J0.0246
X22.6266 Y1.418 I-0.1234 J-0.0195
X22.8734 Y1.457 I0.1234 J0.0195
X22.8449 Y1.4777 I-0.0246 J-0.0039
G1 X22.8202 Y1.4739
X22.8163 Y1.4733 Z-0.2797
X22.8125 Y1.4727 Z-0.2788
X22.809 Y1.4721 Z-0.2773
X22.8057 Y1.4716 Z-0.2752
X22.8027 Y1.4712 Z-0.2727
X22.8002 Y1.4708 Z-0.2697
X22.7982 Y1.4704 Z-0.2663
X22.7967 Y1.4702 Z-0.2627
X22.7958 Y1.4701 Z-0.2589
X22.7955 Y1.47 Z-0.255
X22.8033 Y1.4206
Z-0.295 F30
X22.8036 Y1.4207 Z-0.2989 F60
X22.8045 Y1.4208 Z-0.3027
X22.806 Y1.4211 Z-0.3063
X22.808 Y1.4214 Z-0.3097
X22.8105 Y1.4218 Z-0.3127
X22.8135 Y1.4222 Z-0.3152
X22.8168 Y1.4228 Z-0.3173
X22.8204 Y1.4233 Z-0.3188
X22.8241 Y1.4239 Z-0.3197
X22.828 Y1.4245 Z-0.32
X22.8527 Y1.4285
G3 X22.8734 Y1.457 I-0.0039 J0.0246
X22.6266 Y1.418 I-0.1234 J-0.0195
X22.8734 Y1.457 I0.1234 J0.0195
X22.8449 Y1.4777 I-0.0246 J-0.0039
G1 X22.8202 Y1.4739
X22.8163 Y1.4733 Z-0.3197
X22.8125 Y1.4727 Z-0.3188
X22.809 Y1.4721 Z-0.3173
X22.8057 Y1.4716 Z-0.3152
X22.8027 Y1.4712 Z-0.3127
X22.8002 Y1.4708 Z-0.3097
X22.7982 Y1.4704 Z-0.3063
X22.7967 Y1.4702 Z-0.3027
X22.7958 Y1.4701 Z-0.2989
X22.7955 Y1.47 Z-0.295
X22.8033 Y1.4206
Z-0.335 F30
X22.8036 Y1.4207 Z-0.3389 F60
X22.8045 Y1.4208 Z-0.3427
X22.806 Y1.4211 Z-0.3463
X22.808 Y1.4214 Z-0.3497
X22.8105 Y1.4218 Z-0.3527
X22.8135 Y1.4222 Z-0.3552
X22.8168 Y1.4228 Z-0.3573
X22.8204 Y1.4233 Z-0.3588
X22.8241 Y1.4239 Z-0.3597
X22.828 Y1.4245 Z-0.36
X22.8527 Y1.4285
G3 X22.8734 Y1.457 I-0.0039 J0.0246
X22.6266 Y1.418 I-0.1234 J-0.0195
X22.8734 Y1.457 I0.1234 J0.0195
X22.8449 Y1.4777 I-0.0246 J-0.0039
G1 X22.8202 Y1.4739
X22.8163 Y1.4733 Z-0.3597
X22.8125 Y1.4727 Z-0.3588
X22.809 Y1.4721 Z-0.3573
X22.8057 Y1.4716 Z-0.3552
X22.8027 Y1.4712 Z-0.3527
X22.8002 Y1.4708 Z-0.3497
X22.7982 Y1.4704 Z-0.3463
X22.7967 Y1.4702 Z-0.3427
X22.7958 Y1.4701 Z-0.3389
X22.7955 Y1.47 Z-0.335
X22.8033 Y1.4206
Z-0.362 F30
X22.8036 Y1.4207 Z-0.3659 F60
X22.8045 Y1.4208 Z-0.3697
X22.806 Y1.4211 Z-0.3733
X22.808 Y1.4214 Z-0.3767
X22.8105 Y1.4218 Z-0.3797
X22.8135 Y1.4222 Z-0.3822
X22.8168 Y1.4228 Z-0.3843
X22.8204 Y1.4233 Z-0.3858
X22.8241 Y1.4239 Z-0.3867
X22.828 Y1.4245 Z-0.387
X22.8527 Y1.4285
G3 X22.8734 Y1.457 I-0.0039 J0.0246
X22.6266 Y1.418 I-0.1234 J-0.0195
X22.8734 Y1.457 I0.1234 J0.0195
X22.8449 Y1.4777 I-0.0246 J-0.0039
G1 X22.8202 Y1.4739
X22.8163 Y1.4733 Z-0.3867
X22.8125 Y1.4727 Z-0.3858
X22.809 Y1.4721 Z-0.3843
X22.8057 Y1.4716 Z-0.3822
X22.8027 Y1.4712 Z-0.3797
X22.8002 Y1.4708 Z-0.3767
X22.7982 Y1.4704 Z-0.3733
X22.7967 Y1.4702 Z-0.3697
X22.7958 Y1.4701 Z-0.3659
X22.7955 Y1.47 Z-0.362
G0 Z0.75
X1.6125 Y1.4125
G1 Z-0.015 F30
G18 G2 X1.6375 Z-0.04 I0.025 K0 F60
G1 X1.6625
G17 G3 X1.6875 Y1.4375 I0 J0.025
X1.4375 I-0.125 J0
X1.6875 I0.125 J0
X1.6625 Y1.4625 I-0.025 J0
G1 X1.6375
G18 G3 X1.6125 Z-0.015 I0 K0.025
G1 Y1.4125
Z-0.055 F30
G2 X1.6375 Z-0.08 I0.025 K0 F60
G1 X1.6625
G17 G3 X1.6875 Y1.4375 I0 J0.025
X1.4375 I-0.125 J0
X1.6875 I0.125 J0
X1.6625 Y1.4625 I-0.025 J0
G1 X1.6375
G18 G3 X1.6125 Z-0.055 I0 K0.025
G1 Y1.4125
Z-0.095 F30
G2 X1.6375 Z-0.12 I0.025 K0 F60
G1 X1.6625
G17 G3 X1.6875 Y1.4375 I0 J0.025
X1.4375 I-0.125 J0
X1.6875 I0.125 J0
X1.6625 Y1.4625 I-0.025 J0
G1 X1.6375
G18 G3 X1.6125 Z-0.095 I0 K0.025
G1 Y1.4125
Z-0.135 F30
G2 X1.6375 Z-0.16 I0.025 K0 F60
G1 X1.6625
G17 G3 X1.6875 Y1.4375 I0 J0.025
X1.4375 I-0.125 J0
X1.6875 I0.125 J0
X1.6625 Y1.4625 I-0.025 J0
G1 X1.6375
G18 G3 X1.6125 Z-0.135 I0 K0.025
G1 Y1.4125
Z-0.175 F30
G2 X1.6375 Z-0.2 I0.025 K0 F60
G1 X1.6625
G17 G3 X1.6875 Y1.4375 I0 J0.025
X1.4375 I-0.125 J0
X1.6875 I0.125 J0
X1.6625 Y1.4625 I-0.025 J0
G1 X1.6375
G18 G3 X1.6125 Z-0.175 I0 K0.025
G1 Y1.4125
Z-0.215 F30
G2 X1.6375 Z-0.24 I0.025 K0 F60
G1 X1.6625
G17 G3 X1.6875 Y1.4375 I0 J0.025
X1.4375 I-0.125 J0
X1.6875 I0.125 J0
X1.6625 Y1.4625 I-0.025 J0
G1 X1.6375
G18 G3 X1.6125 Z-0.215 I0 K0.025
G1 Y1.4125
Z-0.255 F30
G2 X1.6375 Z-0.28 I0.025 K0 F60
G1 X1.6625
G17 G3 X1.6875 Y1.4375 I0 J0.025
X1.4375 I-0.125 J0
X1.6875 I0.125 J0
X1.6625 Y1.4625 I-0.025 J0
G1 X1.6375
G18 G3 X1.6125 Z-0.255 I0 K0.025
G1 Y1.4125
Z-0.295 F30
G2 X1.6375 Z-0.32 I0.025 K0 F60
G1 X1.6625
G17 G3 X1.6875 Y1.4375 I0 J0.025
X1.4375 I-0.125 J0
X1.6875 I0.125 J0
X1.6625 Y1.4625 I-0.025 J0
G1 X1.6375
G18 G3 X1.6125 Z-0.295 I0 K0.025
G1 Y1.4125
Z-0.335 F30
G2 X1.6375 Z-0.36 I0.025 K0 F60
G1 X1.6625
G17 G3 X1.6875 Y1.4375 I0 J0.025
X1.4375 I-0.125 J0
X1.6875 I0.125 J0
X1.6625 Y1.4625 I-0.025 J0
G1 X1.6375
G18 G3 X1.6125 Z-0.335 I0 K0.025
G1 Y1.4125
Z-0.362 F30
G2 X1.6375 Z-0.387 I0.025 K0 F60
G1 X1.6625
G17 G3 X1.6875 Y1.4375 I0 J0.025
X1.4375 I-0.125 J0
X1.6875 I0.125 J0
X1.6625 Y1.4625 I-0.025 J0
G1 X1.6375
G18 G3 X1.6125 Z-0.362 I0 K0.025
G0 Z0.75
G17
G28 G91 Z0
G90
G28 G91 X0 Y0
G90
M30
%
