%
(Board Holes)
(T1  D=0.25 CR=0 - ZMIN=-0.387 - flat end mill)
(T2  D=0.125 CR=0 - ZMIN=-0.774 - ball end mill)
G90
G17
G20
G28 G91 Z0
G90

(2D Contour2)
T2 M6
S10000 M3
G54
G0 X12.8084 Y1.4309
Z0.75
G1 Z-0.0275 F30
X12.8087 Z-0.0303
X12.8096 Y1.4312 Z-0.0329
X12.8111 Y1.4315 Z-0.0353
X12.813 Y1.4319 Z-0.0373
X12.8153 Y1.4325 Z-0.0388
X12.8179 Y1.433 Z-0.0397
X12.8206 Y1.4337 Z-0.04
X12.8328 Y1.4364
G3 X12.8422 Y1.4514 I-0.0028 J0.0122
X12.7202 Y1.4236 I-0.061 J-0.0139
X12.8422 Y1.4514 I0.061 J0.0139
X12.8272 Y1.4608 I-0.0122 J-0.0028
G1 X12.815 Y1.458
X12.8123 Y1.4574 Z-0.0397
X12.8097 Y1.4568 Z-0.0388
X12.8074 Y1.4563 Z-0.0373
X12.8055 Y1.4559 Z-0.0353
X12.804 Y1.4555 Z-0.0329
X12.8031 Y1.4553 Z-0.0303
X12.8028 Y1.4552 Z-0.0275
X12.8084 Y1.4309
Z-0.0675
X12.8087 Z-0.0703
X12.8096 Y1.4312 Z-0.0729
X12.8111 Y1.4315 Z-0.0753
X12.813 Y1.4319 Z-0.0773
X12.8153 Y1.4325 Z-0.0788
X12.8179 Y1.433 Z-0.0797
X12.8206 Y1.4337 Z-0.08
X12.8328 Y1.4364
G3 X12.8422 Y1.4514 I-0.0028 J0.0122
X12.7202 Y1.4236 I-0.061 J-0.0139
X12.8422 Y1.4514 I0.061 J0.0139
X12.8272 Y1.4608 I-0.0122 J-0.0028
G1 X12.815 Y1.458
X12.8123 Y1.4574 Z-0.0797
X12.8097 Y1.4568 Z-0.0788
X12.8074 Y1.4563 Z-0.0773
X12.8055 Y1.4559 Z-0.0753
X12.804 Y1.4555 Z-0.0729
X12.8031 Y1.4553 Z-0.0703
X12.8028 Y1.4552 Z-0.0675
X12.8084 Y1.4309
Z-0.1075
X12.8087 Z-0.1103
X12.8096 Y1.4312 Z-0.1129
X12.8111 Y1.4315 Z-0.1153
X12.813 Y1.4319 Z-0.1173
X12.8153 Y1.4325 Z-0.1188
X12.8179 Y1.433 Z-0.1197
X12.8206 Y1.4337 Z-0.12
X12.8328 Y1.4364
G3 X12.8422 Y1.4514 I-0.0028 J0.0122
X12.7202 Y1.4236 I-0.061 J-0.0139
X12.8422 Y1.4514 I0.061 J0.0139
X12.8272 Y1.4608 I-0.0122 J-0.0028
G1 X12.815 Y1.458
X12.8123 Y1.4574 Z-0.1197
X12.8097 Y1.4568 Z-0.1188
X12.8074 Y1.4563 Z-0.1173
X12.8055 Y1.4559 Z-0.1153
X12.804 Y1.4555 Z-0.1129
X12.8031 Y1.4553 Z-0.1103
X12.8028 Y1.4552 Z-0.1075
X12.8084 Y1.4309
Z-0.1475
X12.8087 Z-0.1503
X12.8096 Y1.4312 Z-0.1529
X12.8111 Y1.4315 Z-0.1553
X12.813 Y1.4319 Z-0.1573
X12.8153 Y1.4325 Z-0.1588
X12.8179 Y1.433 Z-0.1597
X12.8206 Y1.4337 Z-0.16
X12.8328 Y1.4364
G3 X12.8422 Y1.4514 I-0.0028 J0.0122
X12.7202 Y1.4236 I-0.061 J-0.0139
X12.8422 Y1.4514 I0.061 J0.0139
X12.8272 Y1.4608 I-0.0122 J-0.0028
G1 X12.815 Y1.458
X12.8123 Y1.4574 Z-0.1597
X12.8097 Y1.4568 Z-0.1588
X12.8074 Y1.4563 Z-0.1573
X12.8055 Y1.4559 Z-0.1553
X12.804 Y1.4555 Z-0.1529
X12.8031 Y1.4553 Z-0.1503
X12.8028 Y1.4552 Z-0.1475
X12.8084 Y1.4309
Z-0.1875
X12.8087 Z-0.1903
X12.8096 Y1.4312 Z-0.1929
X12.8111 Y1.4315 Z-0.1953
X12.813 Y1.4319 Z-0.1973
X12.8153 Y1.4325 Z-0.1988
X12.8179 Y1.433 Z-0.1997
X12.8206 Y1.4337 Z-0.2
X12.8328 Y1.4364
G3 X12.8422 Y1.4514 I-0.0028 J0.0122
X12.7202 Y1.4236 I-0.061 J-0.0139
X12.8422 Y1.4514 I0.061 J0.0139
X12.8272 Y1.4608 I-0.0122 J-0.0028
G1 X12.815 Y1.458
X12.8123 Y1.4574 Z-0.1997
X12.8097 Y1.4568 Z-0.1988
X12.8074 Y1.4563 Z-0.1973
X12.8055 Y1.4559 Z-0.1953
X12.804 Y1.4555 Z-0.1929
X12.8031 Y1.4553 Z-0.1903
X12.8028 Y1.4552 Z-0.1875
X12.8084 Y1.4309
Z-0.2275
X12.8087 Z-0.2303
X12.8096 Y1.4312 Z-0.2329
X12.8111 Y1.4315 Z-0.2353
X12.813 Y1.4319 Z-0.2373
X12.8153 Y1.4325 Z-0.2388
X12.8179 Y1.433 Z-0.2397
X12.8206 Y1.4337 Z-0.24
X12.8328 Y1.4364
G3 X12.8422 Y1.4514 I-0.0028 J0.0122
X12.7202 Y1.4236 I-0.061 J-0.0139
X12.8422 Y1.4514 I0.061 J0.0139
X12.8272 Y1.4608 I-0.0122 J-0.0028
G1 X12.815 Y1.458
X12.8123 Y1.4574 Z-0.2397
X12.8097 Y1.4568 Z-0.2388
X12.8074 Y1.4563 Z-0.2373
X12.8055 Y1.4559 Z-0.2353
X12.804 Y1.4555 Z-0.2329
X12.8031 Y1.4553 Z-0.2303
X12.8028 Y1.4552 Z-0.2275
X12.8084 Y1.4309
Z-0.2675
X12.8087 Z-0.2703
X12.8096 Y1.4312 Z-0.2729
X12.8111 Y1.4315 Z-0.2753
X12.813 Y1.4319 Z-0.2773
X12.8153 Y1.4325 Z-0.2788
X12.8179 Y1.433 Z-0.2797
X12.8206 Y1.4337 Z-0.28
X12.8328 Y1.4364
G3 X12.8422 Y1.4514 I-0.0028 J0.0122
X12.7202 Y1.4236 I-0.061 J-0.0139
X12.8422 Y1.4514 I0.061 J0.0139
X12.8272 Y1.4608 I-0.0122 J-0.0028
G1 X12.815 Y1.458
X12.8123 Y1.4574 Z-0.2797
X12.8097 Y1.4568 Z-0.2788
X12.8074 Y1.4563 Z-0.2773
X12.8055 Y1.4559 Z-0.2753
X12.804 Y1.4555 Z-0.2729
X12.8031 Y1.4553 Z-0.2703
X12.8028 Y1.4552 Z-0.2675
X12.8084 Y1.4309
Z-0.3075
X12.8087 Z-0.3103
X12.8096 Y1.4312 Z-0.3129
X12.8111 Y1.4315 Z-0.3153
X12.813 Y1.4319 Z-0.3173
X12.8153 Y1.4325 Z-0.3188
X12.8179 Y1.433 Z-0.3197
X12.8206 Y1.4337 Z-0.32
X12.8328 Y1.4364
G3 X12.8422 Y1.4514 I-0.0028 J0.0122
X12.7202 Y1.4236 I-0.061 J-0.0139
X12.8422 Y1.4514 I0.061 J0.0139
X12.8272 Y1.4608 I-0.0122 J-0.0028
G1 X12.815 Y1.458
X12.8123 Y1.4574 Z-0.3197
X12.8097 Y1.4568 Z-0.3188
X12.8074 Y1.4563 Z-0.3173
X12.8055 Y1.4559 Z-0.3153
X12.804 Y1.4555 Z-0.3129
X12.8031 Y1.4553 Z-0.3103
X12.8028 Y1.4552 Z-0.3075
X12.8084 Y1.4309
Z-0.3475
X12.8087 Z-0.3503
X12.8096 Y1.4312 Z-0.3529
X12.8111 Y1.4315 Z-0.3553
X12.813 Y1.4319 Z-0.3573
X12.8153 Y1.4325 Z-0.3588
X12.8179 Y1.433 Z-0.3597
X12.8206 Y1.4337 Z-0.36
X12.8328 Y1.4364
G3 X12.8422 Y1.4514 I-0.0028 J0.0122
X12.7202 Y1.4236 I-0.061 J-0.0139
X12.8422 Y1.4514 I0.061 J0.0139
X12.8272 Y1.4608 I-0.0122 J-0.0028
G1 X12.815 Y1.458
X12.8123 Y1.4574 Z-0.3597
X12.8097 Y1.4568 Z-0.3588
X12.8074 Y1.4563 Z-0.3573
X12.8055 Y1.4559 Z-0.3553
X12.804 Y1.4555 Z-0.3529
X12.8031 Y1.4553 Z-0.3503
X12.8028 Y1.4552 Z-0.3475
X12.8084 Y1.4309
Z-0.3875
X12.8087 Z-0.3903
X12.8096 Y1.4312 Z-0.3929
X12.8111 Y1.4315 Z-0.3953
X12.813 Y1.4319 Z-0.3973
X12.8153 Y1.4325 Z-0.3988
X12.8179 Y1.433 Z-0.3997
X12.8206 Y1.4337 Z-0.4
X12.8328 Y1.4364
G3 X12.8422 Y1.4514 I-0.0028 J0.0122
X12.7202 Y1.4236 I-0.061 J-0.0139
X12.8422 Y1.4514 I0.061 J0.0139
X12.8272 Y1.4608 I-0.0122 J-0.0028
G1 X12.815 Y1.458
X12.8123 Y1.4574 Z-0.3997
X12.8097 Y1.4568 Z-0.3988
X12.8074 Y1.4563 Z-0.3973
X12.8055 Y1.4559 Z-0.3953
X12.804 Y1.4555 Z-0.3929
X12.8031 Y1.4553 Z-0.3903
X12.8028 Y1.4552 Z-0.3875
X12.8084 Y1.4309
Z-0.4275
X12.8087 Z-0.4303
X12.8096 Y1.4312 Z-0.4329
X12.8111 Y1.4315 Z-0.4353
X12.813 Y1.4319 Z-0.4373
X12.8153 Y1.4325 Z-0.4388
X12.8179 Y1.433 Z-0.4397
X12.8206 Y1.4337 Z-0.44
X12.8328 Y1.4364
G3 X12.8422 Y1.4514 I-0.0028 J0.0122
X12.7202 Y1.4236 I-0.061 J-0.0139
X12.8422 Y1.4514 I0.061 J0.0139
X12.8272 Y1.4608 I-0.0122 J-0.0028
G1 X12.815 Y1.458
X12.8123 Y1.4574 Z-0.4397
X12.8097 Y1.4568 Z-0.4388
X12.8074 Y1.4563 Z-0.4373
X12.8055 Y1.4559 Z-0.4353
X12.804 Y1.4555 Z-0.4329
X12.8031 Y1.4553 Z-0.4303
X12.8028 Y1.4552 Z-0.4275
X12.8084 Y1.4309
Z-0.4675
X12.8087 Z-0.4703
X12.8096 Y1.4312 Z-0.4729
X12.8111 Y1.4315 Z-0.4753
X12.813 Y1.4319 Z-0.4773
X12.8153 Y1.4325 Z-0.4788
X12.8179 Y1.433 Z-0.4797
X12.8206 Y1.4337 Z-0.48
X12.8328 Y1.4364
G3 X12.8422 Y1.4514 I-0.0028 J0.0122
X12.7202 Y1.4236 I-0.061 J-0.0139
X12.8422 Y1.4514 I0.061 J0.0139
X12.8272 Y1.4608 I-0.0122 J-0.0028
G1 X12.815 Y1.458
X12.8123 Y1.4574 Z-0.4797
X12.8097 Y1.4568 Z-0.4788
X12.8074 Y1.4563 Z-0.4773
X12.8055 Y1.4559 Z-0.4753
X12.804 Y1.4555 Z-0.4729
X12.8031 Y1.4553 Z-0.4703
X12.8028 Y1.4552 Z-0.4675
X12.8084 Y1.4309
Z-0.5075
X12.8087 Z-0.5103
X12.8096 Y1.4312 Z-0.5129
X12.8111 Y1.4315 Z-0.5153
X12.813 Y1.4319 Z-0.5173
X12.8153 Y1.4325 Z-0.5188
X12.8179 Y1.433 Z-0.5197
X12.8206 Y1.4337 Z-0.52
X12.8328 Y1.4364
G3 X12.8422 Y1.4514 I-0.0028 J0.0122
X12.7202 Y1.4236 I-0.061 J-0.0139
X12.8422 Y1.4514 I0.061 J0.0139
X12.8272 Y1.4608 I-0.0122 J-0.0028
G1 X12.815 Y1.458
X12.8123 Y1.4574 Z-0.5197
X12.8097 Y1.4568 Z-0.5188
X12.8074 Y1.4563 Z-0.5173
X12.8055 Y1.4559 Z-0.5153
X12.804 Y1.4555 Z-0.5129
X12.8031 Y1.4553 Z-0.5103
X12.8028 Y1.4552 Z-0.5075
X12.8084 Y1.4309
Z-0.5475
X12.8087 Z-0.5503
X12.8096 Y1.4312 Z-0.5529
X12.8111 Y1.4315 Z-0.5553
X12.813 Y1.4319 Z-0.5573
X12.8153 Y1.4325 Z-0.5588
X12.8179 Y1.433 Z-0.5597
X12.8206 Y1.4337 Z-0.56
X12.8328 Y1.4364
G3 X12.8422 Y1.4514 I-0.0028 J0.0122
X12.7202 Y1.4236 I-0.061 J-0.0139
X12.8422 Y1.4514 I0.061 J0.0139
X12.8272 Y1.4608 I-0.0122 J-0.0028
G1 X12.815 Y1.458
X12.8123 Y1.4574 Z-0.5597
X12.8097 Y1.4568 Z-0.5588
X12.8074 Y1.4563 Z-0.5573
X12.8055 Y1.4559 Z-0.5553
X12.804 Y1.4555 Z-0.5529
X12.8031 Y1.4553 Z-0.5503
X12.8028 Y1.4552 Z-0.5475
X12.8084 Y1.4309
Z-0.5875
X12.8087 Z-0.5903
X12.8096 Y1.4312 Z-0.5929
X12.8111 Y1.4315 Z-0.5953
X12.813 Y1.4319 Z-0.5973
X12.8153 Y1.4325 Z-0.5988
X12.8179 Y1.433 Z-0.5997
X12.8206 Y1.4337 Z-0.6
X12.8328 Y1.4364
G3 X12.8422 Y1.4514 I-0.0028 J0.0122
X12.7202 Y1.4236 I-0.061 J-0.0139
X12.8422 Y1.4514 I0.061 J0.0139
X12.8272 Y1.4608 I-0.0122 J-0.0028
G1 X12.815 Y1.458
X12.8123 Y1.4574 Z-0.5997
X12.8097 Y1.4568 Z-0.5988
X12.8074 Y1.4563 Z-0.5973
X12.8055 Y1.4559 Z-0.5953
X12.804 Y1.4555 Z-0.5929
X12.8031 Y1.4553 Z-0.5903
X12.8028 Y1.4552 Z-0.5875
X12.8084 Y1.4309
Z-0.6275
X12.8087 Z-0.6303
X12.8096 Y1.4312 Z-0.6329
X12.8111 Y1.4315 Z-0.6353
X12.813 Y1.4319 Z-0.6373
X12.8153 Y1.4325 Z-0.6388
X12.8179 Y1.433 Z-0.6397
X12.8206 Y1.4337 Z-0.64
X12.8328 Y1.4364
G3 X12.8422 Y1.4514 I-0.0028 J0.0122
X12.7202 Y1.4236 I-0.061 J-0.0139
X12.8422 Y1.4514 I0.061 J0.0139
X12.8272 Y1.4608 I-0.0122 J-0.0028
G1 X12.815 Y1.458
X12.8123 Y1.4574 Z-0.6397
X12.8097 Y1.4568 Z-0.6388
X12.8074 Y1.4563 Z-0.6373
X12.8055 Y1.4559 Z-0.6353
X12.804 Y1.4555 Z-0.6329
X12.8031 Y1.4553 Z-0.6303
X12.8028 Y1.4552 Z-0.6275
X12.8084 Y1.4309
Z-0.6675
X12.8087 Z-0.6703
X12.8096 Y1.4312 Z-0.6729
X12.8111 Y1.4315 Z-0.6753
X12.813 Y1.4319 Z-0.6773
X12.8153 Y1.4325 Z-0.6788
X12.8179 Y1.433 Z-0.6797
X12.8206 Y1.4337 Z-0.68
X12.8328 Y1.4364
G3 X12.8422 Y1.4514 I-0.0028 J0.0122
X12.7202 Y1.4236 I-0.061 J-0.0139
X12.8422 Y1.4514 I0.061 J0.0139
X12.8272 Y1.4608 I-0.0122 J-0.0028
G1 X12.815 Y1.458
X12.8123 Y1.4574 Z-0.6797
X12.8097 Y1.4568 Z-0.6788
X12.8074 Y1.4563 Z-0.6773
X12.8055 Y1.4559 Z-0.6753
X12.804 Y1.4555 Z-0.6729
X12.8031 Y1.4553 Z-0.6703
X12.8028 Y1.4552 Z-0.6675
X12.8084 Y1.4309
Z-0.7075
X12.8087 Z-0.7103
X12.8096 Y1.4312 Z-0.7129
X12.8111 Y1.4315 Z-0.7153
X12.813 Y1.4319 Z-0.7173
X12.8153 Y1.4325 Z-0.7188
X12.8179 Y1.433 Z-0.7197
X12.8206 Y1.4337 Z-0.72
X12.8328 Y1.4364
G3 X12.8422 Y1.4514 I-0.0028 J0.0122
X12.7202 Y1.4236 I-0.061 J-0.0139
X12.8422 Y1.4514 I0.061 J0.0139
X12.8272 Y1.4608 I-0.0122 J-0.0028
G1 X12.815 Y1.458
X12.8123 Y1.4574 Z-0.7197
X12.8097 Y1.4568 Z-0.7188
X12.8074 Y1.4563 Z-0.7173
X12.8055 Y1.4559 Z-0.7153
X12.804 Y1.4555 Z-0.7129
X12.8031 Y1.4553 Z-0.7103
X12.8028 Y1.4552 Z-0.7075
X12.8084 Y1.4309
Z-0.7475
X12.8087 Z-0.7503
X12.8096 Y1.4312 Z-0.7529
X12.8111 Y1.4315 Z-0.7553
X12.813 Y1.4319 Z-0.7573
X12.8153 Y1.4325 Z-0.7588
X12.8179 Y1.433 Z-0.7597
X12.8206 Y1.4337 Z-0.76
X12.8328 Y1.4364
G3 X12.8422 Y1.4514 I-0.0028 J0.0122
X12.7202 Y1.4236 I-0.061 J-0.0139
X12.8422 Y1.4514 I0.061 J0.0139
X12.8272 Y1.4608 I-0.0122 J-0.0028
G1 X12.815 Y1.458
X12.8123 Y1.4574 Z-0.7597
X12.8097 Y1.4568 Z-0.7588
X12.8074 Y1.4563 Z-0.7573
X12.8055 Y1.4559 Z-0.7553
X12.804 Y1.4555 Z-0.7529
X12.8031 Y1.4553 Z-0.7503
X12.8028 Y1.4552 Z-0.7475
X12.8084 Y1.4309
Z-0.7615
X12.8087 Z-0.7643
X12.8096 Y1.4312 Z-0.7669
X12.8111 Y1.4315 Z-0.7693
X12.813 Y1.4319 Z-0.7713
X12.8153 Y1.4325 Z-0.7728
X12.8179 Y1.433 Z-0.7737
X12.8206 Y1.4337 Z-0.774
X12.8328 Y1.4364
G3 X12.8422 Y1.4514 I-0.0028 J0.0122
X12.7202 Y1.4236 I-0.061 J-0.0139
X12.8422 Y1.4514 I0.061 J0.0139
X12.8272 Y1.4608 I-0.0122 J-0.0028
G1 X12.815 Y1.458
X12.8123 Y1.4574 Z-0.7737
X12.8097 Y1.4568 Z-0.7728
X12.8074 Y1.4563 Z-0.7713
X12.8055 Y1.4559 Z-0.7693
X12.804 Y1.4555 Z-0.7669
X12.8031 Y1.4553 Z-0.7643
X12.8028 Y1.4552 Z-0.7615
G0 Z0.75
X23.0272 Y1.4309
G1 Z-0.0275 F30
X23.0275 Z-0.0303
X23.0284 Y1.4312 Z-0.0329
X23.0298 Y1.4315 Z-0.0353
X23.0317 Y1.4319 Z-0.0373
X23.0341 Y1.4325 Z-0.0388
X23.0366 Y1.433 Z-0.0397
X23.0393 Y1.4337 Z-0.04
X23.0515 Y1.4364
G3 X23.0609 Y1.4514 I-0.0028 J0.0122
X22.9391 Y1.4236 I-0.0609 J-0.0139
X23.0609 Y1.4514 I0.0609 J0.0139
X23.046 Y1.4608 I-0.0122 J-0.0028
G1 X23.0338 Y1.458
X23.0311 Y1.4574 Z-0.0397
X23.0285 Y1.4568 Z-0.0388
X23.0262 Y1.4563 Z-0.0373
X23.0243 Y1.4559 Z-0.0353
X23.0228 Y1.4555 Z-0.0329
X23.0219 Y1.4553 Z-0.0303
X23.0216 Y1.4552 Z-0.0275
X23.0272 Y1.4309
Z-0.0675
X23.0275 Z-0.0703
X23.0284 Y1.4312 Z-0.0729
X23.0298 Y1.4315 Z-0.0753
X23.0317 Y1.4319 Z-0.0773
X23.0341 Y1.4325 Z-0.0788
X23.0366 Y1.433 Z-0.0797
X23.0393 Y1.4337 Z-0.08
X23.0515 Y1.4364
G3 X23.0609 Y1.4514 I-0.0028 J0.0122
X22.9391 Y1.4236 I-0.0609 J-0.0139
X23.0609 Y1.4514 I0.0609 J0.0139
X23.046 Y1.4608 I-0.0122 J-0.0028
G1 X23.0338 Y1.458
X23.0311 Y1.4574 Z-0.0797
X23.0285 Y1.4568 Z-0.0788
X23.0262 Y1.4563 Z-0.0773
X23.0243 Y1.4559 Z-0.0753
X23.0228 Y1.4555 Z-0.0729
X23.0219 Y1.4553 Z-0.0703
X23.0216 Y1.4552 Z-0.0675
X23.0272 Y1.4309
Z-0.1075
X23.0275 Z-0.1103
X23.0284 Y1.4312 Z-0.1129
X23.0298 Y1.4315 Z-0.1153
X23.0317 Y1.4319 Z-0.1173
X23.0341 Y1.4325 Z-0.1188
X23.0366 Y1.433 Z-0.1197
X23.0393 Y1.4337 Z-0.12
X23.0515 Y1.4364
G3 X23.0609 Y1.4514 I-0.0028 J0.0122
X22.9391 Y1.4236 I-0.0609 J-0.0139
X23.0609 Y1.4514 I0.0609 J0.0139
X23.046 Y1.4608 I-0.0122 J-0.0028
G1 X23.0338 Y1.458
X23.0311 Y1.4574 Z-0.1197
X23.0285 Y1.4568 Z-0.1188
X23.0262 Y1.4563 Z-0.1173
X23.0243 Y1.4559 Z-0.1153
X23.0228 Y1.4555 Z-0.1129
X23.0219 Y1.4553 Z-0.1103
X23.0216 Y1.4552 Z-0.1075
X23.0272 Y1.4309
Z-0.1475
X23.0275 Z-0.1503
X23.0284 Y1.4312 Z-0.1529
X23.0298 Y1.4315 Z-0.1553
X23.0317 Y1.4319 Z-0.1573
X23.0341 Y1.4325 Z-0.1588
X23.0366 Y1.433 Z-0.1597
X23.0393 Y1.4337 Z-0.16
X23.0515 Y1.4364
G3 X23.0609 Y1.4514 I-0.0028 J0.0122
X22.9391 Y1.4236 I-0.0609 J-0.0139
X23.0609 Y1.4514 I0.0609 J0.0139
X23.046 Y1.4608 I-0.0122 J-0.0028
G1 X23.0338 Y1.458
X23.0311 Y1.4574 Z-0.1597
X23.0285 Y1.4568 Z-0.1588
X23.0262 Y1.4563 Z-0.1573
X23.0243 Y1.4559 Z-0.1553
X23.0228 Y1.4555 Z-0.1529
X23.0219 Y1.4553 Z-0.1503
X23.0216 Y1.4552 Z-0.1475
X23.0272 Y1.4309
Z-0.1875
X23.0275 Z-0.1903
X23.0284 Y1.4312 Z-0.1929
X23.0298 Y1.4315 Z-0.1953
X23.0317 Y1.4319 Z-0.1973
X23.0341 Y1.4325 Z-0.1988
X23.0366 Y1.433 Z-0.1997
X23.0393 Y1.4337 Z-0.2
X23.0515 Y1.4364
G3 X23.0609 Y1.4514 I-0.0028 J0.0122
X22.9391 Y1.4236 I-0.0609 J-0.0139
X23.0609 Y1.4514 I0.0609 J0.0139
X23.046 Y1.4608 I-0.0122 J-0.0028
G1 X23.0338 Y1.458
X23.0311 Y1.4574 Z-0.1997
X23.0285 Y1.4568 Z-0.1988
X23.0262 Y1.4563 Z-0.1973
X23.0243 Y1.4559 Z-0.1953
X23.0228 Y1.4555 Z-0.1929
X23.0219 Y1.4553 Z-0.1903
X23.0216 Y1.4552 Z-0.1875
X23.0272 Y1.4309
Z-0.2275
X23.0275 Z-0.2303
X23.0284 Y1.4312 Z-0.2329
X23.0298 Y1.4315 Z-0.2353
X23.0317 Y1.4319 Z-0.2373
X23.0341 Y1.4325 Z-0.2388
X23.0366 Y1.433 Z-0.2397
X23.0393 Y1.4337 Z-0.24
X23.0515 Y1.4364
G3 X23.0609 Y1.4514 I-0.0028 J0.0122
X22.9391 Y1.4236 I-0.0609 J-0.0139
X23.0609 Y1.4514 I0.0609 J0.0139
X23.046 Y1.4608 I-0.0122 J-0.0028
G1 X23.0338 Y1.458
X23.0311 Y1.4574 Z-0.2397
X23.0285 Y1.4568 Z-0.2388
X23.0262 Y1.4563 Z-0.2373
X23.0243 Y1.4559 Z-0.2353
X23.0228 Y1.4555 Z-0.2329
X23.0219 Y1.4553 Z-0.2303
X23.0216 Y1.4552 Z-0.2275
X23.0272 Y1.4309
Z-0.2675
X23.0275 Z-0.2703
X23.0284 Y1.4312 Z-0.2729
X23.0298 Y1.4315 Z-0.2753
X23.0317 Y1.4319 Z-0.2773
X23.0341 Y1.4325 Z-0.2788
X23.0366 Y1.433 Z-0.2797
X23.0393 Y1.4337 Z-0.28
X23.0515 Y1.4364
G3 X23.0609 Y1.4514 I-0.0028 J0.0122
X22.9391 Y1.4236 I-0.0609 J-0.0139
X23.0609 Y1.4514 I0.0609 J0.0139
X23.046 Y1.4608 I-0.0122 J-0.0028
G1 X23.0338 Y1.458
X23.0311 Y1.4574 Z-0.2797
X23.0285 Y1.4568 Z-0.2788
X23.0262 Y1.4563 Z-0.2773
X23.0243 Y1.4559 Z-0.2753
X23.0228 Y1.4555 Z-0.2729
X23.0219 Y1.4553 Z-0.2703
X23.0216 Y1.4552 Z-0.2675
X23.0272 Y1.4309
Z-0.3075
X23.0275 Z-0.3103
X23.0284 Y1.4312 Z-0.3129
X23.0298 Y1.4315 Z-0.3153
X23.0317 Y1.4319 Z-0.3173
X23.0341 Y1.4325 Z-0.3188
X23.0366 Y1.433 Z-0.3197
X23.0393 Y1.4337 Z-0.32
X23.0515 Y1.4364
G3 X23.0609 Y1.4514 I-0.0028 J0.0122
X22.9391 Y1.4236 I-0.0609 J-0.0139
X23.0609 Y1.4514 I0.0609 J0.0139
X23.046 Y1.4608 I-0.0122 J-0.0028
G1 X23.0338 Y1.458
X23.0311 Y1.4574 Z-0.3197
X23.0285 Y1.4568 Z-0.3188
X23.0262 Y1.4563 Z-0.3173
X23.0243 Y1.4559 Z-0.3153
X23.0228 Y1.4555 Z-0.3129
X23.0219 Y1.4553 Z-0.3103
X23.0216 Y1.4552 Z-0.3075
X23.0272 Y1.4309
Z-0.3475
X23.0275 Z-0.3503
X23.0284 Y1.4312 Z-0.3529
X23.0298 Y1.4315 Z-0.3553
X23.0317 Y1.4319 Z-0.3573
X23.0341 Y1.4325 Z-0.3588
X23.0366 Y1.433 Z-0.3597
X23.0393 Y1.4337 Z-0.36
X23.0515 Y1.4364
G3 X23.0609 Y1.4514 I-0.0028 J0.0122
X22.9391 Y1.4236 I-0.0609 J-0.0139
X23.0609 Y1.4514 I0.0609 J0.0139
X23.046 Y1.4608 I-0.0122 J-0.0028
G1 X23.0338 Y1.458
X23.0311 Y1.4574 Z-0.3597
X23.0285 Y1.4568 Z-0.3588
X23.0262 Y1.4563 Z-0.3573
X23.0243 Y1.4559 Z-0.3553
X23.0228 Y1.4555 Z-0.3529
X23.0219 Y1.4553 Z-0.3503
X23.0216 Y1.4552 Z-0.3475
X23.0272 Y1.4309
Z-0.3875
X23.0275 Z-0.3903
X23.0284 Y1.4312 Z-0.3929
X23.0298 Y1.4315 Z-0.3953
X23.0317 Y1.4319 Z-0.3973
X23.0341 Y1.4325 Z-0.3988
X23.0366 Y1.433 Z-0.3997
X23.0393 Y1.4337 Z-0.4
X23.0515 Y1.4364
G3 X23.0609 Y1.4514 I-0.0028 J0.0122
X22.9391 Y1.4236 I-0.0609 J-0.0139
X23.0609 Y1.4514 I0.0609 J0.0139
X23.046 Y1.4608 I-0.0122 J-0.0028
G1 X23.0338 Y1.458
X23.0311 Y1.4574 Z-0.3997
X23.0285 Y1.4568 Z-0.3988
X23.0262 Y1.4563 Z-0.3973
X23.0243 Y1.4559 Z-0.3953
X23.0228 Y1.4555 Z-0.3929
X23.0219 Y1.4553 Z-0.3903
X23.0216 Y1.4552 Z-0.3875
X23.0272 Y1.4309
Z-0.4275
X23.0275 Z-0.4303
X23.0284 Y1.4312 Z-0.4329
X23.0298 Y1.4315 Z-0.4353
X23.0317 Y1.4319 Z-0.4373
X23.0341 Y1.4325 Z-0.4388
X23.0366 Y1.433 Z-0.4397
X23.0393 Y1.4337 Z-0.44
X23.0515 Y1.4364
G3 X23.0609 Y1.4514 I-0.0028 J0.0122
X22.9391 Y1.4236 I-0.0609 J-0.0139
X23.0609 Y1.4514 I0.0609 J0.0139
X23.046 Y1.4608 I-0.0122 J-0.0028
G1 X23.0338 Y1.458
X23.0311 Y1.4574 Z-0.4397
X23.0285 Y1.4568 Z-0.4388
X23.0262 Y1.4563 Z-0.4373
X23.0243 Y1.4559 Z-0.4353
X23.0228 Y1.4555 Z-0.4329
X23.0219 Y1.4553 Z-0.4303
X23.0216 Y1.4552 Z-0.4275
X23.0272 Y1.4309
Z-0.4675
X23.0275 Z-0.4703
X23.0284 Y1.4312 Z-0.4729
X23.0298 Y1.4315 Z-0.4753
X23.0317 Y1.4319 Z-0.4773
X23.0341 Y1.4325 Z-0.4788
X23.0366 Y1.433 Z-0.4797
X23.0393 Y1.4337 Z-0.48
X23.0515 Y1.4364
G3 X23.0609 Y1.4514 I-0.0028 J0.0122
X22.9391 Y1.4236 I-0.0609 J-0.0139
X23.0609 Y1.4514 I0.0609 J0.0139
X23.046 Y1.4608 I-0.0122 J-0.0028
G1 X23.0338 Y1.458
X23.0311 Y1.4574 Z-0.4797
X23.0285 Y1.4568 Z-0.4788
X23.0262 Y1.4563 Z-0.4773
X23.0243 Y1.4559 Z-0.4753
X23.0228 Y1.4555 Z-0.4729
X23.0219 Y1.4553 Z-0.4703
X23.0216 Y1.4552 Z-0.4675
X23.0272 Y1.4309
Z-0.5075
X23.0275 Z-0.5103
X23.0284 Y1.4312 Z-0.5129
X23.0298 Y1.4315 Z-0.5153
X23.0317 Y1.4319 Z-0.5173
X23.0341 Y1.4325 Z-0.5188
X23.0366 Y1.433 Z-0.5197
X23.0393 Y1.4337 Z-0.52
X23.0515 Y1.4364
G3 X23.0609 Y1.4514 I-0.0028 J0.0122
X22.9391 Y1.4236 I-0.0609 J-0.0139
X23.0609 Y1.4514 I0.0609 J0.0139
X23.046 Y1.4608 I-0.0122 J-0.0028
G1 X23.0338 Y1.458
X23.0311 Y1.4574 Z-0.5197
X23.0285 Y1.4568 Z-0.5188
X23.0262 Y1.4563 Z-0.5173
X23.0243 Y1.4559 Z-0.5153
X23.0228 Y1.4555 Z-0.5129
X23.0219 Y1.4553 Z-0.5103
X23.0216 Y1.4552 Z-0.5075
X23.0272 Y1.4309
Z-0.5475
X23.0275 Z-0.5503
X23.0284 Y1.4312 Z-0.5529
X23.0298 Y1.4315 Z-0.5553
X23.0317 Y1.4319 Z-0.5573
X23.0341 Y1.4325 Z-0.5588
X23.0366 Y1.433 Z-0.5597
X23.0393 Y1.4337 Z-0.56
X23.0515 Y1.4364
G3 X23.0609 Y1.4514 I-0.0028 J0.0122
X22.9391 Y1.4236 I-0.0609 J-0.0139
X23.0609 Y1.4514 I0.0609 J0.0139
X23.046 Y1.4608 I-0.0122 J-0.0028
G1 X23.0338 Y1.458
X23.0311 Y1.4574 Z-0.5597
X23.0285 Y1.4568 Z-0.5588
X23.0262 Y1.4563 Z-0.5573
X23.0243 Y1.4559 Z-0.5553
X23.0228 Y1.4555 Z-0.5529
X23.0219 Y1.4553 Z-0.5503
X23.0216 Y1.4552 Z-0.5475
X23.0272 Y1.4309
Z-0.5875
X23.0275 Z-0.5903
X23.0284 Y1.4312 Z-0.5929
X23.0298 Y1.4315 Z-0.5953
X23.0317 Y1.4319 Z-0.5973
X23.0341 Y1.4325 Z-0.5988
X23.0366 Y1.433 Z-0.5997
X23.0393 Y1.4337 Z-0.6
X23.0515 Y1.4364
G3 X23.0609 Y1.4514 I-0.0028 J0.0122
X22.9391 Y1.4236 I-0.0609 J-0.0139
X23.0609 Y1.4514 I0.0609 J0.0139
X23.046 Y1.4608 I-0.0122 J-0.0028
G1 X23.0338 Y1.458
X23.0311 Y1.4574 Z-0.5997
X23.0285 Y1.4568 Z-0.5988
X23.0262 Y1.4563 Z-0.5973
X23.0243 Y1.4559 Z-0.5953
X23.0228 Y1.4555 Z-0.5929
X23.0219 Y1.4553 Z-0.5903
X23.0216 Y1.4552 Z-0.5875
X23.0272 Y1.4309
Z-0.6275
X23.0275 Z-0.6303
X23.0284 Y1.4312 Z-0.6329
X23.0298 Y1.4315 Z-0.6353
X23.0317 Y1.4319 Z-0.6373
X23.0341 Y1.4325 Z-0.6388
X23.0366 Y1.433 Z-0.6397
X23.0393 Y1.4337 Z-0.64
X23.0515 Y1.4364
G3 X23.0609 Y1.4514 I-0.0028 J0.0122
X22.9391 Y1.4236 I-0.0609 J-0.0139
X23.0609 Y1.4514 I0.0609 J0.0139
X23.046 Y1.4608 I-0.0122 J-0.0028
G1 X23.0338 Y1.458
X23.0311 Y1.4574 Z-0.6397
X23.0285 Y1.4568 Z-0.6388
X23.0262 Y1.4563 Z-0.6373
X23.0243 Y1.4559 Z-0.6353
X23.0228 Y1.4555 Z-0.6329
X23.0219 Y1.4553 Z-0.6303
X23.0216 Y1.4552 Z-0.6275
X23.0272 Y1.4309
Z-0.6675
X23.0275 Z-0.6703
X23.0284 Y1.4312 Z-0.6729
X23.0298 Y1.4315 Z-0.6753
X23.0317 Y1.4319 Z-0.6773
X23.0341 Y1.4325 Z-0.6788
X23.0366 Y1.433 Z-0.6797
X23.0393 Y1.4337 Z-0.68
X23.0515 Y1.4364
G3 X23.0609 Y1.4514 I-0.0028 J0.0122
X22.9391 Y1.4236 I-0.0609 J-0.0139
X23.0609 Y1.4514 I0.0609 J0.0139
X23.046 Y1.4608 I-0.0122 J-0.0028
G1 X23.0338 Y1.458
X23.0311 Y1.4574 Z-0.6797
X23.0285 Y1.4568 Z-0.6788
X23.0262 Y1.4563 Z-0.6773
X23.0243 Y1.4559 Z-0.6753
X23.0228 Y1.4555 Z-0.6729
X23.0219 Y1.4553 Z-0.6703
X23.0216 Y1.4552 Z-0.6675
X23.0272 Y1.4309
Z-0.7075
X23.0275 Z-0.7103
X23.0284 Y1.4312 Z-0.7129
X23.0298 Y1.4315 Z-0.7153
X23.0317 Y1.4319 Z-0.7173
X23.0341 Y1.4325 Z-0.7188
X23.0366 Y1.433 Z-0.7197
X23.0393 Y1.4337 Z-0.72
X23.0515 Y1.4364
G3 X23.0609 Y1.4514 I-0.0028 J0.0122
X22.9391 Y1.4236 I-0.0609 J-0.0139
X23.0609 Y1.4514 I0.0609 J0.0139
X23.046 Y1.4608 I-0.0122 J-0.0028
G1 X23.0338 Y1.458
X23.0311 Y1.4574 Z-0.7197
X23.0285 Y1.4568 Z-0.7188
X23.0262 Y1.4563 Z-0.7173
X23.0243 Y1.4559 Z-0.7153
X23.0228 Y1.4555 Z-0.7129
X23.0219 Y1.4553 Z-0.7103
X23.0216 Y1.4552 Z-0.7075
X23.0272 Y1.4309
Z-0.7475
X23.0275 Z-0.7503
X23.0284 Y1.4312 Z-0.7529
X23.0298 Y1.4315 Z-0.7553
X23.0317 Y1.4319 Z-0.7573
X23.0341 Y1.4325 Z-0.7588
X23.0366 Y1.433 Z-0.7597
X23.0393 Y1.4337 Z-0.76
X23.0515 Y1.4364
G3 X23.0609 Y1.4514 I-0.0028 J0.0122
X22.9391 Y1.4236 I-0.0609 J-0.0139
X23.0609 Y1.4514 I0.0609 J0.0139
X23.046 Y1.4608 I-0.0122 J-0.0028
G1 X23.0338 Y1.458
X23.0311 Y1.4574 Z-0.7597
X23.0285 Y1.4568 Z-0.7588
X23.0262 Y1.4563 Z-0.7573
X23.0243 Y1.4559 Z-0.7553
X23.0228 Y1.4555 Z-0.7529
X23.0219 Y1.4553 Z-0.7503
X23.0216 Y1.4552 Z-0.7475
X23.0272 Y1.4309
Z-0.7615
X23.0275 Z-0.7643
X23.0284 Y1.4312 Z-0.7669
X23.0298 Y1.4315 Z-0.7693
X23.0317 Y1.4319 Z-0.7713
X23.0341 Y1.4325 Z-0.7728
X23.0366 Y1.433 Z-0.7737
X23.0393 Y1.4337 Z-0.774
X23.0515 Y1.4364
G3 X23.0609 Y1.4514 I-0.0028 J0.0122
X22.9391 Y1.4236 I-0.0609 J-0.0139
X23.0609 Y1.4514 I0.0609 J0.0139
X23.046 Y1.4608 I-0.0122 J-0.0028
G1 X23.0338 Y1.458
X23.0311 Y1.4574 Z-0.7737
X23.0285 Y1.4568 Z-0.7728
X23.0262 Y1.4563 Z-0.7713
X23.0243 Y1.4559 Z-0.7693
X23.0228 Y1.4555 Z-0.7669
X23.0219 Y1.4553 Z-0.7643
X23.0216 Y1.4552 Z-0.7615
G0 Z0.75
X1.025 Y1.425
G1 Z-0.0275 F30
G18 G2 X1.0375 Z-0.04 I0.0125 K0
G1 X1.05
G17 G3 X1.0625 Y1.4375 I0 J0.0125
X0.9375 I-0.0625 J0
X1.0625 I0.0625 J0
X1.05 Y1.45 I-0.0125 J0
G1 X1.0375
G18 G3 X1.025 Z-0.0275 I0 K0.0125
G1 Y1.425
Z-0.0675
G2 X1.0375 Z-0.08 I0.0125 K0
G1 X1.05
G17 G3 X1.0625 Y1.4375 I0 J0.0125
X0.9375 I-0.0625 J0
X1.0625 I0.0625 J0
X1.05 Y1.45 I-0.0125 J0
G1 X1.0375
G18 G3 X1.025 Z-0.0675 I0 K0.0125
G1 Y1.425
Z-0.1075
G2 X1.0375 Z-0.12 I0.0125 K0
G1 X1.05
G17 G3 X1.0625 Y1.4375 I0 J0.0125
X0.9375 I-0.0625 J0
X1.0625 I0.0625 J0
X1.05 Y1.45 I-0.0125 J0
G1 X1.0375
G18 G3 X1.025 Z-0.1075 I0 K0.0125
G1 Y1.425
Z-0.1475
G2 X1.0375 Z-0.16 I0.0125 K0
G1 X1.05
G17 G3 X1.0625 Y1.4375 I0 J0.0125
X0.9375 I-0.0625 J0
X1.0625 I0.0625 J0
X1.05 Y1.45 I-0.0125 J0
G1 X1.0375
G18 G3 X1.025 Z-0.1475 I0 K0.0125
G1 Y1.425
Z-0.1875
G2 X1.0375 Z-0.2 I0.0125 K0
G1 X1.05
G17 G3 X1.0625 Y1.4375 I0 J0.0125
X0.9375 I-0.0625 J0
X1.0625 I0.0625 J0
X1.05 Y1.45 I-0.0125 J0
G1 X1.0375
G18 G3 X1.025 Z-0.1875 I0 K0.0125
G1 Y1.425
Z-0.2275
G2 X1.0375 Z-0.24 I0.0125 K0
G1 X1.05
G17 G3 X1.0625 Y1.4375 I0 J0.0125
X0.9375 I-0.0625 J0
X1.0625 I0.0625 J0
X1.05 Y1.45 I-0.0125 J0
G1 X1.0375
G18 G3 X1.025 Z-0.2275 I0 K0.0125
G1 Y1.425
Z-0.2675
G2 X1.0375 Z-0.28 I0.0125 K0
G1 X1.05
G17 G3 X1.0625 Y1.4375 I0 J0.0125
X0.9375 I-0.0625 J0
X1.0625 I0.0625 J0
X1.05 Y1.45 I-0.0125 J0
G1 X1.0375
G18 G3 X1.025 Z-0.2675 I0 K0.0125
G1 Y1.425
Z-0.3075
G2 X1.0375 Z-0.32 I0.0125 K0
G1 X1.05
G17 G3 X1.0625 Y1.4375 I0 J0.0125
X0.9375 I-0.0625 J0
X1.0625 I0.0625 J0
X1.05 Y1.45 I-0.0125 J0
G1 X1.0375
G18 G3 X1.025 Z-0.3075 I0 K0.0125
G1 Y1.425
Z-0.3475
G2 X1.0375 Z-0.36 I0.0125 K0
G1 X1.05
G17 G3 X1.0625 Y1.4375 I0 J0.0125
X0.9375 I-0.0625 J0
X1.0625 I0.0625 J0
X1.05 Y1.45 I-0.0125 J0
G1 X1.0375
G18 G3 X1.025 Z-0.3475 I0 K0.0125
G1 Y1.425
Z-0.3875
G2 X1.0375 Z-0.4 I0.0125 K0
G1 X1.05
G17 G3 X1.0625 Y1.4375 I0 J0.0125
X0.9375 I-0.0625 J0
X1.0625 I0.0625 J0
X1.05 Y1.45 I-0.0125 J0
G1 X1.0375
G18 G3 X1.025 Z-0.3875 I0 K0.0125
G1 Y1.425
Z-0.4275
G2 X1.0375 Z-0.44 I0.0125 K0
G1 X1.05
G17 G3 X1.0625 Y1.4375 I0 J0.0125
X0.9375 I-0.0625 J0
X1.0625 I0.0625 J0
X1.05 Y1.45 I-0.0125 J0
G1 X1.0375
G18 G3 X1.025 Z-0.4275 I0 K0.0125
G1 Y1.425
Z-0.4675
G2 X1.0375 Z-0.48 I0.0125 K0
G1 X1.05
G17 G3 X1.0625 Y1.4375 I0 J0.0125
X0.9375 I-0.0625 J0
X1.0625 I0.0625 J0
X1.05 Y1.45 I-0.0125 J0
G1 X1.0375
G18 G3 X1.025 Z-0.4675 I0 K0.0125
G1 Y1.425
Z-0.5075
G2 X1.0375 Z-0.52 I0.0125 K0
G1 X1.05
G17 G3 X1.0625 Y1.4375 I0 J0.0125
X0.9375 I-0.0625 J0
X1.0625 I0.0625 J0
X1.05 Y1.45 I-0.0125 J0
G1 X1.0375
G18 G3 X1.025 Z-0.5075 I0 K0.0125
G1 Y1.425
Z-0.5475
G2 X1.0375 Z-0.56 I0.0125 K0
G1 X1.05
G17 G3 X1.0625 Y1.4375 I0 J0.0125
X0.9375 I-0.0625 J0
X1.0625 I0.0625 J0
X1.05 Y1.45 I-0.0125 J0
G1 X1.0375
G18 G3 X1.025 Z-0.5475 I0 K0.0125
G1 Y1.425
Z-0.5875
G2 X1.0375 Z-0.6 I0.0125 K0
G1 X1.05
G17 G3 X1.0625 Y1.4375 I0 J0.0125
X0.9375 I-0.0625 J0
X1.0625 I0.0625 J0
X1.05 Y1.45 I-0.0125 J0
G1 X1.0375
G18 G3 X1.025 Z-0.5875 I0 K0.0125
G1 Y1.425
Z-0.6275
G2 X1.0375 Z-0.64 I0.0125 K0
G1 X1.05
G17 G3 X1.0625 Y1.4375 I0 J0.0125
X0.9375 I-0.0625 J0
X1.0625 I0.0625 J0
X1.05 Y1.45 I-0.0125 J0
G1 X1.0375
G18 G3 X1.025 Z-0.6275 I0 K0.0125
G1 Y1.425
Z-0.6675
G2 X1.0375 Z-0.68 I0.0125 K0
G1 X1.05
G17 G3 X1.0625 Y1.4375 I0 J0.0125
X0.9375 I-0.0625 J0
X1.0625 I0.0625 J0
X1.05 Y1.45 I-0.0125 J0
G1 X1.0375
G18 G3 X1.025 Z-0.6675 I0 K0.0125
G1 Y1.425
Z-0.7075
G2 X1.0375 Z-0.72 I0.0125 K0
G1 X1.05
G17 G3 X1.0625 Y1.4375 I0 J0.0125
X0.9375 I-0.0625 J0
X1.0625 I0.0625 J0
X1.05 Y1.45 I-0.0125 J0
G1 X1.0375
G18 G3 X1.025 Z-0.7075 I0 K0.0125
G1 Y1.425
Z-0.7475
G2 X1.0375 Z-0.76 I0.0125 K0
G1 X1.05
G17 G3 X1.0625 Y1.4375 I0 J0.0125
X0.9375 I-0.0625 J0
X1.0625 I0.0625 J0
X1.05 Y1.45 I-0.0125 J0
G1 X1.0375
G18 G3 X1.025 Z-0.7475 I0 K0.0125
G1 Y1.425
Z-0.7615
G2 X1.0375 Z-0.774 I0.0125 K0
G1 X1.05
G17 G3 X1.0625 Y1.4375 I0 J0.0125
X0.9375 I-0.0625 J0
X1.0625 I0.0625 J0
X1.05 Y1.45 I-0.0125 J0
G1 X1.0375
G18 G3 X1.025 Z-0.7615 I0 K0.0125
G0 Z0.75
G17
M5
G28 G91 Z0
G90

(2D Contour1)
T1 M6
S10000 M3
G54
G0 X12.8345 Y1.4206
Z0.75
G1 Z-0.015 F30
X12.8348 Y1.4207 Z-0.0189 F60
X12.8358 Y1.4208 Z-0.0227
X12.8372 Y1.4211 Z-0.0263
X12.8393 Y1.4214 Z-0.0297
X12.8418 Y1.4218 Z-0.0327
X12.8447 Y1.4222 Z-0.0352
X12.848 Y1.4228 Z-0.0373
X12.8516 Y1.4233 Z-0.0388
X12.8554 Y1.4239 Z-0.0397
X12.8592 Y1.4245 Z-0.04
X12.8839 Y1.4285
G3 X12.9046 Y1.457 I-0.0039 J0.0246
X12.6578 Y1.4179 I-0.1234 J-0.0195
X12.9046 Y1.457 I0.1234 J0.0196
X12.8761 Y1.4777 I-0.0246 J-0.0039
G1 X12.8514 Y1.4739
X12.8476 Y1.4733 Z-0.0397
X12.8438 Y1.4727 Z-0.0388
X12.8402 Y1.4721 Z-0.0373
X12.8369 Y1.4716 Z-0.0352
X12.834 Y1.4712 Z-0.0327
X12.8314 Y1.4708 Z-0.0297
X12.8294 Y1.4704 Z-0.0263
X12.8279 Y1.4702 Z-0.0227
X12.827 Y1.4701 Z-0.0189
X12.8267 Y1.47 Z-0.015
X12.8345 Y1.4206
Z-0.055 F30
X12.8348 Y1.4207 Z-0.0589 F60
X12.8358 Y1.4208 Z-0.0627
X12.8372 Y1.4211 Z-0.0663
X12.8393 Y1.4214 Z-0.0697
X12.8418 Y1.4218 Z-0.0727
X12.8447 Y1.4222 Z-0.0752
X12.848 Y1.4228 Z-0.0773
X12.8516 Y1.4233 Z-0.0788
X12.8554 Y1.4239 Z-0.0797
X12.8592 Y1.4245 Z-0.08
X12.8839 Y1.4285
G3 X12.9046 Y1.457 I-0.0039 J0.0246
X12.6578 Y1.4179 I-0.1234 J-0.0195
X12.9046 Y1.457 I0.1234 J0.0196
X12.8761 Y1.4777 I-0.0246 J-0.0039
G1 X12.8514 Y1.4739
X12.8476 Y1.4733 Z-0.0797
X12.8438 Y1.4727 Z-0.0788
X12.8402 Y1.4721 Z-0.0773
X12.8369 Y1.4716 Z-0.0752
X12.834 Y1.4712 Z-0.0727
X12.8314 Y1.4708 Z-0.0697
X12.8294 Y1.4704 Z-0.0663
X12.8279 Y1.4702 Z-0.0627
X12.827 Y1.4701 Z-0.0589
X12.8267 Y1.47 Z-0.055
X12.8345 Y1.4206
Z-0.095 F30
X12.8348 Y1.4207 Z-0.0989 F60
X12.8358 Y1.4208 Z-0.1027
X12.8372 Y1.4211 Z-0.1063
X12.8393 Y1.4214 Z-0.1097
X12.8418 Y1.4218 Z-0.1127
X12.8447 Y1.4222 Z-0.1152
X12.848 Y1.4228 Z-0.1173
X12.8516 Y1.4233 Z-0.1188
X12.8554 Y1.4239 Z-0.1197
X12.8592 Y1.4245 Z-0.12
X12.8839 Y1.4285
G3 X12.9046 Y1.457 I-0.0039 J0.0246
X12.6578 Y1.4179 I-0.1234 J-0.0195
X12.9046 Y1.457 I0.1234 J0.0196
X12.8761 Y1.4777 I-0.0246 J-0.0039
G1 X12.8514 Y1.4739
X12.8476 Y1.4733 Z-0.1197
X12.8438 Y1.4727 Z-0.1188
X12.8402 Y1.4721 Z-0.1173
X12.8369 Y1.4716 Z-0.1152
X12.834 Y1.4712 Z-0.1127
X12.8314 Y1.4708 Z-0.1097
X12.8294 Y1.4704 Z-0.1063
X12.8279 Y1.4702 Z-0.1027
X12.827 Y1.4701 Z-0.0989
X12.8267 Y1.47 Z-0.095
X12.8345 Y1.4206
Z-0.135 F30
X12.8348 Y1.4207 Z-0.1389 F60
X12.8358 Y1.4208 Z-0.1427
X12.8372 Y1.4211 Z-0.1463
X12.8393 Y1.4214 Z-0.1497
X12.8418 Y1.4218 Z-0.1527
X12.8447 Y1.4222 Z-0.1552
X12.848 Y1.4228 Z-0.1573
X12.8516 Y1.4233 Z-0.1588
X12.8554 Y1.4239 Z-0.1597
X12.8592 Y1.4245 Z-0.16
X12.8839 Y1.4285
G3 X12.9046 Y1.457 I-0.0039 J0.0246
X12.6578 Y1.4179 I-0.1234 J-0.0195
X12.9046 Y1.457 I0.1234 J0.0196
X12.8761 Y1.4777 I-0.0246 J-0.0039
G1 X12.8514 Y1.4739
X12.8476 Y1.4733 Z-0.1597
X12.8438 Y1.4727 Z-0.1588
X12.8402 Y1.4721 Z-0.1573
X12.8369 Y1.4716 Z-0.1552
X12.834 Y1.4712 Z-0.1527
X12.8314 Y1.4708 Z-0.1497
X12.8294 Y1.4704 Z-0.1463
X12.8279 Y1.4702 Z-0.1427
X12.827 Y1.4701 Z-0.1389
X12.8267 Y1.47 Z-0.135
X12.8345 Y1.4206
Z-0.175 F30
X12.8348 Y1.4207 Z-0.1789 F60
X12.8358 Y1.4208 Z-0.1827
X12.8372 Y1.4211 Z-0.1863
X12.8393 Y1.4214 Z-0.1897
X12.8418 Y1.4218 Z-0.1927
X12.8447 Y1.4222 Z-0.1952
X12.848 Y1.4228 Z-0.1973
X12.8516 Y1.4233 Z-0.1988
X12.8554 Y1.4239 Z-0.1997
X12.8592 Y1.4245 Z-0.2
X12.8839 Y1.4285
G3 X12.9046 Y1.457 I-0.0039 J0.0246
X12.6578 Y1.4179 I-0.1234 J-0.0195
X12.9046 Y1.457 I0.1234 J0.0196
X12.8761 Y1.4777 I-0.0246 J-0.0039
G1 X12.8514 Y1.4739
X12.8476 Y1.4733 Z-0.1997
X12.8438 Y1.4727 Z-0.1988
X12.8402 Y1.4721 Z-0.1973
X12.8369 Y1.4716 Z-0.1952
X12.834 Y1.4712 Z-0.1927
X12.8314 Y1.4708 Z-0.1897
X12.8294 Y1.4704 Z-0.1863
X12.8279 Y1.4702 Z-0.1827
X12.827 Y1.4701 Z-0.1789
X12.8267 Y1.47 Z-0.175
X12.8345 Y1.4206
Z-0.215 F30
X12.8348 Y1.4207 Z-0.2189 F60
X12.8358 Y1.4208 Z-0.2227
X12.8372 Y1.4211 Z-0.2263
X12.8393 Y1.4214 Z-0.2297
X12.8418 Y1.4218 Z-0.2327
X12.8447 Y1.4222 Z-0.2352
X12.848 Y1.4228 Z-0.2373
X12.8516 Y1.4233 Z-0.2388
X12.8554 Y1.4239 Z-0.2397
X12.8592 Y1.4245 Z-0.24
X12.8839 Y1.4285
G3 X12.9046 Y1.457 I-0.0039 J0.0246
X12.6578 Y1.4179 I-0.1234 J-0.0195
X12.9046 Y1.457 I0.1234 J0.0196
X12.8761 Y1.4777 I-0.0246 J-0.0039
G1 X12.8514 Y1.4739
X12.8476 Y1.4733 Z-0.2397
X12.8438 Y1.4727 Z-0.2388
X12.8402 Y1.4721 Z-0.2373
X12.8369 Y1.4716 Z-0.2352
X12.834 Y1.4712 Z-0.2327
X12.8314 Y1.4708 Z-0.2297
X12.8294 Y1.4704 Z-0.2263
X12.8279 Y1.4702 Z-0.2227
X12.827 Y1.4701 Z-0.2189
X12.8267 Y1.47 Z-0.215
X12.8345 Y1.4206
Z-0.255 F30
X12.8348 Y1.4207 Z-0.2589 F60
X12.8358 Y1.4208 Z-0.2627
X12.8372 Y1.4211 Z-0.2663
X12.8393 Y1.4214 Z-0.2697
X12.8418 Y1.4218 Z-0.2727
X12.8447 Y1.4222 Z-0.2752
X12.848 Y1.4228 Z-0.2773
X12.8516 Y1.4233 Z-0.2788
X12.8554 Y1.4239 Z-0.2797
X12.8592 Y1.4245 Z-0.28
X12.8839 Y1.4285
G3 X12.9046 Y1.457 I-0.0039 J0.0246
X12.6578 Y1.4179 I-0.1234 J-0.0195
X12.9046 Y1.457 I0.1234 J0.0196
X12.8761 Y1.4777 I-0.0246 J-0.0039
G1 X12.8514 Y1.4739
X12.8476 Y1.4733 Z-0.2797
X12.8438 Y1.4727 Z-0.2788
X12.8402 Y1.4721 Z-0.2773
X12.8369 Y1.4716 Z-0.2752
X12.834 Y1.4712 Z-0.2727
X12.8314 Y1.4708 Z-0.2697
X12.8294 Y1.4704 Z-0.2663
X12.8279 Y1.4702 Z-0.2627
X12.827 Y1.4701 Z-0.2589
X12.8267 Y1.47 Z-0.255
X12.8345 Y1.4206
Z-0.295 F30
X12.8348 Y1.4207 Z-0.2989 F60
X12.8358 Y1.4208 Z-0.3027
X12.8372 Y1.4211 Z-0.3063
X12.8393 Y1.4214 Z-0.3097
X12.8418 Y1.4218 Z-0.3127
X12.8447 Y1.4222 Z-0.3152
X12.848 Y1.4228 Z-0.3173
X12.8516 Y1.4233 Z-0.3188
X12.8554 Y1.4239 Z-0.3197
X12.8592 Y1.4245 Z-0.32
X12.8839 Y1.4285
G3 X12.9046 Y1.457 I-0.0039 J0.0246
X12.6578 Y1.4179 I-0.1234 J-0.0195
X12.9046 Y1.457 I0.1234 J0.0196
X12.8761 Y1.4777 I-0.0246 J-0.0039
G1 X12.8514 Y1.4739
X12.8476 Y1.4733 Z-0.3197
X12.8438 Y1.4727 Z-0.3188
X12.8402 Y1.4721 Z-0.3173
X12.8369 Y1.4716 Z-0.3152
X12.834 Y1.4712 Z-0.3127
X12.8314 Y1.4708 Z-0.3097
X12.8294 Y1.4704 Z-0.3063
X12.8279 Y1.4702 Z-0.3027
X12.827 Y1.4701 Z-0.2989
X12.8267 Y1.47 Z-0.295
X12.8345 Y1.4206
Z-0.335 F30
X12.8348 Y1.4207 Z-0.3389 F60
X12.8358 Y1.4208 Z-0.3427
X12.8372 Y1.4211 Z-0.3463
X12.8393 Y1.4214 Z-0.3497
X12.8418 Y1.4218 Z-0.3527
X12.8447 Y1.4222 Z-0.3552
X12.848 Y1.4228 Z-0.3573
X12.8516 Y1.4233 Z-0.3588
X12.8554 Y1.4239 Z-0.3597
X12.8592 Y1.4245 Z-0.36
X12.8839 Y1.4285
G3 X12.9046 Y1.457 I-0.0039 J0.0246
X12.6578 Y1.4179 I-0.1234 J-0.0195
X12.9046 Y1.457 I0.1234 J0.0196
X12.8761 Y1.4777 I-0.0246 J-0.0039
G1 X12.8514 Y1.4739
X12.8476 Y1.4733 Z-0.3597
X12.8438 Y1.4727 Z-0.3588
X12.8402 Y1.4721 Z-0.3573
X12.8369 Y1.4716 Z-0.3552
X12.834 Y1.4712 Z-0.3527
X12.8314 Y1.4708 Z-0.3497
X12.8294 Y1.4704 Z-0.3463
X12.8279 Y1.4702 Z-0.3427
X12.827 Y1.4701 Z-0.3389
X12.8267 Y1.47 Z-0.335
X12.8345 Y1.4206
Z-0.362 F30
X12.8348 Y1.4207 Z-0.3659 F60
X12.8358 Y1.4208 Z-0.3697
X12.8372 Y1.4211 Z-0.3733
X12.8393 Y1.4214 Z-0.3767
X12.8418 Y1.4218 Z-0.3797
X12.8447 Y1.4222 Z-0.3822
X12.848 Y1.4228 Z-0.3843
X12.8516 Y1.4233 Z-0.3858
X12.8554 Y1.4239 Z-0.3867
X12.8592 Y1.4245 Z-0.387
X12.8839 Y1.4285
G3 X12.9046 Y1.457 I-0.0039 J0.0246
X12.6578 Y1.4179 I-0.1234 J-0.0195
X12.9046 Y1.457 I0.1234 J0.0196
X12.8761 Y1.4777 I-0.0246 J-0.0039
G1 X12.8514 Y1.4739
X12.8476 Y1.4733 Z-0.3867
X12.8438 Y1.4727 Z-0.3858
X12.8402 Y1.4721 Z-0.3843
X12.8369 Y1.4716 Z-0.3822
X12.834 Y1.4712 Z-0.3797
X12.8314 Y1.4708 Z-0.3767
X12.8294 Y1.4704 Z-0.3733
X12.8279 Y1.4702 Z-0.3697
X12.827 Y1.4701 Z-0.3659
X12.8267 Y1.47 Z-0.362
G0 Z0.75
X23.0533 Y1.4206
G1 Z-0.015 F30
X23.0536 Y1.4207 Z-0.0189 F60
X23.0545 Y1.4208 Z-0.0227
X23.056 Y1.4211 Z-0.0263
X23.058 Y1.4214 Z-0.0297
X23.0605 Y1.4218 Z-0.0327
X23.0635 Y1.4222 Z-0.0352
X23.0668 Y1.4228 Z-0.0373
X23.0704 Y1.4233 Z-0.0388
X23.0741 Y1.4239 Z-0.0397
X23.078 Y1.4245 Z-0.04
X23.1027 Y1.4285
G3 X23.1234 Y1.457 I-0.0039 J0.0246
X22.8766 Y1.418 I-0.1234 J-0.0195
X23.1234 Y1.457 I0.1234 J0.0195
X23.0949 Y1.4777 I-0.0246 J-0.0039
G1 X23.0702 Y1.4739
X23.0663 Y1.4733 Z-0.0397
X23.0625 Y1.4727 Z-0.0388
X23.059 Y1.4721 Z-0.0373
X23.0557 Y1.4716 Z-0.0352
X23.0527 Y1.4712 Z-0.0327
X23.0502 Y1.4708 Z-0.0297
X23.0482 Y1.4704 Z-0.0263
X23.0467 Y1.4702 Z-0.0227
X23.0458 Y1.4701 Z-0.0189
X23.0455 Y1.47 Z-0.015
X23.0533 Y1.4206
Z-0.055 F30
X23.0536 Y1.4207 Z-0.0589 F60
X23.0545 Y1.4208 Z-0.0627
X23.056 Y1.4211 Z-0.0663
X23.058 Y1.4214 Z-0.0697
X23.0605 Y1.4218 Z-0.0727
X23.0635 Y1.4222 Z-0.0752
X23.0668 Y1.4228 Z-0.0773
X23.0704 Y1.4233 Z-0.0788
X23.0741 Y1.4239 Z-0.0797
X23.078 Y1.4245 Z-0.08
X23.1027 Y1.4285
G3 X23.1234 Y1.457 I-0.0039 J0.0246
X22.8766 Y1.418 I-0.1234 J-0.0195
X23.1234 Y1.457 I0.1234 J0.0195
X23.0949 Y1.4777 I-0.0246 J-0.0039
G1 X23.0702 Y1.4739
X23.0663 Y1.4733 Z-0.0797
X23.0625 Y1.4727 Z-0.0788
X23.059 Y1.4721 Z-0.0773
X23.0557 Y1.4716 Z-0.0752
X23.0527 Y1.4712 Z-0.0727
X23.0502 Y1.4708 Z-0.0697
X23.0482 Y1.4704 Z-0.0663
X23.0467 Y1.4702 Z-0.0627
X23.0458 Y1.4701 Z-0.0589
X23.0455 Y1.47 Z-0.055
X23.0533 Y1.4206
Z-0.095 F30
X23.0536 Y1.4207 Z-0.0989 F60
X23.0545 Y1.4208 Z-0.1027
X23.056 Y1.4211 Z-0.1063
X23.058 Y1.4214 Z-0.1097
X23.0605 Y1.4218 Z-0.1127
X23.0635 Y1.4222 Z-0.1152
X23.0668 Y1.4228 Z-0.1173
X23.0704 Y1.4233 Z-0.1188
X23.0741 Y1.4239 Z-0.1197
X23.078 Y1.4245 Z-0.12
X23.1027 Y1.4285
G3 X23.1234 Y1.457 I-0.0039 J0.0246
X22.8766 Y1.418 I-0.1234 J-0.0195
X23.1234 Y1.457 I0.1234 J0.0195
X23.0949 Y1.4777 I-0.0246 J-0.0039
G1 X23.0702 Y1.4739
X23.0663 Y1.4733 Z-0.1197
X23.0625 Y1.4727 Z-0.1188
X23.059 Y1.4721 Z-0.1173
X23.0557 Y1.4716 Z-0.1152
X23.0527 Y1.4712 Z-0.1127
X23.0502 Y1.4708 Z-0.1097
X23.0482 Y1.4704 Z-0.1063
X23.0467 Y1.4702 Z-0.1027
X23.0458 Y1.4701 Z-0.0989
X23.0455 Y1.47 Z-0.095
X23.0533 Y1.4206
Z-0.135 F30
X23.0536 Y1.4207 Z-0.1389 F60
X23.0545 Y1.4208 Z-0.1427
X23.056 Y1.4211 Z-0.1463
X23.058 Y1.4214 Z-0.1497
X23.0605 Y1.4218 Z-0.1527
X23.0635 Y1.4222 Z-0.1552
X23.0668 Y1.4228 Z-0.1573
X23.0704 Y1.4233 Z-0.1588
X23.0741 Y1.4239 Z-0.1597
X23.078 Y1.4245 Z-0.16
X23.1027 Y1.4285
G3 X23.1234 Y1.457 I-0.0039 J0.0246
X22.8766 Y1.418 I-0.1234 J-0.0195
X23.1234 Y1.457 I0.1234 J0.0195
X23.0949 Y1.4777 I-0.0246 J-0.0039
G1 X23.0702 Y1.4739
X23.0663 Y1.4733 Z-0.1597
X23.0625 Y1.4727 Z-0.1588
X23.059 Y1.4721 Z-0.1573
X23.0557 Y1.4716 Z-0.1552
X23.0527 Y1.4712 Z-0.1527
X23.0502 Y1.4708 Z-0.1497
X23.0482 Y1.4704 Z-0.1463
X23.0467 Y1.4702 Z-0.1427
X23.0458 Y1.4701 Z-0.1389
X23.0455 Y1.47 Z-0.135
X23.0533 Y1.4206
Z-0.175 F30
X23.0536 Y1.4207 Z-0.1789 F60
X23.0545 Y1.4208 Z-0.1827
X23.056 Y1.4211 Z-0.1863
X23.058 Y1.4214 Z-0.1897
X23.0605 Y1.4218 Z-0.1927
X23.0635 Y1.4222 Z-0.1952
X23.0668 Y1.4228 Z-0.1973
X23.0704 Y1.4233 Z-0.1988
X23.0741 Y1.4239 Z-0.1997
X23.078 Y1.4245 Z-0.2
X23.1027 Y1.4285
G3 X23.1234 Y1.457 I-0.0039 J0.0246
X22.8766 Y1.418 I-0.1234 J-0.0195
X23.1234 Y1.457 I0.1234 J0.0195
X23.0949 Y1.4777 I-0.0246 J-0.0039
G1 X23.0702 Y1.4739
X23.0663 Y1.4733 Z-0.1997
X23.0625 Y1.4727 Z-0.1988
X23.059 Y1.4721 Z-0.1973
X23.0557 Y1.4716 Z-0.1952
X23.0527 Y1.4712 Z-0.1927
X23.0502 Y1.4708 Z-0.1897
X23.0482 Y1.4704 Z-0.1863
X23.0467 Y1.4702 Z-0.1827
X23.0458 Y1.4701 Z-0.1789
X23.0455 Y1.47 Z-0.175
X23.0533 Y1.4206
Z-0.215 F30
X23.0536 Y1.4207 Z-0.2189 F60
X23.0545 Y1.4208 Z-0.2227
X23.056 Y1.4211 Z-0.2263
X23.058 Y1.4214 Z-0.2297
X23.0605 Y1.4218 Z-0.2327
X23.0635 Y1.4222 Z-0.2352
X23.0668 Y1.4228 Z-0.2373
X23.0704 Y1.4233 Z-0.2388
X23.0741 Y1.4239 Z-0.2397
X23.078 Y1.4245 Z-0.24
X23.1027 Y1.4285
G3 X23.1234 Y1.457 I-0.0039 J0.0246
X22.8766 Y1.418 I-0.1234 J-0.0195
X23.1234 Y1.457 I0.1234 J0.0195
X23.0949 Y1.4777 I-0.0246 J-0.0039
G1 X23.0702 Y1.4739
X23.0663 Y1.4733 Z-0.2397
X23.0625 Y1.4727 Z-0.2388
X23.059 Y1.4721 Z-0.2373
X23.0557 Y1.4716 Z-0.2352
X23.0527 Y1.4712 Z-0.2327
X23.0502 Y1.4708 Z-0.2297
X23.0482 Y1.4704 Z-0.2263
X23.0467 Y1.4702 Z-0.2227
X23.0458 Y1.4701 Z-0.2189
X23.0455 Y1.47 Z-0.215
X23.0533 Y1.4206
Z-0.255 F30
X23.0536 Y1.4207 Z-0.2589 F60
X23.0545 Y1.4208 Z-0.2627
X23.056 Y1.4211 Z-0.2663
X23.058 Y1.4214 Z-0.2697
X23.0605 Y1.4218 Z-0.2727
X23.0635 Y1.4222 Z-0.2752
X23.0668 Y1.4228 Z-0.2773
X23.0704 Y1.4233 Z-0.2788
X23.0741 Y1.4239 Z-0.2797
X23.078 Y1.4245 Z-0.28
X23.1027 Y1.4285
G3 X23.1234 Y1.457 I-0.0039 J0.0246
X22.8766 Y1.418 I-0.1234 J-0.0195
X23.1234 Y1.457 I0.1234 J0.0195
X23.0949 Y1.4777 I-0.0246 J-0.0039
G1 X23.0702 Y1.4739
X23.0663 Y1.4733 Z-0.2797
X23.0625 Y1.4727 Z-0.2788
X23.059 Y1.4721 Z-0.2773
X23.0557 Y1.4716 Z-0.2752
X23.0527 Y1.4712 Z-0.2727
X23.0502 Y1.4708 Z-0.2697
X23.0482 Y1.4704 Z-0.2663
X23.0467 Y1.4702 Z-0.2627
X23.0458 Y1.4701 Z-0.2589
X23.0455 Y1.47 Z-0.255
X23.0533 Y1.4206
Z-0.295 F30
X23.0536 Y1.4207 Z-0.2989 F60
X23.0545 Y1.4208 Z-0.3027
X23.056 Y1.4211 Z-0.3063
X23.058 Y1.4214 Z-0.3097
X23.0605 Y1.4218 Z-0.3127
X23.0635 Y1.4222 Z-0.3152
X23.0668 Y1.4228 Z-0.3173
X23.0704 Y1.4233 Z-0.3188
X23.0741 Y1.4239 Z-0.3197
X23.078 Y1.4245 Z-0.32
X23.1027 Y1.4285
G3 X23.1234 Y1.457 I-0.0039 J0.0246
X22.8766 Y1.418 I-0.1234 J-0.0195
X23.1234 Y1.457 I0.1234 J0.0195
X23.0949 Y1.4777 I-0.0246 J-0.0039
G1 X23.0702 Y1.4739
X23.0663 Y1.4733 Z-0.3197
X23.0625 Y1.4727 Z-0.3188
X23.059 Y1.4721 Z-0.3173
X23.0557 Y1.4716 Z-0.3152
X23.0527 Y1.4712 Z-0.3127
X23.0502 Y1.4708 Z-0.3097
X23.0482 Y1.4704 Z-0.3063
X23.0467 Y1.4702 Z-0.3027
X23.0458 Y1.4701 Z-0.2989
X23.0455 Y1.47 Z-0.295
X23.0533 Y1.4206
Z-0.335 F30
X23.0536 Y1.4207 Z-0.3389 F60
X23.0545 Y1.4208 Z-0.3427
X23.056 Y1.4211 Z-0.3463
X23.058 Y1.4214 Z-0.3497
X23.0605 Y1.4218 Z-0.3527
X23.0635 Y1.4222 Z-0.3552
X23.0668 Y1.4228 Z-0.3573
X23.0704 Y1.4233 Z-0.3588
X23.0741 Y1.4239 Z-0.3597
X23.078 Y1.4245 Z-0.36
X23.1027 Y1.4285
G3 X23.1234 Y1.457 I-0.0039 J0.0246
X22.8766 Y1.418 I-0.1234 J-0.0195
X23.1234 Y1.457 I0.1234 J0.0195
X23.0949 Y1.4777 I-0.0246 J-0.0039
G1 X23.0702 Y1.4739
X23.0663 Y1.4733 Z-0.3597
X23.0625 Y1.4727 Z-0.3588
X23.059 Y1.4721 Z-0.3573
X23.0557 Y1.4716 Z-0.3552
X23.0527 Y1.4712 Z-0.3527
X23.0502 Y1.4708 Z-0.3497
X23.0482 Y1.4704 Z-0.3463
X23.0467 Y1.4702 Z-0.3427
X23.0458 Y1.4701 Z-0.3389
X23.0455 Y1.47 Z-0.335
X23.0533 Y1.4206
Z-0.362 F30
X23.0536 Y1.4207 Z-0.3659 F60
X23.0545 Y1.4208 Z-0.3697
X23.056 Y1.4211 Z-0.3733
X23.058 Y1.4214 Z-0.3767
X23.0605 Y1.4218 Z-0.3797
X23.0635 Y1.4222 Z-0.3822
X23.0668 Y1.4228 Z-0.3843
X23.0704 Y1.4233 Z-0.3858
X23.0741 Y1.4239 Z-0.3867
X23.078 Y1.4245 Z-0.387
X23.1027 Y1.4285
G3 X23.1234 Y1.457 I-0.0039 J0.0246
X22.8766 Y1.418 I-0.1234 J-0.0195
X23.1234 Y1.457 I0.1234 J0.0195
X23.0949 Y1.4777 I-0.0246 J-0.0039
G1 X23.0702 Y1.4739
X23.0663 Y1.4733 Z-0.3867
X23.0625 Y1.4727 Z-0.3858
X23.059 Y1.4721 Z-0.3843
X23.0557 Y1.4716 Z-0.3822
X23.0527 Y1.4712 Z-0.3797
X23.0502 Y1.4708 Z-0.3767
X23.0482 Y1.4704 Z-0.3733
X23.0467 Y1.4702 Z-0.3697
X23.0458 Y1.4701 Z-0.3659
X23.0455 Y1.47 Z-0.362
G0 Z0.75
X1.0533 Y1.4206
G1 Z-0.015 F30
X1.0536 Y1.4207 Z-0.0189 F60
X1.0545 Y1.4208 Z-0.0227
X1.056 Y1.4211 Z-0.0263
X1.058 Y1.4214 Z-0.0297
X1.0605 Y1.4218 Z-0.0327
X1.0635 Y1.4222 Z-0.0352
X1.0668 Y1.4228 Z-0.0373
X1.0704 Y1.4233 Z-0.0388
X1.0741 Y1.4239 Z-0.0397
X1.078 Y1.4245 Z-0.04
X1.1027 Y1.4285
G3 X1.1234 Y1.457 I-0.0039 J0.0246
X0.8766 Y1.418 I-0.1234 J-0.0195
X1.1234 Y1.457 I0.1234 J0.0195
X1.0949 Y1.4777 I-0.0246 J-0.0039
G1 X1.0702 Y1.4739
X1.0663 Y1.4733 Z-0.0397
X1.0625 Y1.4727 Z-0.0388
X1.059 Y1.4721 Z-0.0373
X1.0557 Y1.4716 Z-0.0352
X1.0527 Y1.4712 Z-0.0327
X1.0502 Y1.4708 Z-0.0297
X1.0482 Y1.4704 Z-0.0263
X1.0467 Y1.4702 Z-0.0227
X1.0458 Y1.4701 Z-0.0189
X1.0455 Y1.47 Z-0.015
X1.0533 Y1.4206
Z-0.055 F30
X1.0536 Y1.4207 Z-0.0589 F60
X1.0545 Y1.4208 Z-0.0627
X1.056 Y1.4211 Z-0.0663
X1.058 Y1.4214 Z-0.0697
X1.0605 Y1.4218 Z-0.0727
X1.0635 Y1.4222 Z-0.0752
X1.0668 Y1.4228 Z-0.0773
X1.0704 Y1.4233 Z-0.0788
X1.0741 Y1.4239 Z-0.0797
X1.078 Y1.4245 Z-0.08
X1.1027 Y1.4285
G3 X1.1234 Y1.457 I-0.0039 J0.0246
X0.8766 Y1.418 I-0.1234 J-0.0195
X1.1234 Y1.457 I0.1234 J0.0195
X1.0949 Y1.4777 I-0.0246 J-0.0039
G1 X1.0702 Y1.4739
X1.0663 Y1.4733 Z-0.0797
X1.0625 Y1.4727 Z-0.0788
X1.059 Y1.4721 Z-0.0773
X1.0557 Y1.4716 Z-0.0752
X1.0527 Y1.4712 Z-0.0727
X1.0502 Y1.4708 Z-0.0697
X1.0482 Y1.4704 Z-0.0663
X1.0467 Y1.4702 Z-0.0627
X1.0458 Y1.4701 Z-0.0589
X1.0455 Y1.47 Z-0.055
X1.0533 Y1.4206
Z-0.095 F30
X1.0536 Y1.4207 Z-0.0989 F60
X1.0545 Y1.4208 Z-0.1027
X1.056 Y1.4211 Z-0.1063
X1.058 Y1.4214 Z-0.1097
X1.0605 Y1.4218 Z-0.1127
X1.0635 Y1.4222 Z-0.1152
X1.0668 Y1.4228 Z-0.1173
X1.0704 Y1.4233 Z-0.1188
X1.0741 Y1.4239 Z-0.1197
X1.078 Y1.4245 Z-0.12
X1.1027 Y1.4285
G3 X1.1234 Y1.457 I-0.0039 J0.0246
X0.8766 Y1.418 I-0.1234 J-0.0195
X1.1234 Y1.457 I0.1234 J0.0195
X1.0949 Y1.4777 I-0.0246 J-0.0039
G1 X1.0702 Y1.4739
X1.0663 Y1.4733 Z-0.1197
X1.0625 Y1.4727 Z-0.1188
X1.059 Y1.4721 Z-0.1173
X1.0557 Y1.4716 Z-0.1152
X1.0527 Y1.4712 Z-0.1127
X1.0502 Y1.4708 Z-0.1097
X1.0482 Y1.4704 Z-0.1063
X1.0467 Y1.4702 Z-0.1027
X1.0458 Y1.4701 Z-0.0989
X1.0455 Y1.47 Z-0.095
X1.0533 Y1.4206
Z-0.135 F30
X1.0536 Y1.4207 Z-0.1389 F60
X1.0545 Y1.4208 Z-0.1427
X1.056 Y1.4211 Z-0.1463
X1.058 Y1.4214 Z-0.1497
X1.0605 Y1.4218 Z-0.1527
X1.0635 Y1.4222 Z-0.1552
X1.0668 Y1.4228 Z-0.1573
X1.0704 Y1.4233 Z-0.1588
X1.0741 Y1.4239 Z-0.1597
X1.078 Y1.4245 Z-0.16
X1.1027 Y1.4285
G3 X1.1234 Y1.457 I-0.0039 J0.0246
X0.8766 Y1.418 I-0.1234 J-0.0195
X1.1234 Y1.457 I0.1234 J0.0195
X1.0949 Y1.4777 I-0.0246 J-0.0039
G1 X1.0702 Y1.4739
X1.0663 Y1.4733 Z-0.1597
X1.0625 Y1.4727 Z-0.1588
X1.059 Y1.4721 Z-0.1573
X1.0557 Y1.4716 Z-0.1552
X1.0527 Y1.4712 Z-0.1527
X1.0502 Y1.4708 Z-0.1497
X1.0482 Y1.4704 Z-0.1463
X1.0467 Y1.4702 Z-0.1427
X1.0458 Y1.4701 Z-0.1389
X1.0455 Y1.47 Z-0.135
X1.0533 Y1.4206
Z-0.175 F30
X1.0536 Y1.4207 Z-0.1789 F60
X1.0545 Y1.4208 Z-0.1827
X1.056 Y1.4211 Z-0.1863
X1.058 Y1.4214 Z-0.1897
X1.0605 Y1.4218 Z-0.1927
X1.0635 Y1.4222 Z-0.1952
X1.0668 Y1.4228 Z-0.1973
X1.0704 Y1.4233 Z-0.1988
X1.0741 Y1.4239 Z-0.1997
X1.078 Y1.4245 Z-0.2
X1.1027 Y1.4285
G3 X1.1234 Y1.457 I-0.0039 J0.0246
X0.8766 Y1.418 I-0.1234 J-0.0195
X1.1234 Y1.457 I0.1234 J0.0195
X1.0949 Y1.4777 I-0.0246 J-0.0039
G1 X1.0702 Y1.4739
X1.0663 Y1.4733 Z-0.1997
X1.0625 Y1.4727 Z-0.1988
X1.059 Y1.4721 Z-0.1973
X1.0557 Y1.4716 Z-0.1952
X1.0527 Y1.4712 Z-0.1927
X1.0502 Y1.4708 Z-0.1897
X1.0482 Y1.4704 Z-0.1863
X1.0467 Y1.4702 Z-0.1827
X1.0458 Y1.4701 Z-0.1789
X1.0455 Y1.47 Z-0.175
X1.0533 Y1.4206
Z-0.215 F30
X1.0536 Y1.4207 Z-0.2189 F60
X1.0545 Y1.4208 Z-0.2227
X1.056 Y1.4211 Z-0.2263
X1.058 Y1.4214 Z-0.2297
X1.0605 Y1.4218 Z-0.2327
X1.0635 Y1.4222 Z-0.2352
X1.0668 Y1.4228 Z-0.2373
X1.0704 Y1.4233 Z-0.2388
X1.0741 Y1.4239 Z-0.2397
X1.078 Y1.4245 Z-0.24
X1.1027 Y1.4285
G3 X1.1234 Y1.457 I-0.0039 J0.0246
X0.8766 Y1.418 I-0.1234 J-0.0195
X1.1234 Y1.457 I0.1234 J0.0195
X1.0949 Y1.4777 I-0.0246 J-0.0039
G1 X1.0702 Y1.4739
X1.0663 Y1.4733 Z-0.2397
X1.0625 Y1.4727 Z-0.2388
X1.059 Y1.4721 Z-0.2373
X1.0557 Y1.4716 Z-0.2352
X1.0527 Y1.4712 Z-0.2327
X1.0502 Y1.4708 Z-0.2297
X1.0482 Y1.4704 Z-0.2263
X1.0467 Y1.4702 Z-0.2227
X1.0458 Y1.4701 Z-0.2189
X1.0455 Y1.47 Z-0.215
X1.0533 Y1.4206
Z-0.255 F30
X1.0536 Y1.4207 Z-0.2589 F60
X1.0545 Y1.4208 Z-0.2627
X1.056 Y1.4211 Z-0.2663
X1.058 Y1.4214 Z-0.2697
X1.0605 Y1.4218 Z-0.2727
X1.0635 Y1.4222 Z-0.2752
X1.0668 Y1.4228 Z-0.2773
X1.0704 Y1.4233 Z-0.2788
X1.0741 Y1.4239 Z-0.2797
X1.078 Y1.4245 Z-0.28
X1.1027 Y1.4285
G3 X1.1234 Y1.457 I-0.0039 J0.0246
X0.8766 Y1.418 I-0.1234 J-0.0195
X1.1234 Y1.457 I0.1234 J0.0195
X1.0949 Y1.4777 I-0.0246 J-0.0039
G1 X1.0702 Y1.4739
X1.0663 Y1.4733 Z-0.2797
X1.0625 Y1.4727 Z-0.2788
X1.059 Y1.4721 Z-0.2773
X1.0557 Y1.4716 Z-0.2752
X1.0527 Y1.4712 Z-0.2727
X1.0502 Y1.4708 Z-0.2697
X1.0482 Y1.4704 Z-0.2663
X1.0467 Y1.4702 Z-0.2627
X1.0458 Y1.4701 Z-0.2589
X1.0455 Y1.47 Z-0.255
X1.0533 Y1.4206
Z-0.295 F30
X1.0536 Y1.4207 Z-0.2989 F60
X1.0545 Y1.4208 Z-0.3027
X1.056 Y1.4211 Z-0.3063
X1.058 Y1.4214 Z-0.3097
X1.0605 Y1.4218 Z-0.3127
X1.0635 Y1.4222 Z-0.3152
X1.0668 Y1.4228 Z-0.3173
X1.0704 Y1.4233 Z-0.3188
X1.0741 Y1.4239 Z-0.3197
X1.078 Y1.4245 Z-0.32
X1.1027 Y1.4285
G3 X1.1234 Y1.457 I-0.0039 J0.0246
X0.8766 Y1.418 I-0.1234 J-0.0195
X1.1234 Y1.457 I0.1234 J0.0195
X1.0949 Y1.4777 I-0.0246 J-0.0039
G1 X1.0702 Y1.4739
X1.0663 Y1.4733 Z-0.3197
X1.0625 Y1.4727 Z-0.3188
X1.059 Y1.4721 Z-0.3173
X1.0557 Y1.4716 Z-0.3152
X1.0527 Y1.4712 Z-0.3127
X1.0502 Y1.4708 Z-0.3097
X1.0482 Y1.4704 Z-0.3063
X1.0467 Y1.4702 Z-0.3027
X1.0458 Y1.4701 Z-0.2989
X1.0455 Y1.47 Z-0.295
X1.0533 Y1.4206
Z-0.335 F30
X1.0536 Y1.4207 Z-0.3389 F60
X1.0545 Y1.4208 Z-0.3427
X1.056 Y1.4211 Z-0.3463
X1.058 Y1.4214 Z-0.3497
X1.0605 Y1.4218 Z-0.3527
X1.0635 Y1.4222 Z-0.3552
X1.0668 Y1.4228 Z-0.3573
X1.0704 Y1.4233 Z-0.3588
X1.0741 Y1.4239 Z-0.3597
X1.078 Y1.4245 Z-0.36
X1.1027 Y1.4285
G3 X1.1234 Y1.457 I-0.0039 J0.0246
X0.8766 Y1.418 I-0.1234 J-0.0195
X1.1234 Y1.457 I0.1234 J0.0195
X1.0949 Y1.4777 I-0.0246 J-0.0039
G1 X1.0702 Y1.4739
X1.0663 Y1.4733 Z-0.3597
X1.0625 Y1.4727 Z-0.3588
X1.059 Y1.4721 Z-0.3573
X1.0557 Y1.4716 Z-0.3552
X1.0527 Y1.4712 Z-0.3527
X1.0502 Y1.4708 Z-0.3497
X1.0482 Y1.4704 Z-0.3463
X1.0467 Y1.4702 Z-0.3427
X1.0458 Y1.4701 Z-0.3389
X1.0455 Y1.47 Z-0.335
X1.0533 Y1.4206
Z-0.362 F30
X1.0536 Y1.4207 Z-0.3659 F60
X1.0545 Y1.4208 Z-0.3697
X1.056 Y1.4211 Z-0.3733
X1.058 Y1.4214 Z-0.3767
X1.0605 Y1.4218 Z-0.3797
X1.0635 Y1.4222 Z-0.3822
X1.0668 Y1.4228 Z-0.3843
X1.0704 Y1.4233 Z-0.3858
X1.0741 Y1.4239 Z-0.3867
X1.078 Y1.4245 Z-0.387
X1.1027 Y1.4285
G3 X1.1234 Y1.457 I-0.0039 J0.0246
X0.8766 Y1.418 I-0.1234 J-0.0195
X1.1234 Y1.457 I0.1234 J0.0195
X1.0949 Y1.4777 I-0.0246 J-0.0039
G1 X1.0702 Y1.4739
X1.0663 Y1.4733 Z-0.3867
X1.0625 Y1.4727 Z-0.3858
X1.059 Y1.4721 Z-0.3843
X1.0557 Y1.4716 Z-0.3822
X1.0527 Y1.4712 Z-0.3797
X1.0502 Y1.4708 Z-0.3767
X1.0482 Y1.4704 Z-0.3733
X1.0467 Y1.4702 Z-0.3697
X1.0458 Y1.4701 Z-0.3659
X1.0455 Y1.47 Z-0.362
G0 Z0.75
G28 G91 Z0
G90
G28 G91 X0 Y0
G90
M30
%
