%
(faceTheDelrin)
(T1  D=0.25 CR=0 - ZMIN=-1.4033 - flat end mill)
(T20  D=0.25 CR=0 TAPER=90deg - ZMIN=-0.1494 - countersink)
G90
G17
G20
G28 G91 Z0
G90

(2D Contour2)
T1 M6
S10000 M3
G54
G0 X1.178 Y2.1108
Z0.6
Z0.2
G1 Z0.08 F30
Z-1.3783
G18 G2 X1.203 Z-1.4033 I0.025 K0 F60
G1 X1.228
G17 G3 X1.253 Y2.1358 I0 J0.025
G1 Y2.7982
X0.3219
Y1.6703
X1.253
Y2.1358
G3 X1.228 Y2.1608 I-0.025 J0
G1 X1.203
G18 G3 X1.178 Z-1.3783 I0 K0.025
G0 Z0.6
G17
M5
G28 G91 Z0
G90

(Drill1)
T20 M6
S5000 M3
G54
G0 X1.386 Y3.067
Z0.6
Z0.2
Z0.1747
G1 Z-0.1494 F20
G0 Z0.2
X0.1967 Y3.064
Z0.1747
G1 Z-0.1494 F20
G0 Z0.2
X0.1969 Y1.4045
Z0.1747
G1 Z-0.1494 F20
G0 Z0.2
X1.3749 Y1.4046
Z0.1747
G1 Z-0.1494 F20
G0 Z0.2
Z0.6
G28 G91 Z0
G90
G28 G91 X0 Y0
G90
M30
%
