%
(Corner Delrin )
(T1  D=0.25 CR=0 - ZMIN=-1.2 - flat end mill)
G90
G17
G20
G28 G91 Z0
G90

(2D Contour2)
T1 M6
S10000 M3
G54
G0 X0.6539 Y1.9
Z0.6
Z0.2
G1 Z0.08 F30
Z-0.04
Y1.625 F60
X0.8
G2 X0.925 Y1.5 I0 J-0.125
G1 Y1.2254
G0 Z0.2
X0.6539 Y1.9
G1 Z0.04 F30
Z-0.08
Y1.625 F60
X0.8
G2 X0.925 Y1.5 I0 J-0.125
G1 Y1.2254
G0 Z0.2
X0.6539 Y1.9
G1 Z0 F30
Z-0.12
Y1.625 F60
X0.8
G2 X0.925 Y1.5 I0 J-0.125
G1 Y1.2254
G0 Z0.2
X0.6539 Y1.9
G1 Z-0.04 F30
Z-0.16
Y1.625 F60
X0.8
G2 X0.925 Y1.5 I0 J-0.125
G1 Y1.2254
G0 Z0.2
X0.6539 Y1.9
G1 Z-0.08 F30
Z-0.2
Y1.625 F60
X0.8
G2 X0.925 Y1.5 I0 J-0.125
G1 Y1.2254
G0 Z0.2
X0.6539 Y1.9
G1 Z-0.12 F30
Z-0.24
Y1.625 F60
X0.8
G2 X0.925 Y1.5 I0 J-0.125
G1 Y1.2254
G0 Z0.2
X0.6539 Y1.9
G1 Z-0.16 F30
Z-0.28
Y1.625 F60
X0.8
G2 X0.925 Y1.5 I0 J-0.125
G1 Y1.2254
G0 Z0.2
X0.6539 Y1.9
G1 Z-0.2 F30
Z-0.32
Y1.625 F60
X0.8
G2 X0.925 Y1.5 I0 J-0.125
G1 Y1.2254
G0 Z0.2
X0.6539 Y1.9
G1 Z-0.24 F30
Z-0.36
Y1.625 F60
X0.8
G2 X0.925 Y1.5 I0 J-0.125
G1 Y1.2254
G0 Z0.2
X0.6539 Y1.9
G1 Z-0.28 F30
Z-0.4
Y1.625 F60
X0.8
G2 X0.925 Y1.5 I0 J-0.125
G1 Y1.2254
G0 Z0.2
X0.6539 Y1.9
G1 Z-0.32 F30
Z-0.44
Y1.625 F60
X0.8
G2 X0.925 Y1.5 I0 J-0.125
G1 Y1.2254
G0 Z0.2
X0.6539 Y1.9
G1 Z-0.36 F30
Z-0.48
Y1.625 F60
X0.8
G2 X0.925 Y1.5 I0 J-0.125
G1 Y1.2254
G0 Z0.2
X0.6539 Y1.9
G1 Z-0.4 F30
Z-0.52
Y1.625 F60
X0.8
G2 X0.925 Y1.5 I0 J-0.125
G1 Y1.2254
G0 Z0.2
X0.6539 Y1.9
G1 Z-0.44 F30
Z-0.56
Y1.625 F60
X0.8
G2 X0.925 Y1.5 I0 J-0.125
G1 Y1.2254
G0 Z0.2
X0.6539 Y1.9
G1 Z-0.48 F30
Z-0.6
Y1.625 F60
X0.8
G2 X0.925 Y1.5 I0 J-0.125
G1 Y1.2254
G0 Z0.2
X0.6539 Y1.9
G1 Z-0.52 F30
Z-0.64
Y1.625 F60
X0.8
G2 X0.925 Y1.5 I0 J-0.125
G1 Y1.2254
G0 Z0.2
X0.6539 Y1.9
G1 Z-0.56 F30
Z-0.68
Y1.625 F60
X0.8
G2 X0.925 Y1.5 I0 J-0.125
G1 Y1.2254
G0 Z0.2
X0.6539 Y1.9
G1 Z-0.6 F30
Z-0.72
Y1.625 F60
X0.8
G2 X0.925 Y1.5 I0 J-0.125
G1 Y1.2254
G0 Z0.2
X0.6539 Y1.9
G1 Z-0.64 F30
Z-0.76
Y1.625 F60
X0.8
G2 X0.925 Y1.5 I0 J-0.125
G1 Y1.2254
G0 Z0.2
X0.6539 Y1.9
G1 Z-0.68 F30
Z-0.8
Y1.625 F60
X0.8
G2 X0.925 Y1.5 I0 J-0.125
G1 Y1.2254
G0 Z0.2
X0.6539 Y1.9
G1 Z-0.72 F30
Z-0.84
Y1.625 F60
X0.8
G2 X0.925 Y1.5 I0 J-0.125
G1 Y1.2254
G0 Z0.2
X0.6539 Y1.9
G1 Z-0.76 F30
Z-0.88
Y1.625 F60
X0.8
G2 X0.925 Y1.5 I0 J-0.125
G1 Y1.2254
G0 Z0.2
X0.6539 Y1.9
G1 Z-0.8 F30
Z-0.92
Y1.625 F60
X0.8
G2 X0.925 Y1.5 I0 J-0.125
G1 Y1.2254
G0 Z0.2
X0.6539 Y1.9
G1 Z-0.84 F30
Z-0.96
Y1.625 F60
X0.8
G2 X0.925 Y1.5 I0 J-0.125
G1 Y1.2254
G0 Z0.2
X0.6539 Y1.9
G1 Z-0.88 F30
Z-1
Y1.625 F60
X0.8
G2 X0.925 Y1.5 I0 J-0.125
G1 Y1.2254
G0 Z0.2
X0.6539 Y1.9
G1 Z-0.92 F30
Z-1.04
Y1.625 F60
X0.8
G2 X0.925 Y1.5 I0 J-0.125
G1 Y1.2254
G0 Z0.2
X0.6539 Y1.9
G1 Z-0.96 F30
Z-1.08
Y1.625 F60
X0.8
G2 X0.925 Y1.5 I0 J-0.125
G1 Y1.2254
G0 Z0.2
X0.6539 Y1.9
G1 Z-1 F30
Z-1.12
Y1.625 F60
X0.8
G2 X0.925 Y1.5 I0 J-0.125
G1 Y1.2254
G0 Z0.2
X0.6539 Y1.9
G1 Z-1.04 F30
Z-1.16
Y1.625 F60
X0.8
G2 X0.925 Y1.5 I0 J-0.125
G1 Y1.2254
G0 Z0.2
X0.6539 Y1.9
G1 Z-1.08 F30
Z-1.2
Y1.625 F60
X0.8
G2 X0.925 Y1.5 I0 J-0.125
G1 Y1.2254
G0 Z0.6
G28 G91 Z0
G90
G28 G91 X0 Y0
G90
M30
%
