%
(DelrinFrontParts)
(T1  D=0.25 CR=0 - ZMIN=-0.8 - flat end mill)
(T20  D=0.25 CR=0 TAPER=90deg - ZMIN=-0.124 - countersink)
G90
G17
G20
G28 G91 Z0
G90

(Face12)
T1 M6
S10000 M3
G54
G0 X2.1683 Y10.9449
Z0.6
Z0.2
G1 Z-0.02 F30
X2.0308 F60
X1.7638 F180
G2 Y11.1265 I0 J0.0908
G1 X2.0308 Y11.1264
G3 Y11.308 I0 J0.0908
G1 X1.7638 Y11.3079
G2 Y11.4895 I0 J0.0908
G1 X2.0308
G0 Z0.2
X2.1683 Y10.9449
G1 Z-0.06 F30
X2.0308 F60
X1.7638 F180
G2 Y11.1265 I0 J0.0908
G1 X2.0308 Y11.1264
G3 Y11.308 I0 J0.0908
G1 X1.7638 Y11.3079
G2 Y11.4895 I0 J0.0908
G1 X2.0308
G0 Z0.2
X2.1683 Y10.9449
G1 Z-0.1 F30
X2.0308 F60
X1.7638 F180
G2 Y11.1265 I0 J0.0908
G1 X2.0308 Y11.1264
G3 Y11.308 I0 J0.0908
G1 X1.7638 Y11.3079
G2 Y11.4895 I0 J0.0908
G1 X2.0308
G0 Z0.2
X2.1683 Y10.9449
G1 Z-0.14 F30
X2.0308 F60
X1.7638 F180
G2 Y11.1265 I0 J0.0908
G1 X2.0308 Y11.1264
G3 Y11.308 I0 J0.0908
G1 X1.7638 Y11.3079
G2 Y11.4895 I0 J0.0908
G1 X2.0308
G0 Z0.2
X2.1683 Y10.9449
G1 Z-0.18 F30
X2.0308 F60
X1.7638 F180
G2 Y11.1265 I0 J0.0908
G1 X2.0308 Y11.1264
G3 Y11.308 I0 J0.0908
G1 X1.7638 Y11.3079
G2 Y11.4895 I0 J0.0908
G1 X2.0308
G0 Z0.2
X2.1683 Y10.9449
G1 Z-0.22 F30
X2.0308 F60
X1.7638 F180
G2 Y11.1265 I0 J0.0908
G1 X2.0308 Y11.1264
G3 Y11.308 I0 J0.0908
G1 X1.7638 Y11.3079
G2 Y11.4895 I0 J0.0908
G1 X2.0308
G0 Z0.2
X2.1683 Y10.9449
G1 Z-0.26 F30
X2.0308 F60
X1.7638 F180
G2 Y11.1265 I0 J0.0908
G1 X2.0308 Y11.1264
G3 Y11.308 I0 J0.0908
G1 X1.7638 Y11.3079
G2 Y11.4895 I0 J0.0908
G1 X2.0308
G0 Z0.2
X2.1683 Y10.9449
G1 Z-0.3 F30
X2.0308 F60
X1.7638 F180
G2 Y11.1265 I0 J0.0908
G1 X2.0308 Y11.1264
G3 Y11.308 I0 J0.0908
G1 X1.7638 Y11.3079
G2 Y11.4895 I0 J0.0908
G1 X2.0308
G0 Z0.2
X2.1683 Y10.9449
G1 Z-0.34 F30
X2.0308 F60
X1.7638 F180
G2 Y11.1265 I0 J0.0908
G1 X2.0308 Y11.1264
G3 Y11.308 I0 J0.0908
G1 X1.7638 Y11.3079
G2 Y11.4895 I0 J0.0908
G1 X2.0308
G0 Z0.2
X2.1683 Y10.9449
G1 Z-0.38 F30
X2.0308 F60
X1.7638 F180
G2 Y11.1265 I0 J0.0908
G1 X2.0308 Y11.1264
G3 Y11.308 I0 J0.0908
G1 X1.7638 Y11.3079
G2 Y11.4895 I0 J0.0908
G1 X2.0308
G0 Z0.2
X2.1683 Y10.9449
G1 Z-0.42 F30
X2.0308 F60
X1.7638 F180
G2 Y11.1265 I0 J0.0908
G1 X2.0308 Y11.1264
G3 Y11.308 I0 J0.0908
G1 X1.7638 Y11.3079
G2 Y11.4895 I0 J0.0908
G1 X2.0308
G0 Z0.2
X2.1683 Y10.9449
G1 Z-0.46 F30
X2.0308 F60
X1.7638 F180
G2 Y11.1265 I0 J0.0908
G1 X2.0308 Y11.1264
G3 Y11.308 I0 J0.0908
G1 X1.7638 Y11.3079
G2 Y11.4895 I0 J0.0908
G1 X2.0308
G0 Z0.2
X2.1683 Y10.9449
G1 Z-0.5 F30
X2.0308 F60
X1.7638 F180
G2 Y11.1265 I0 J0.0908
G1 X2.0308 Y11.1264
G3 Y11.308 I0 J0.0908
G1 X1.7638 Y11.3079
G2 Y11.4895 I0 J0.0908
G1 X2.0308
G0 Z0.2
X2.1683 Y10.9449
G1 Z-0.54 F30
X2.0308 F60
X1.7638 F180
G2 Y11.1265 I0 J0.0908
G1 X2.0308 Y11.1264
G3 Y11.308 I0 J0.0908
G1 X1.7638 Y11.3079
G2 Y11.4895 I0 J0.0908
G1 X2.0308
G0 Z0.2
X2.1683 Y10.9449
G1 Z-0.58 F30
X2.0308 F60
X1.7638 F180
G2 Y11.1265 I0 J0.0908
G1 X2.0308 Y11.1264
G3 Y11.308 I0 J0.0908
G1 X1.7638 Y11.3079
G2 Y11.4895 I0 J0.0908
G1 X2.0308
G0 Z0.2
X2.1683 Y10.9449
G1 Z-0.62 F30
X2.0308 F60
X1.7638 F180
G2 Y11.1265 I0 J0.0908
G1 X2.0308 Y11.1264
G3 Y11.308 I0 J0.0908
G1 X1.7638 Y11.3079
G2 Y11.4895 I0 J0.0908
G1 X2.0308
G0 Z0.2
X2.1683 Y10.9449
G1 Z-0.66 F30
X2.0308 F60
X1.7638 F180
G2 Y11.1265 I0 J0.0908
G1 X2.0308 Y11.1264
G3 Y11.308 I0 J0.0908
G1 X1.7638 Y11.3079
G2 Y11.4895 I0 J0.0908
G1 X2.0308
G0 Z0.2
X2.1683 Y10.9449
G1 Z-0.7 F30
X2.0308 F60
X1.7638 F180
G2 Y11.1265 I0 J0.0908
G1 X2.0308 Y11.1264
G3 Y11.308 I0 J0.0908
G1 X1.7638 Y11.3079
G2 Y11.4895 I0 J0.0908
G1 X2.0308
G0 Z0.6

(2D Contour12)
X2.175 Y11.2016
Z0.6
Z0.2
G1 Z0.08 F30
Z-0.04
Y11.575 F180
X1.6219
Y10.925
X2.175
Y11.2016
Z-0.08 F30
Y11.575 F180
X1.6219
Y10.925
X2.175
Y11.2016
Z-0.12 F30
Y11.575 F180
X1.6219
Y10.925
X2.175
Y11.2016
Z-0.16 F30
Y11.575 F180
X1.6219
Y10.925
X2.175
Y11.2016
Z-0.2 F30
Y11.575 F180
X1.6219
Y10.925
X2.175
Y11.2016
Z-0.24 F30
Y11.575 F180
X1.6219
Y10.925
X2.175
Y11.2016
Z-0.28 F30
Y11.575 F180
X1.6219
Y10.925
X2.175
Y11.2016
Z-0.32 F30
Y11.575 F180
X1.6219
Y10.925
X2.175
Y11.2016
Z-0.36 F30
Y11.575 F180
X1.6219
Y10.925
X2.175
Y11.2016
Z-0.4 F30
Y11.575 F180
X1.6219
Y10.925
X2.175
Y11.2016
Z-0.44 F30
Y11.575 F180
X1.6219
Y10.925
X2.175
Y11.2016
Z-0.48 F30
Y11.575 F180
X1.6219
Y10.925
X2.175
Y11.2016
Z-0.52 F30
Y11.575 F180
X1.6219
Y10.925
X2.175
Y11.2016
Z-0.56 F30
Y11.575 F180
X1.6219
Y10.925
X2.175
Y11.2016
Z-0.6 F30
Y11.575 F180
X1.6219
Y10.925
X2.175
Y11.2016
Z-0.64 F30
Y11.575 F180
X1.6219
Y10.925
X2.175
Y11.2016
Z-0.68 F30
Y11.575 F180
X1.6219
Y10.925
X2.175
Y11.2016
Z-0.7 F30
Y11.575 F180
X1.6219
Y10.925
X2.175
Y11.2016
G0 Z0.6
M5
G28 G91 Z0
G90

(Drill3)
T20 M6
S5000 M3
G54
G0 X2.35 Y11.85
Z0.6
Z0.2
G1 Z-0.124 F20
G0 Z0.2
X1.45
G1 Z-0.124 F20
G0 Z0.2
Y10.65
G1 Z-0.124 F20
G0 Z0.2
X2.35
G1 Z-0.124 F20
G0 Z0.2
Z0.6
M5
G28 G91 Z0
G90

(Face13)
T1 M6
S10000 M3
G54
G0 X2.1925 Y10.2031
Z0.6
Z0.2
G1 Z-0.03 F30
X2.055 F60
X1.745 F180
G2 Y10.3791 I0 J0.088
G1 X2.055 Y10.3792
G0 Z0.2
X2.1925 Y10.2031
G1 Z-0.07 F30
X2.055 F60
X1.745 F180
G2 Y10.3791 I0 J0.088
G1 X2.055 Y10.3792
G0 Z0.2
X2.1925 Y10.2031
G1 Z-0.11 F30
X2.055 F60
X1.745 F180
G2 Y10.3791 I0 J0.088
G1 X2.055 Y10.3792
G0 Z0.2
X2.1925 Y10.2031
G1 Z-0.15 F30
X2.055 F60
X1.745 F180
G2 Y10.3791 I0 J0.088
G1 X2.055 Y10.3792
G0 Z0.2
X2.1925 Y10.2031
G1 Z-0.19 F30
X2.055 F60
X1.745 F180
G2 Y10.3791 I0 J0.088
G1 X2.055 Y10.3792
G0 Z0.2
X2.1925 Y10.2031
G1 Z-0.23 F30
X2.055 F60
X1.745 F180
G2 Y10.3791 I0 J0.088
G1 X2.055 Y10.3792
G0 Z0.2
X2.1925 Y10.2031
G1 Z-0.27 F30
X2.055 F60
X1.745 F180
G2 Y10.3791 I0 J0.088
G1 X2.055 Y10.3792
G0 Z0.6

(2D Contour9)
X1.9 Y10.375
Z0.6
Z0.2
G1 Z0.08 F30
Z-0.04
X1.3 F180
G2 X1.175 Y10.5 I0 J0.125
G1 Y12
G2 X1.3 Y12.125 I0.125 J0
G1 X2.5
G2 X2.625 Y12 I0 J-0.125
G1 Y10.5
G2 X2.5 Y10.375 I-0.125 J0
G1 X1.9
Z-0.08 F30
X1.3 F180
G2 X1.175 Y10.5 I0 J0.125
G1 Y12
G2 X1.3 Y12.125 I0.125 J0
G1 X2.5
G2 X2.625 Y12 I0 J-0.125
G1 Y10.5
G2 X2.5 Y10.375 I-0.125 J0
G1 X1.9
Z-0.12 F30
X1.3 F180
G2 X1.175 Y10.5 I0 J0.125
G1 Y12
G2 X1.3 Y12.125 I0.125 J0
G1 X2.5
G2 X2.625 Y12 I0 J-0.125
G1 Y10.5
G2 X2.5 Y10.375 I-0.125 J0
G1 X1.9
Z-0.16 F30
X1.3 F180
G2 X1.175 Y10.5 I0 J0.125
G1 Y12
G2 X1.3 Y12.125 I0.125 J0
G1 X2.5
G2 X2.625 Y12 I0 J-0.125
G1 Y10.5
G2 X2.5 Y10.375 I-0.125 J0
G1 X1.9
Z-0.2 F30
X1.3 F180
G2 X1.175 Y10.5 I0 J0.125
G1 Y12
G2 X1.3 Y12.125 I0.125 J0
G1 X2.5
G2 X2.625 Y12 I0 J-0.125
G1 Y10.5
G2 X2.5 Y10.375 I-0.125 J0
G1 X1.9
Z-0.24 F30
X1.3 F180
G2 X1.175 Y10.5 I0 J0.125
G1 Y12
G2 X1.3 Y12.125 I0.125 J0
G1 X2.5
G2 X2.625 Y12 I0 J-0.125
G1 Y10.5
G2 X2.5 Y10.375 I-0.125 J0
G1 X1.9
Z-0.27 F30
X1.3 F180
G2 X1.175 Y10.5 I0 J0.125
G1 Y12
G2 X1.3 Y12.125 I0.125 J0
G1 X2.5
G2 X2.625 Y12 I0 J-0.125
G1 Y10.5
G2 X2.5 Y10.375 I-0.125 J0
G1 X1.9
G0 Z0.6

(2D Contour10)
X2.18 Y10.3758
Z0.6
Z0.2
G1 Z0.08 F30
Z-0.04
Y10.15 F60
Y10.025
X1.62
Y10.3758
G0 Z0.2
X2.18
G1 Z0.04 F30
Z-0.08
Y10.15 F60
Y10.025
X1.62
Y10.3758
G0 Z0.2
X2.18
G1 Z0 F30
Z-0.12
Y10.15 F60
Y10.025
X1.62
Y10.3758
G0 Z0.2
X2.18
G1 Z-0.04 F30
Z-0.16
Y10.15 F60
Y10.025
X1.62
Y10.3758
G0 Z0.2
X2.18
G1 Z-0.08 F30
Z-0.2
Y10.15 F60
Y10.025
X1.62
Y10.3758
G0 Z0.2
X2.18
G1 Z-0.12 F30
Z-0.24
Y10.15 F60
Y10.025
X1.62
Y10.3758
G0 Z0.2
X2.18
G1 Z-0.16 F30
Z-0.28
Y10.15 F60
Y10.025
X1.62
Y10.3758
G0 Z0.2
X2.18
G1 Z-0.2 F30
Z-0.32
Y10.15 F60
Y10.025
X1.62
Y10.3758
G0 Z0.2
X2.18
G1 Z-0.24 F30
Z-0.36
Y10.15 F60
Y10.025
X1.62
Y10.3758
G0 Z0.2
X2.18
G1 Z-0.28 F30
Z-0.4
Y10.15 F60
Y10.025
X1.62
Y10.3758
G0 Z0.2
X2.18
G1 Z-0.32 F30
Z-0.44
Y10.15 F60
Y10.025
X1.62
Y10.3758
G0 Z0.2
X2.18
G1 Z-0.36 F30
Z-0.48
Y10.15 F60
Y10.025
X1.62
Y10.3758
G0 Z0.2
X2.18
G1 Z-0.4 F30
Z-0.52
Y10.15 F60
Y10.025
X1.62
Y10.3758
G0 Z0.2
X2.18
G1 Z-0.44 F30
Z-0.56
Y10.15 F60
Y10.025
X1.62
Y10.3758
G0 Z0.2
X2.18
G1 Z-0.48 F30
Z-0.6
Y10.15 F60
Y10.025
X1.62
Y10.3758
G0 Z0.2
X2.18
G1 Z-0.52 F30
Z-0.64
Y10.15 F60
Y10.025
X1.62
Y10.3758
G0 Z0.2
X2.18
G1 Z-0.56 F30
Z-0.68
Y10.15 F60
Y10.025
X1.62
Y10.3758
G0 Z0.2
X2.18
G1 Z-0.6 F30
Z-0.72
Y10.15 F60
Y10.025
X1.62
Y10.3758
G0 Z0.2
X2.18
G1 Z-0.64 F30
Z-0.76
Y10.15 F60
Y10.025
X1.62
Y10.3758
G0 Z0.2
X2.18
G1 Z-0.68 F30
Z-0.8
Y10.15 F60
Y10.025
X1.62
Y10.3758
G0 Z0.6

(2D Contour11)
X1.175 Y10.5
Z0.6
Z0.2
G1 Z0.08 F30
Z-0.04
Y12 F180
G0 Z0.2
Y10.5
G1 Z0.04 F30
Z-0.08
Y12 F180
G0 Z0.2
Y10.5
G1 Z0 F30
Z-0.12
Y12 F180
G0 Z0.2
Y10.5
G1 Z-0.04 F30
Z-0.16
Y12 F180
G0 Z0.2
Y10.5
G1 Z-0.08 F30
Z-0.2
Y12 F180
G0 Z0.2
Y10.5
G1 Z-0.12 F30
Z-0.24
Y12 F180
G0 Z0.2
Y10.5
G1 Z-0.16 F30
Z-0.28
Y12 F180
G0 Z0.2
Y10.5
G1 Z-0.2 F30
Z-0.32
Y12 F180
G0 Z0.2
Y10.5
G1 Z-0.24 F30
Z-0.36
Y12 F180
G0 Z0.2
Y10.5
G1 Z-0.28 F30
Z-0.4
Y12 F180
G0 Z0.2
Y10.5
G1 Z-0.32 F30
Z-0.44
Y12 F180
G0 Z0.2
Y10.5
G1 Z-0.36 F30
Z-0.48
Y12 F180
G0 Z0.2
Y10.5
G1 Z-0.4 F30
Z-0.52
Y12 F180
G0 Z0.2
Y10.5
G1 Z-0.44 F30
Z-0.56
Y12 F180
G0 Z0.2
Y10.5
G1 Z-0.48 F30
Z-0.6
Y12 F180
G0 Z0.2
Y10.5
G1 Z-0.52 F30
Z-0.64
Y12 F180
G0 Z0.2
Y10.5
G1 Z-0.56 F30
Z-0.68
Y12 F180
G0 Z0.2
Y10.5
G1 Z-0.6 F30
Z-0.72
Y12 F180
G0 Z0.2
Y10.5
G1 Z-0.64 F30
Z-0.76
Y12 F180
G0 Z0.2
Y10.5
G1 Z-0.68 F30
Z-0.8
Y12 F180
G0 Z0.6
G28 G91 Z0
G90
G28 G91 X0 Y0
G90
M30
%
