%
(Delrin Facing -.05")
(T1  D=0.25 CR=0 - ZMIN=-0.05 - flat end mill)
G90
G17
G20
G28 G91 Z0
G90

(Face1)
T1 M6
S10000 M3
G54
G0 X9.35 Y0.0695
Z0.6
Z0.2
G1 Z0.015 F30
G18 G3 X9.325 Z-0.01 I-0.025 K0 F60
G1 X9.1875
X0 F180
G17 G2 Y0.2621 I0 J0.0963
G1 X9.1875 Y0.262
G3 Y0.4544 I0 J0.0962
G1 X0 Y0.4545
G2 Y0.6469 I0 J0.0962
G1 X9.1875 Y0.647
G3 Y0.8394 I0 J0.0962
G1 X0
G2 Y1.032 I0 J0.0963
G1 X9.1875 Y1.0319
G3 Y1.2243 I0 J0.0962
G1 X0 Y1.2244
G2 Y1.4168 I0 J0.0962
G1 X9.1875
G3 Y1.6094 I0 J0.0963
G1 X0 Y1.6093
G2 Y1.8017 I0 J0.0962
G1 X9.1875 Y1.8018
G3 Y1.9942 I0 J0.0962
G1 X0
G2 Y2.1868 I0 J0.0963
G1 X9.1875 Y2.1867
G3 Y2.3791 I0 J0.0962
G1 X0 Y2.3792
G18 G3 X-0.025 Z0.015 I0 K0.025 F60
G0 Z0.2
X-0.1625 Y0.0695
G1 Z-0.025 F30
G2 X-0.1375 Z-0.05 I0.025 K0 F60
G1 X0
X9.1875 F180
G17 G3 Y0.2621 I0 J0.0963
G1 X0 Y0.262
G2 Y0.4544 I0 J0.0962
G1 X9.1875 Y0.4545
G3 Y0.6469 I0 J0.0962
G1 X0 Y0.647
G2 Y0.8394 I0 J0.0962
G1 X9.1875
G3 Y1.032 I0 J0.0963
G1 X0 Y1.0319
G2 Y1.2243 I0 J0.0962
G1 X9.1875 Y1.2244
G3 Y1.4168 I0 J0.0962
G1 X0
G2 Y1.6094 I0 J0.0963
G1 X9.1875 Y1.6093
G3 Y1.8017 I0 J0.0962
G1 X0 Y1.8018
G2 Y1.9942 I0 J0.0962
G1 X9.1875
G3 Y2.1868 I0 J0.0963
G1 X0 Y2.1867
G2 Y2.3791 I0 J0.0962
G1 X9.1875 Y2.3792
G18 G2 X9.2125 Z-0.025 I0 K0.025 F60
G0 Z0.6
G17
G28 G91 Z0
G90
G28 G91 X0 Y0
G90
M30
%
