%
(Delrin Front)
(T1  D=0.25 CR=0 - ZMIN=-0.8 - flat end mill)
(T20  D=0.25 CR=0 TAPER=90deg - ZMIN=-0.124 - countersink)
G90
G17
G20
G28 G91 Z0
G90

(2D Contour1)
T1 M6
S10000 M3
G54
G0 X8.655 Y1.9984
Z0.6
Z0.2
G1 Z0.08 F30
Z-0.04
Y2.275 F180
X8.005
Y1.7219
X8.655
Y1.9984
Z-0.08 F30
Y2.275 F180
X8.005
Y1.7219
X8.655
Y1.9984
Z-0.12 F30
Y2.275 F180
X8.005
Y1.7219
X8.655
Y1.9984
Z-0.16 F30
Y2.275 F180
X8.005
Y1.7219
X8.655
Y1.9984
Z-0.2 F30
Y2.275 F180
X8.005
Y1.7219
X8.655
Y1.9984
Z-0.24 F30
Y2.275 F180
X8.005
Y1.7219
X8.655
Y1.9984
Z-0.28 F30
Y2.275 F180
X8.005
Y1.7219
X8.655
Y1.9984
Z-0.32 F30
Y2.275 F180
X8.005
Y1.7219
X8.655
Y1.9984
Z-0.36 F30
Y2.275 F180
X8.005
Y1.7219
X8.655
Y1.9984
Z-0.4 F30
Y2.275 F180
X8.005
Y1.7219
X8.655
Y1.9984
Z-0.44 F30
Y2.275 F180
X8.005
Y1.7219
X8.655
Y1.9984
Z-0.48 F30
Y2.275 F180
X8.005
Y1.7219
X8.655
Y1.9984
Z-0.52 F30
Y2.275 F180
X8.005
Y1.7219
X8.655
Y1.9984
Z-0.56 F30
Y2.275 F180
X8.005
Y1.7219
X8.655
Y1.9984
Z-0.6 F30
Y2.275 F180
X8.005
Y1.7219
X8.655
Y1.9984
Z-0.64 F30
Y2.275 F180
X8.005
Y1.7219
X8.655
Y1.9984
Z-0.65 F30
Y2.275 F180
X8.005
Y1.7219
X8.655
Y1.9984
G0 Z0.6

(Face2)
X8.6517 Y1.7968
Z0.6
Z0.2
G1 Z-0.01 F30
X8.5142 F60
X8.1487
G2 Y1.9798 I0 J0.0915
G1 X8.5142
G3 Y2.1628 I0 J0.0915
G1 X8.1487 Y2.1629
G0 Z0.2
X8.0112 Y1.7968
G1 Z-0.05 F30
X8.1487 F60
X8.5142
G3 Y1.9798 I0 J0.0915
G1 X8.1487
G2 Y2.1628 I0 J0.0915
G1 X8.5142 Y2.1629
G0 Z0.2
X8.6517 Y1.7968
G1 Z-0.09 F30
X8.5142 F60
X8.1487
G2 Y1.9798 I0 J0.0915
G1 X8.5142
G3 Y2.1628 I0 J0.0915
G1 X8.1487 Y2.1629
G0 Z0.2
X8.0112 Y1.7968
G1 Z-0.13 F30
X8.1487 F60
X8.5142
G3 Y1.9798 I0 J0.0915
G1 X8.1487
G2 Y2.1628 I0 J0.0915
G1 X8.5142 Y2.1629
G0 Z0.2
X8.6517 Y1.7968
G1 Z-0.17 F30
X8.5142 F60
X8.1487
G2 Y1.9798 I0 J0.0915
G1 X8.5142
G3 Y2.1628 I0 J0.0915
G1 X8.1487 Y2.1629
G0 Z0.2
X8.0112 Y1.7968
G1 Z-0.21 F30
X8.1487 F60
X8.5142
G3 Y1.9798 I0 J0.0915
G1 X8.1487
G2 Y2.1628 I0 J0.0915
G1 X8.5142 Y2.1629
G0 Z0.2
X8.6517 Y1.7968
G1 Z-0.25 F30
X8.5142 F60
X8.1487
G2 Y1.9798 I0 J0.0915
G1 X8.5142
G3 Y2.1628 I0 J0.0915
G1 X8.1487 Y2.1629
G0 Z0.2
X8.0112 Y1.7968
G1 Z-0.29 F30
X8.1487 F60
X8.5142
G3 Y1.9798 I0 J0.0915
G1 X8.1487
G2 Y2.1628 I0 J0.0915
G1 X8.5142 Y2.1629
G0 Z0.2
X8.6517 Y1.7968
G1 Z-0.33 F30
X8.5142 F60
X8.1487
G2 Y1.9798 I0 J0.0915
G1 X8.5142
G3 Y2.1628 I0 J0.0915
G1 X8.1487 Y2.1629
G0 Z0.2
X8.0112 Y1.7968
G1 Z-0.37 F30
X8.1487 F60
X8.5142
G3 Y1.9798 I0 J0.0915
G1 X8.1487
G2 Y2.1628 I0 J0.0915
G1 X8.5142 Y2.1629
G0 Z0.2
X8.6517 Y1.7968
G1 Z-0.41 F30
X8.5142 F60
X8.1487
G2 Y1.9798 I0 J0.0915
G1 X8.5142
G3 Y2.1628 I0 J0.0915
G1 X8.1487 Y2.1629
G0 Z0.2
X8.0112 Y1.7968
G1 Z-0.45 F30
X8.1487 F60
X8.5142
G3 Y1.9798 I0 J0.0915
G1 X8.1487
G2 Y2.1628 I0 J0.0915
G1 X8.5142 Y2.1629
G0 Z0.2
X8.6517 Y1.7968
G1 Z-0.49 F30
X8.5142 F60
X8.1487
G2 Y1.9798 I0 J0.0915
G1 X8.5142
G3 Y2.1628 I0 J0.0915
G1 X8.1487 Y2.1629
G0 Z0.2
X8.0112 Y1.7968
G1 Z-0.53 F30
X8.1487 F60
X8.5142
G3 Y1.9798 I0 J0.0915
G1 X8.1487
G2 Y2.1628 I0 J0.0915
G1 X8.5142 Y2.1629
G0 Z0.2
X8.6517 Y1.7968
G1 Z-0.57 F30
X8.5142 F60
X8.1487
G2 Y1.9798 I0 J0.0915
G1 X8.5142
G3 Y2.1628 I0 J0.0915
G1 X8.1487 Y2.1629
G0 Z0.2
X8.0112 Y1.7968
G1 Z-0.61 F30
X8.1487 F60
X8.5142
G3 Y1.9798 I0 J0.0915
G1 X8.1487
G2 Y2.1628 I0 J0.0915
G1 X8.5142 Y2.1629
G0 Z0.2
X8.6517 Y1.7968
G1 Z-0.65 F30
X8.5142 F60
X8.1487
G2 Y1.9798 I0 J0.0915
G1 X8.5142
G3 Y2.1628 I0 J0.0915
G1 X8.1487 Y2.1629
G0 Z0.6
M5
G28 G91 Z0
G90

(Drill1)
T20 M6
S5000 M3
G54
G0 X7.73 Y2.45
Z0.6
Z0.2
G1 Z-0.124 F20
G0 Z0.2
Y1.55
G1 Z-0.124 F20
G0 Z0.2
X8.93
G1 Z-0.124 F20
G0 Z0.2
Y2.45
G1 Z-0.124 F20
G0 Z0.2
Z0.6
M5
G28 G91 Z0
G90

(2D Contour2)
T1 M6
S10000 M3
G54
G0 X9.08 Y1.275
Z0.6
Z0.2
G1 Z0.08 F30
Z-0.04
X7.58 F180
G2 X7.455 Y1.4 I0 J0.125
G1 Y2.6
G2 X7.58 Y2.725 I0.125 J0
G1 X9.08
G0 Z0.2
Y1.275
G1 Z0.04 F30
Z-0.08
X7.58 F180
G2 X7.455 Y1.4 I0 J0.125
G1 Y2.6
G2 X7.58 Y2.725 I0.125 J0
G1 X9.08
G0 Z0.2
Y1.275
G1 Z0 F30
Z-0.12
X7.58 F180
G2 X7.455 Y1.4 I0 J0.125
G1 Y2.6
G2 X7.58 Y2.725 I0.125 J0
G1 X9.08
G0 Z0.2
Y1.275
G1 Z-0.04 F30
Z-0.16
X7.58 F180
G2 X7.455 Y1.4 I0 J0.125
G1 Y2.6
G2 X7.58 Y2.725 I0.125 J0
G1 X9.08
G0 Z0.2
Y1.275
G1 Z-0.08 F30
Z-0.2
X7.58 F180
G2 X7.455 Y1.4 I0 J0.125
G1 Y2.6
G2 X7.58 Y2.725 I0.125 J0
G1 X9.08
G0 Z0.2
Y1.275
G1 Z-0.12 F30
Z-0.24
X7.58 F180
G2 X7.455 Y1.4 I0 J0.125
G1 Y2.6
G2 X7.58 Y2.725 I0.125 J0
G1 X9.08
G0 Z0.2
Y1.275
G1 Z-0.16 F30
Z-0.28
X7.58 F180
G2 X7.455 Y1.4 I0 J0.125
G1 Y2.6
G2 X7.58 Y2.725 I0.125 J0
G1 X9.08
G0 Z0.2
Y1.275
G1 Z-0.2 F30
Z-0.32
X7.58 F180
G2 X7.455 Y1.4 I0 J0.125
G1 Y2.6
G2 X7.58 Y2.725 I0.125 J0
G1 X9.08
G0 Z0.2
Y1.275
G1 Z-0.24 F30
Z-0.36
X7.58 F180
G2 X7.455 Y1.4 I0 J0.125
G1 Y2.6
G2 X7.58 Y2.725 I0.125 J0
G1 X9.08
G0 Z0.2
Y1.275
G1 Z-0.28 F30
Z-0.4
X7.58 F180
G2 X7.455 Y1.4 I0 J0.125
G1 Y2.6
G2 X7.58 Y2.725 I0.125 J0
G1 X9.08
G0 Z0.2
Y1.275
G1 Z-0.32 F30
Z-0.44
X7.58 F180
G2 X7.455 Y1.4 I0 J0.125
G1 Y2.6
G2 X7.58 Y2.725 I0.125 J0
G1 X9.08
G0 Z0.2
Y1.275
G1 Z-0.36 F30
Z-0.48
X7.58 F180
G2 X7.455 Y1.4 I0 J0.125
G1 Y2.6
G2 X7.58 Y2.725 I0.125 J0
G1 X9.08
G0 Z0.2
Y1.275
G1 Z-0.4 F30
Z-0.52
X7.58 F180
G2 X7.455 Y1.4 I0 J0.125
G1 Y2.6
G2 X7.58 Y2.725 I0.125 J0
G1 X9.08
G0 Z0.2
Y1.275
G1 Z-0.44 F30
Z-0.56
X7.58 F180
G2 X7.455 Y1.4 I0 J0.125
G1 Y2.6
G2 X7.58 Y2.725 I0.125 J0
G1 X9.08
G0 Z0.2
Y1.275
G1 Z-0.48 F30
Z-0.6
X7.58 F180
G2 X7.455 Y1.4 I0 J0.125
G1 Y2.6
G2 X7.58 Y2.725 I0.125 J0
G1 X9.08
G0 Z0.2
Y1.275
G1 Z-0.52 F30
Z-0.64
X7.58 F180
G2 X7.455 Y1.4 I0 J0.125
G1 Y2.6
G2 X7.58 Y2.725 I0.125 J0
G1 X9.08
G0 Z0.2
Y1.275
G1 Z-0.56 F30
Z-0.68
X7.58 F180
G2 X7.455 Y1.4 I0 J0.125
G1 Y2.6
G2 X7.58 Y2.725 I0.125 J0
G1 X9.08
G0 Z0.2
Y1.275
G1 Z-0.6 F30
Z-0.72
X7.58 F180
G2 X7.455 Y1.4 I0 J0.125
G1 Y2.6
G2 X7.58 Y2.725 I0.125 J0
G1 X9.08
G0 Z0.2
Y1.275
G1 Z-0.64 F30
Z-0.76
X7.58 F180
G2 X7.455 Y1.4 I0 J0.125
G1 Y2.6
G2 X7.58 Y2.725 I0.125 J0
G1 X9.08
G0 Z0.2
Y1.275
G1 Z-0.68 F30
Z-0.8
X7.58 F180
G2 X7.455 Y1.4 I0 J0.125
G1 Y2.6
G2 X7.58 Y2.725 I0.125 J0
G1 X9.08
G0 Z0.6

(2D Contour3)
X9.205 Y2.6
Z0.6
Z0.2
G1 Z0.08 F30
Z-0.04
Y1.4 F180
G0 Z0.2
Y2.6
G1 Z0.04 F30
Z-0.08
Y1.4 F180
G0 Z0.2
Y2.6
G1 Z0 F30
Z-0.105
Y1.4 F180
G0 Z0.6

(2D Contour4)
X9.205 Y2.6
Z0.6
Z0.2
G1 Z0.08 F30
Z-0.04
Y2.5488 F60
G0 Z0.2
Y2.6
G1 Z0.04 F30
Z-0.08
Y2.5488 F60
G0 Z0.2
Y2.6
G1 Z0 F30
Z-0.12
Y2.5488 F60
G0 Z0.2
Y2.6
G1 Z-0.04 F30
Z-0.16
Y2.5488 F60
G0 Z0.2
Y2.6
G1 Z-0.08 F30
Z-0.2
Y2.5488 F60
G0 Z0.2
Y2.6
G1 Z-0.12 F30
Z-0.24
Y2.5488 F60
G0 Z0.2
Y2.6
G1 Z-0.16 F30
Z-0.28
Y2.5488 F60
G0 Z0.2
Y2.6
G1 Z-0.2 F30
Z-0.32
Y2.5488 F60
G0 Z0.2
Y2.6
G1 Z-0.24 F30
Z-0.36
Y2.5488 F60
G0 Z0.2
Y2.6
G1 Z-0.28 F30
Z-0.4
Y2.5488 F60
G0 Z0.2
Y2.6
G1 Z-0.32 F30
Z-0.44
Y2.5488 F60
G0 Z0.2
Y2.6
G1 Z-0.36 F30
Z-0.48
Y2.5488 F60
G0 Z0.2
Y2.6
G1 Z-0.4 F30
Z-0.52
Y2.5488 F60
G0 Z0.2
Y2.6
G1 Z-0.44 F30
Z-0.56
Y2.5488 F60
G0 Z0.2
Y2.6
G1 Z-0.48 F30
Z-0.6
Y2.5488 F60
G0 Z0.2
Y2.6
G1 Z-0.52 F30
Z-0.64
Y2.5488 F60
G0 Z0.2
Y2.6
G1 Z-0.56 F30
Z-0.68
Y2.5488 F60
G0 Z0.2
Y2.6
G1 Z-0.6 F30
Z-0.72
Y2.5488 F60
G0 Z0.2
Y2.6
G1 Z-0.64 F30
Z-0.76
Y2.5488 F60
G0 Z0.2
Y2.6
G1 Z-0.68 F30
Z-0.8
Y2.5488 F60
G0 Z0.6

(2D Contour5)
X9.205 Y2.1533
Z0.6
Z0.2
G1 Z0.08 F30
Z-0.04
Y1.3991 F60
G0 Z0.2
Y2.1533
G1 Z0.04 F30
Z-0.08
Y1.3991 F60
G0 Z0.2
Y2.1533
G1 Z0 F30
Z-0.12
Y1.3991 F60
G0 Z0.2
Y2.1533
G1 Z-0.04 F30
Z-0.16
Y1.3991 F60
G0 Z0.2
Y2.1533
G1 Z-0.08 F30
Z-0.2
Y1.3991 F60
G0 Z0.2
Y2.1533
G1 Z-0.12 F30
Z-0.24
Y1.3991 F60
G0 Z0.2
Y2.1533
G1 Z-0.16 F30
Z-0.28
Y1.3991 F60
G0 Z0.2
Y2.1533
G1 Z-0.2 F30
Z-0.32
Y1.3991 F60
G0 Z0.2
Y2.1533
G1 Z-0.24 F30
Z-0.36
Y1.3991 F60
G0 Z0.2
Y2.1533
G1 Z-0.28 F30
Z-0.4
Y1.3991 F60
G0 Z0.2
Y2.1533
G1 Z-0.32 F30
Z-0.44
Y1.3991 F60
G0 Z0.2
Y2.1533
G1 Z-0.36 F30
Z-0.48
Y1.3991 F60
G0 Z0.2
Y2.1533
G1 Z-0.4 F30
Z-0.52
Y1.3991 F60
G0 Z0.2
Y2.1533
G1 Z-0.44 F30
Z-0.56
Y1.3991 F60
G0 Z0.2
Y2.1533
G1 Z-0.48 F30
Z-0.5825
Y1.3991 F60
G0 Z0.2
Y2.1533
G1 Z-0.5025 F30
Z-0.605
Y1.3991 F60
G0 Z0.6

(2D Contour6)
X9.205 Y2.15
Z0.6
Z-0.405
G1 Z-0.525 F30
Z-0.645
Y1.85 F60
G0 Z0.2
Y2.15
Z-0.405
G1 Z-0.565 F30
Z-0.685
Y1.85 F60
G0 Z0.2
Y2.15
Z-0.405
G1 Z-0.605 F30
Z-0.725
Y1.85 F60
G0 Z0.2
Y2.15
Z-0.405
G1 Z-0.645 F30
Z-0.765
Y1.85 F60
G0 Z0.2
Y2.15
Z-0.405
G1 Z-0.685 F30
Z-0.8
Y1.85 F60
G0 Z0.6

(2D Contour9)
X9.205 Y1.45
Z0.6
Z-0.405
G1 Z-0.525 F30
Z-0.645
Y1.4 F60
G0 Z0.2
Y1.45
Z-0.405
G1 Z-0.565 F30
Z-0.685
Y1.4 F60
G0 Z0.2
Y1.45
Z-0.405
G1 Z-0.605 F30
Z-0.725
Y1.4 F60
G0 Z0.2
Y1.45
Z-0.405
G1 Z-0.645 F30
Z-0.765
Y1.4 F60
G0 Z0.2
Y1.45
Z-0.405
G1 Z-0.685 F30
Z-0.8
Y1.4 F60
G0 Z0.6
G28 G91 Z0
G90
G28 G91 X0 Y0
G90
M30
%
