%
(Delrin Front)
(T1  D=0.25 CR=0 - ZMIN=-0.8 - flat end mill)
(T20  D=0.25 CR=0 TAPER=90deg - ZMIN=-0.124 - countersink)
G90
G17
G20
G28 G91 Z0
G90

(2D Contour11)
T1 M6
S10000 M3
G54
G0 X1.175 Y0.6016
Z0.6
Z0.2
G1 Z0.08 F30
Z-0.04
Y0.8781 F60
X0.525
Y0.325
X1.175
Y0.6016
Z-0.08 F30
Y0.8781 F60
X0.525
Y0.325
X1.175
Y0.6016
Z-0.12 F30
Y0.8781 F60
X0.525
Y0.325
X1.175
Y0.6016
Z-0.16 F30
Y0.8781 F60
X0.525
Y0.325
X1.175
Y0.6016
Z-0.2 F30
Y0.8781 F60
X0.525
Y0.325
X1.175
Y0.6016
Z-0.24 F30
Y0.8781 F60
X0.525
Y0.325
X1.175
Y0.6016
Z-0.28 F30
Y0.8781 F60
X0.525
Y0.325
X1.175
Y0.6016
Z-0.32 F30
Y0.8781 F60
X0.525
Y0.325
X1.175
Y0.6016
Z-0.36 F30
Y0.8781 F60
X0.525
Y0.325
X1.175
Y0.6016
Z-0.4 F30
Y0.8781 F60
X0.525
Y0.325
X1.175
Y0.6016
Z-0.44 F30
Y0.8781 F60
X0.525
Y0.325
X1.175
Y0.6016
Z-0.48 F30
Y0.8781 F60
X0.525
Y0.325
X1.175
Y0.6016
Z-0.52 F30
Y0.8781 F60
X0.525
Y0.325
X1.175
Y0.6016
Z-0.56 F30
Y0.8781 F60
X0.525
Y0.325
X1.175
Y0.6016
Z-0.6 F30
Y0.8781 F60
X0.525
Y0.325
X1.175
Y0.6016
Z-0.64 F30
Y0.8781 F60
X0.525
Y0.325
X1.175
Y0.6016
Z-0.65 F30
Y0.8781 F60
X0.525
Y0.325
X1.175
Y0.6016
G0 Z0.6

(Face3)
X1.1688 Y0.3764
Z0.6
Z0.2
G1 Z-0.01 F30
X1.0313 F60
X0.6658
G2 Y0.5594 I0 J0.0915
G1 X1.0313
G3 Y0.7426 I0 J0.0916
G1 X0.6658 Y0.7425
G0 Z0.2
X0.5283 Y0.3764
G1 Z-0.05 F30
X0.6658 F60
X1.0313
G3 Y0.5594 I0 J0.0915
G1 X0.6658
G2 Y0.7426 I0 J0.0916
G1 X1.0313 Y0.7425
G0 Z0.2
X1.1688 Y0.3764
G1 Z-0.09 F30
X1.0313 F60
X0.6658
G2 Y0.5594 I0 J0.0915
G1 X1.0313
G3 Y0.7426 I0 J0.0916
G1 X0.6658 Y0.7425
G0 Z0.2
X0.5283 Y0.3764
G1 Z-0.13 F30
X0.6658 F60
X1.0313
G3 Y0.5594 I0 J0.0915
G1 X0.6658
G2 Y0.7426 I0 J0.0916
G1 X1.0313 Y0.7425
G0 Z0.2
X1.1688 Y0.3764
G1 Z-0.17 F30
X1.0313 F60
X0.6658
G2 Y0.5594 I0 J0.0915
G1 X1.0313
G3 Y0.7426 I0 J0.0916
G1 X0.6658 Y0.7425
G0 Z0.2
X0.5283 Y0.3764
G1 Z-0.21 F30
X0.6658 F60
X1.0313
G3 Y0.5594 I0 J0.0915
G1 X0.6658
G2 Y0.7426 I0 J0.0916
G1 X1.0313 Y0.7425
G0 Z0.2
X1.1688 Y0.3764
G1 Z-0.25 F30
X1.0313 F60
X0.6658
G2 Y0.5594 I0 J0.0915
G1 X1.0313
G3 Y0.7426 I0 J0.0916
G1 X0.6658 Y0.7425
G0 Z0.2
X0.5283 Y0.3764
G1 Z-0.29 F30
X0.6658 F60
X1.0313
G3 Y0.5594 I0 J0.0915
G1 X0.6658
G2 Y0.7426 I0 J0.0916
G1 X1.0313 Y0.7425
G0 Z0.2
X1.1688 Y0.3764
G1 Z-0.33 F30
X1.0313 F60
X0.6658
G2 Y0.5594 I0 J0.0915
G1 X1.0313
G3 Y0.7426 I0 J0.0916
G1 X0.6658 Y0.7425
G0 Z0.2
X0.5283 Y0.3764
G1 Z-0.37 F30
X0.6658 F60
X1.0313
G3 Y0.5594 I0 J0.0915
G1 X0.6658
G2 Y0.7426 I0 J0.0916
G1 X1.0313 Y0.7425
G0 Z0.2
X1.1688 Y0.3764
G1 Z-0.41 F30
X1.0313 F60
X0.6658
G2 Y0.5594 I0 J0.0915
G1 X1.0313
G3 Y0.7426 I0 J0.0916
G1 X0.6658 Y0.7425
G0 Z0.2
X0.5283 Y0.3764
G1 Z-0.45 F30
X0.6658 F60
X1.0313
G3 Y0.5594 I0 J0.0915
G1 X0.6658
G2 Y0.7426 I0 J0.0916
G1 X1.0313 Y0.7425
G0 Z0.2
X1.1688 Y0.3764
G1 Z-0.49 F30
X1.0313 F60
X0.6658
G2 Y0.5594 I0 J0.0915
G1 X1.0313
G3 Y0.7426 I0 J0.0916
G1 X0.6658 Y0.7425
G0 Z0.2
X0.5283 Y0.3764
G1 Z-0.53 F30
X0.6658 F60
X1.0313
G3 Y0.5594 I0 J0.0915
G1 X0.6658
G2 Y0.7426 I0 J0.0916
G1 X1.0313 Y0.7425
G0 Z0.2
X1.1688 Y0.3764
G1 Z-0.57 F30
X1.0313 F60
X0.6658
G2 Y0.5594 I0 J0.0915
G1 X1.0313
G3 Y0.7426 I0 J0.0916
G1 X0.6658 Y0.7425
G0 Z0.2
X0.5283 Y0.3764
G1 Z-0.61 F30
X0.6658 F60
X1.0313
G3 Y0.5594 I0 J0.0915
G1 X0.6658
G2 Y0.7426 I0 J0.0916
G1 X1.0313 Y0.7425
G0 Z0.2
X1.1688 Y0.3764
G1 Z-0.65 F30
X1.0313 F60
X0.6658
G2 Y0.5594 I0 J0.0915
G1 X1.0313
G3 Y0.7426 I0 J0.0916
G1 X0.6658 Y0.7425
G0 Z0.6
M5
G28 G91 Z0
G90

(Drill2)
T20 M6
S5000 M3
G54
G0 X1.45 Y0.15
Z0.6
Z0.2
G1 Z-0.124 F20
G0 Z0.2
Y1.05
G1 Z-0.124 F20
G0 Z0.2
X0.25
G1 Z-0.124 F20
G0 Z0.2
Y0.15
G1 Z-0.124 F20
G0 Z0.2
Z0.6
M5
G28 G91 Z0
G90

(2D Contour12)
T1 M6
S10000 M3
G54
G0 X0.1 Y1.325
Z0.6
Z0.2
G1 Z0.08 F30
Z-0.04
X1.6 F60
G2 X1.725 Y1.2 I0 J-0.125
G1 Y0
G2 X1.6 Y-0.125 I-0.125 J0
G1 X0.1
G0 Z0.2
Y1.325
G1 Z0.04 F30
Z-0.08
X1.6 F60
G2 X1.725 Y1.2 I0 J-0.125
G1 Y0
G2 X1.6 Y-0.125 I-0.125 J0
G1 X0.1
G0 Z0.2
Y1.325
G1 Z0 F30
Z-0.12
X1.6 F60
G2 X1.725 Y1.2 I0 J-0.125
G1 Y0
G2 X1.6 Y-0.125 I-0.125 J0
G1 X0.1
G0 Z0.2
Y1.325
G1 Z-0.04 F30
Z-0.16
X1.6 F60
G2 X1.725 Y1.2 I0 J-0.125
G1 Y0
G2 X1.6 Y-0.125 I-0.125 J0
G1 X0.1
G0 Z0.2
Y1.325
G1 Z-0.08 F30
Z-0.2
X1.6 F60
G2 X1.725 Y1.2 I0 J-0.125
G1 Y0
G2 X1.6 Y-0.125 I-0.125 J0
G1 X0.1
G0 Z0.2
Y1.325
G1 Z-0.12 F30
Z-0.24
X1.6 F60
G2 X1.725 Y1.2 I0 J-0.125
G1 Y0
G2 X1.6 Y-0.125 I-0.125 J0
G1 X0.1
G0 Z0.2
Y1.325
G1 Z-0.16 F30
Z-0.28
X1.6 F60
G2 X1.725 Y1.2 I0 J-0.125
G1 Y0
G2 X1.6 Y-0.125 I-0.125 J0
G1 X0.1
G0 Z0.2
Y1.325
G1 Z-0.2 F30
Z-0.32
X1.6 F60
G2 X1.725 Y1.2 I0 J-0.125
G1 Y0
G2 X1.6 Y-0.125 I-0.125 J0
G1 X0.1
G0 Z0.2
Y1.325
G1 Z-0.24 F30
Z-0.36
X1.6 F60
G2 X1.725 Y1.2 I0 J-0.125
G1 Y0
G2 X1.6 Y-0.125 I-0.125 J0
G1 X0.1
G0 Z0.2
Y1.325
G1 Z-0.28 F30
Z-0.4
X1.6 F60
G2 X1.725 Y1.2 I0 J-0.125
G1 Y0
G2 X1.6 Y-0.125 I-0.125 J0
G1 X0.1
G0 Z0.2
Y1.325
G1 Z-0.32 F30
Z-0.44
X1.6 F60
G2 X1.725 Y1.2 I0 J-0.125
G1 Y0
G2 X1.6 Y-0.125 I-0.125 J0
G1 X0.1
G0 Z0.2
Y1.325
G1 Z-0.36 F30
Z-0.48
X1.6 F60
G2 X1.725 Y1.2 I0 J-0.125
G1 Y0
G2 X1.6 Y-0.125 I-0.125 J0
G1 X0.1
G0 Z0.2
Y1.325
G1 Z-0.4 F30
Z-0.52
X1.6 F60
G2 X1.725 Y1.2 I0 J-0.125
G1 Y0
G2 X1.6 Y-0.125 I-0.125 J0
G1 X0.1
G0 Z0.2
Y1.325
G1 Z-0.44 F30
Z-0.56
X1.6 F60
G2 X1.725 Y1.2 I0 J-0.125
G1 Y0
G2 X1.6 Y-0.125 I-0.125 J0
G1 X0.1
G0 Z0.2
Y1.325
G1 Z-0.48 F30
Z-0.6
X1.6 F60
G2 X1.725 Y1.2 I0 J-0.125
G1 Y0
G2 X1.6 Y-0.125 I-0.125 J0
G1 X0.1
G0 Z0.2
Y1.325
G1 Z-0.52 F30
Z-0.64
X1.6 F60
G2 X1.725 Y1.2 I0 J-0.125
G1 Y0
G2 X1.6 Y-0.125 I-0.125 J0
G1 X0.1
G0 Z0.2
Y1.325
G1 Z-0.56 F30
Z-0.68
X1.6 F60
G2 X1.725 Y1.2 I0 J-0.125
G1 Y0
G2 X1.6 Y-0.125 I-0.125 J0
G1 X0.1
G0 Z0.2
Y1.325
G1 Z-0.6 F30
Z-0.72
X1.6 F60
G2 X1.725 Y1.2 I0 J-0.125
G1 Y0
G2 X1.6 Y-0.125 I-0.125 J0
G1 X0.1
G0 Z0.2
Y1.325
G1 Z-0.64 F30
Z-0.76
X1.6 F60
G2 X1.725 Y1.2 I0 J-0.125
G1 Y0
G2 X1.6 Y-0.125 I-0.125 J0
G1 X0.1
G0 Z0.2
Y1.325
G1 Z-0.68 F30
Z-0.8
X1.6 F60
G2 X1.725 Y1.2 I0 J-0.125
G1 Y0
G2 X1.6 Y-0.125 I-0.125 J0
G1 X0.1
G0 Z0.6

(2D Contour13)
X-0.025 Y0
Z0.6
Z0.2
G1 Z0.08 F30
Z-0.04
Y1.2 F60
G0 Z0.2
Y0
G1 Z0.04 F30
Z-0.08
Y1.2 F60
G0 Z0.2
Y0
G1 Z0 F30
Z-0.105
Y1.2 F60
G0 Z0.6

(2D Contour16)
X-0.025 Y0.4467
Z0.6
Z0.095
G1 Z-0.025 F30
Z-0.145
Y1.2009 F60
G0 Z0.2
Y0.4467
Z0.095
G1 Z-0.065 F30
Z-0.185
Y1.2009 F60
G0 Z0.2
Y0.4467
Z0.095
G1 Z-0.105 F30
Z-0.225
Y1.2009 F60
G0 Z0.2
Y0.4467
Z0.095
G1 Z-0.145 F30
Z-0.265
Y1.2009 F60
G0 Z0.2
Y0.4467
Z0.095
G1 Z-0.185 F30
Z-0.305
Y1.2009 F60
G0 Z0.2
Y0.4467
Z0.095
G1 Z-0.225 F30
Z-0.345
Y1.2009 F60
G0 Z0.2
Y0.4467
Z0.095
G1 Z-0.265 F30
Z-0.385
Y1.2009 F60
G0 Z0.2
Y0.4467
Z0.095
G1 Z-0.305 F30
Z-0.425
Y1.2009 F60
G0 Z0.2
Y0.4467
Z0.095
G1 Z-0.345 F30
Z-0.465
Y1.2009 F60
G0 Z0.2
Y0.4467
Z0.095
G1 Z-0.385 F30
Z-0.505
Y1.2009 F60
G0 Z0.2
Y0.4467
Z0.095
G1 Z-0.425 F30
Z-0.545
Y1.2009 F60
G0 Z0.2
Y0.4467
Z0.095
G1 Z-0.465 F30
Z-0.585
Y1.2009 F60
G0 Z0.2
Y0.4467
Z0.095
G1 Z-0.505 F30
Z-0.605
Y1.2009 F60
G0 Z0.6

(2D Contour14)
X-0.025 Y0
Z0.6
Z0.095
G1 Z-0.025 F30
Z-0.145
Y0.05 F60
G0 Z0.2
Y0
Z0.095
G1 Z-0.065 F30
Z-0.185
Y0.05 F60
G0 Z0.2
Y0
Z0.095
G1 Z-0.105 F30
Z-0.225
Y0.05 F60
G0 Z0.2
Y0
Z0.095
G1 Z-0.145 F30
Z-0.265
Y0.05 F60
G0 Z0.2
Y0
Z0.095
G1 Z-0.185 F30
Z-0.305
Y0.05 F60
G0 Z0.2
Y0
Z0.095
G1 Z-0.225 F30
Z-0.345
Y0.05 F60
G0 Z0.2
Y0
Z0.095
G1 Z-0.265 F30
Z-0.385
Y0.05 F60
G0 Z0.2
Y0
Z0.095
G1 Z-0.305 F30
Z-0.425
Y0.05 F60
G0 Z0.2
Y0
Z0.095
G1 Z-0.345 F30
Z-0.465
Y0.05 F60
G0 Z0.2
Y0
Z0.095
G1 Z-0.385 F30
Z-0.505
Y0.05 F60
G0 Z0.2
Y0
Z0.095
G1 Z-0.425 F30
Z-0.545
Y0.05 F60
G0 Z0.2
Y0
Z0.095
G1 Z-0.465 F30
Z-0.585
Y0.05 F60
G0 Z0.2
Y0
Z0.095
G1 Z-0.505 F30
Z-0.625
Y0.05 F60
G0 Z0.2
Y0
Z0.095
G1 Z-0.545 F30
Z-0.665
Y0.05 F60
G0 Z0.2
Y0
Z0.095
G1 Z-0.585 F30
Z-0.705
Y0.05 F60
G0 Z0.2
Y0
Z0.095
G1 Z-0.625 F30
Z-0.745
Y0.05 F60
G0 Z0.2
Y0
Z0.095
G1 Z-0.665 F30
Z-0.785
Y0.05 F60
G0 Z0.2
Y0
Z0.095
G1 Z-0.705 F30
Z-0.8
Y0.05 F60
G0 Z0.6

(2D Contour15)
X-0.025 Y0.45
Z0.6
Z0.095
G1 Z-0.025 F30
Z-0.145
Y0.75 F60
G0 Z0.2
Y0.45
Z0.095
G1 Z-0.065 F30
Z-0.185
Y0.75 F60
G0 Z0.2
Y0.45
Z0.095
G1 Z-0.105 F30
Z-0.225
Y0.75 F60
G0 Z0.2
Y0.45
Z0.095
G1 Z-0.145 F30
Z-0.265
Y0.75 F60
G0 Z0.2
Y0.45
Z0.095
G1 Z-0.185 F30
Z-0.305
Y0.75 F60
G0 Z0.2
Y0.45
Z0.095
G1 Z-0.225 F30
Z-0.345
Y0.75 F60
G0 Z0.2
Y0.45
Z0.095
G1 Z-0.265 F30
Z-0.385
Y0.75 F60
G0 Z0.2
Y0.45
Z0.095
G1 Z-0.305 F30
Z-0.425
Y0.75 F60
G0 Z0.2
Y0.45
Z0.095
G1 Z-0.345 F30
Z-0.465
Y0.75 F60
G0 Z0.2
Y0.45
Z0.095
G1 Z-0.385 F30
Z-0.505
Y0.75 F60
G0 Z0.2
Y0.45
Z0.095
G1 Z-0.425 F30
Z-0.545
Y0.75 F60
G0 Z0.2
Y0.45
Z0.095
G1 Z-0.465 F30
Z-0.585
Y0.75 F60
G0 Z0.2
Y0.45
Z0.095
G1 Z-0.505 F30
Z-0.625
Y0.75 F60
G0 Z0.2
Y0.45
Z0.095
G1 Z-0.545 F30
Z-0.665
Y0.75 F60
G0 Z0.2
Y0.45
Z0.095
G1 Z-0.585 F30
Z-0.705
Y0.75 F60
G0 Z0.2
Y0.45
Z0.095
G1 Z-0.625 F30
Z-0.745
Y0.75 F60
G0 Z0.2
Y0.45
Z0.095
G1 Z-0.665 F30
Z-0.785
Y0.75 F60
G0 Z0.2
Y0.45
Z0.095
G1 Z-0.705 F30
Z-0.8
Y0.75 F60
G0 Z0.6

(2D Contour17)
X-0.025 Y1.15
Z0.6
Z-0.405
G1 Z-0.525 F30
Z-0.645
Y1.2 F60
G0 Z0.2
Y1.15
Z-0.405
G1 Z-0.565 F30
Z-0.685
Y1.2 F60
G0 Z0.2
Y1.15
Z-0.405
G1 Z-0.605 F30
Z-0.725
Y1.2 F60
G0 Z0.2
Y1.15
Z-0.405
G1 Z-0.645 F30
Z-0.765
Y1.2 F60
G0 Z0.2
Y1.15
Z-0.405
G1 Z-0.685 F30
Z-0.8
Y1.2 F60
G0 Z0.6
G28 G91 Z0
G90
G28 G91 X0 Y0
G90
M30
%
