%
(DelrinFrontParts)
(T1  D=0.25 CR=0 - ZMIN=-1.85 - flat end mill)
G90
G17
G20
G28 G91 Z0
G90

(2D Contour2)
T1 M6
S10000 M3
G54
G0 X0 Y0.925
Z0.6
Z0.2
G1 Z0.08 F30
Z-0.04
X1.2 F60
G0 Z0.2
X0
G1 Z0.04 F30
Z-0.08
X1.2 F60
G0 Z0.2
X0
G1 Z0 F30
Z-0.12
X1.2 F60
G0 Z0.2
X0
G1 Z-0.04 F30
Z-0.16
X1.2 F60
G0 Z0.2
X0
G1 Z-0.08 F30
Z-0.2
X1.2 F60
G0 Z0.2
X0
G1 Z-0.12 F30
Z-0.24
X1.2 F60
G0 Z0.2
X0
G1 Z-0.16 F30
Z-0.28
X1.2 F60
G0 Z0.2
X0
G1 Z-0.2 F30
Z-0.32
X1.2 F60
G0 Z0.2
X0
G1 Z-0.24 F30
Z-0.36
X1.2 F60
G0 Z0.2
X0
G1 Z-0.28 F30
Z-0.4
X1.2 F60
G0 Z0.2
X0
G1 Z-0.32 F30
Z-0.44
X1.2 F60
G0 Z0.2
X0
G1 Z-0.36 F30
Z-0.48
X1.2 F60
G0 Z0.2
X0
G1 Z-0.4 F30
Z-0.52
X1.2 F60
G0 Z0.2
X0
G1 Z-0.44 F30
Z-0.56
X1.2 F60
G0 Z0.2
X0
G1 Z-0.48 F30
Z-0.6
X1.2 F60
G0 Z0.2
X0
G1 Z-0.52 F30
Z-0.64
X1.2 F60
G0 Z0.2
X0
G1 Z-0.56 F30
Z-0.68
X1.2 F60
G0 Z0.2
X0
G1 Z-0.6 F30
Z-0.72
X1.2 F60
G0 Z0.2
X0
G1 Z-0.64 F30
Z-0.76
X1.2 F60
G0 Z0.2
X0
G1 Z-0.68 F30
Z-0.8
X1.2 F60
G0 Z0.2
X0
G1 Z-0.72 F30
Z-0.84
X1.2 F60
G0 Z0.2
X0
G1 Z-0.76 F30
Z-0.88
X1.2 F60
G0 Z0.2
X0
G1 Z-0.8 F30
Z-0.92
X1.2 F60
G0 Z0.2
X0
G1 Z-0.84 F30
Z-0.96
X1.2 F60
G0 Z0.2
X0
G1 Z-0.88 F30
Z-1
X1.2 F60
G0 Z0.2
X0
G1 Z-0.92 F30
Z-1.04
X1.2 F60
G0 Z0.2
X0
G1 Z-0.96 F30
Z-1.08
X1.2 F60
G0 Z0.2
X0
G1 Z-1 F30
Z-1.12
X1.2 F60
G0 Z0.2
X0
G1 Z-1.04 F30
Z-1.16
X1.2 F60
G0 Z0.2
X0
G1 Z-1.08 F30
Z-1.2
X1.2 F60
G0 Z0.2
X0
G1 Z-1.12 F30
Z-1.24
X1.2 F60
G0 Z0.2
X0
G1 Z-1.16 F30
Z-1.28
X1.2 F60
G0 Z0.2
X0
G1 Z-1.2 F30
Z-1.32
X1.2 F60
G0 Z0.2
X0
G1 Z-1.24 F30
Z-1.36
X1.2 F60
G0 Z0.2
X0
G1 Z-1.28 F30
Z-1.4
X1.2 F60
G0 Z0.2
X0
G1 Z-1.32 F30
Z-1.44
X1.2 F60
G0 Z0.2
X0
G1 Z-1.36 F30
Z-1.48
X1.2 F60
G0 Z0.2
X0
G1 Z-1.4 F30
Z-1.52
X1.2 F60
G0 Z0.2
X0
G1 Z-1.44 F30
Z-1.56
X1.2 F60
G0 Z0.2
X0
G1 Z-1.48 F30
Z-1.6
X1.2 F60
G0 Z0.2
X0
G1 Z-1.52 F30
Z-1.64
X1.2 F60
G0 Z0.2
X0
G1 Z-1.56 F30
Z-1.68
X1.2 F60
G0 Z0.2
X0
G1 Z-1.6 F30
Z-1.72
X1.2 F60
G0 Z0.2
X0
G1 Z-1.64 F30
Z-1.76
X1.2 F60
G0 Z0.2
X0
G1 Z-1.68 F30
Z-1.8
X1.2 F60
G0 Z0.2
X0
G1 Z-1.72 F30
Z-1.84
X1.2 F60
G0 Z0.2
X0
G1 Z-1.76 F30
Z-1.85
X1.2 F60
G0 Z0.6
G28 G91 Z0
G90
G28 G91 X0 Y0
G90
M30
%
