%
(DelrinFrontParts)
(T1  D=0.25 CR=0 - ZMIN=-0.8 - flat end mill)
(T20  D=0.25 CR=0 TAPER=90deg - ZMIN=-0.124 - countersink)
G90
G17
G20
G28 G91 Z0
G90

(Face12)
T1 M6
S10000 M3
G54
G0 X2.2481 Y11.2808
Z0.6
Z0.2
G1 Z-0.02 F30
X2.1106 F60
X1.386 F180
G2 Y11.4152 I0 J0.0672
G1 X2.1106 Y11.4151
G0 Z0.2
X2.2481 Y11.2808
G1 Z-0.06 F30
X2.1106 F60
X1.386 F180
G2 Y11.4152 I0 J0.0672
G1 X2.1106 Y11.4151
G0 Z0.2
X2.2481 Y11.2808
G1 Z-0.1 F30
X2.1106 F60
X1.386 F180
G2 Y11.4152 I0 J0.0672
G1 X2.1106 Y11.4151
G0 Z0.2
X2.2481 Y11.2808
G1 Z-0.14 F30
X2.1106 F60
X1.386 F180
G2 Y11.4152 I0 J0.0672
G1 X2.1106 Y11.4151
G0 Z0.2
X2.2481 Y11.2808
G1 Z-0.18 F30
X2.1106 F60
X1.386 F180
G2 Y11.4152 I0 J0.0672
G1 X2.1106 Y11.4151
G0 Z0.2
X2.2481 Y11.2808
G1 Z-0.22 F30
X2.1106 F60
X1.386 F180
G2 Y11.4152 I0 J0.0672
G1 X2.1106 Y11.4151
G0 Z0.2
X2.2481 Y11.2808
G1 Z-0.26 F30
X2.1106 F60
X1.386 F180
G2 Y11.4152 I0 J0.0672
G1 X2.1106 Y11.4151
G0 Z0.2
X2.2481 Y11.2808
G1 Z-0.3 F30
X2.1106 F60
X1.386 F180
G2 Y11.4152 I0 J0.0672
G1 X2.1106 Y11.4151
G0 Z0.2
X2.2481 Y11.2808
G1 Z-0.34 F30
X2.1106 F60
X1.386 F180
G2 Y11.4152 I0 J0.0672
G1 X2.1106 Y11.4151
G0 Z0.2
X2.2481 Y11.2808
G1 Z-0.38 F30
X2.1106 F60
X1.386 F180
G2 Y11.4152 I0 J0.0672
G1 X2.1106 Y11.4151
G0 Z0.2
X2.2481 Y11.2808
G1 Z-0.42 F30
X2.1106 F60
X1.386 F180
G2 Y11.4152 I0 J0.0672
G1 X2.1106 Y11.4151
G0 Z0.2
X2.2481 Y11.2808
G1 Z-0.46 F30
X2.1106 F60
X1.386 F180
G2 Y11.4152 I0 J0.0672
G1 X2.1106 Y11.4151
G0 Z0.2
X2.2481 Y11.2808
G1 Z-0.5 F30
X2.1106 F60
X1.386 F180
G2 Y11.4152 I0 J0.0672
G1 X2.1106 Y11.4151
G0 Z0.2
X2.2481 Y11.2808
G1 Z-0.54 F30
X2.1106 F60
X1.386 F180
G2 Y11.4152 I0 J0.0672
G1 X2.1106 Y11.4151
G0 Z0.2
X2.2481 Y11.2808
G1 Z-0.58 F30
X2.1106 F60
X1.386 F180
G2 Y11.4152 I0 J0.0672
G1 X2.1106 Y11.4151
G0 Z0.2
X2.2481 Y11.2808
G1 Z-0.62 F30
X2.1106 F60
X1.386 F180
G2 Y11.4152 I0 J0.0672
G1 X2.1106 Y11.4151
G0 Z0.2
X2.2481 Y11.2808
G1 Z-0.66 F30
X2.1106 F60
X1.386 F180
G2 Y11.4152 I0 J0.0672
G1 X2.1106 Y11.4151
G0 Z0.2
X2.2481 Y11.2808
G1 Z-0.7 F30
X2.1106 F60
X1.386 F180
G2 Y11.4152 I0 J0.0672
G1 X2.1106 Y11.4151
G0 Z0.6

(2D Contour12)
X2.075 Y11.4016
Z0.6
Z0.2
G1 Z0.08 F30
Z-0.04
Y11.6781 F180
X1.425
Y11.125
X2.075
Y11.4016
Z-0.08 F30
Y11.6781 F180
X1.425
Y11.125
X2.075
Y11.4016
Z-0.12 F30
Y11.6781 F180
X1.425
Y11.125
X2.075
Y11.4016
Z-0.16 F30
Y11.6781 F180
X1.425
Y11.125
X2.075
Y11.4016
Z-0.2 F30
Y11.6781 F180
X1.425
Y11.125
X2.075
Y11.4016
Z-0.24 F30
Y11.6781 F180
X1.425
Y11.125
X2.075
Y11.4016
Z-0.28 F30
Y11.6781 F180
X1.425
Y11.125
X2.075
Y11.4016
Z-0.32 F30
Y11.6781 F180
X1.425
Y11.125
X2.075
Y11.4016
Z-0.36 F30
Y11.6781 F180
X1.425
Y11.125
X2.075
Y11.4016
Z-0.4 F30
Y11.6781 F180
X1.425
Y11.125
X2.075
Y11.4016
Z-0.44 F30
Y11.6781 F180
X1.425
Y11.125
X2.075
Y11.4016
Z-0.48 F30
Y11.6781 F180
X1.425
Y11.125
X2.075
Y11.4016
Z-0.52 F30
Y11.6781 F180
X1.425
Y11.125
X2.075
Y11.4016
Z-0.56 F30
Y11.6781 F180
X1.425
Y11.125
X2.075
Y11.4016
Z-0.6 F30
Y11.6781 F180
X1.425
Y11.125
X2.075
Y11.4016
Z-0.64 F30
Y11.6781 F180
X1.425
Y11.125
X2.075
Y11.4016
Z-0.68 F30
Y11.6781 F180
X1.425
Y11.125
X2.075
Y11.4016
Z-0.7 F30
Y11.6781 F180
X1.425
Y11.125
X2.075
Y11.4016
G0 Z0.6
M5
G28 G91 Z0
G90

(Drill3)
T20 M6
S5000 M3
G54
G0 X2.35 Y10.95
Z0.6
Z0.2
G1 Z-0.124 F20
G0 Z0.2
Y11.85
G1 Z-0.124 F20
G0 Z0.2
X1.15
G1 Z-0.124 F20
G0 Z0.2
Y10.95
G1 Z-0.124 F20
G0 Z0.2
Z0.6
M5
G28 G91 Z0
G90

(Face13)
T1 M6
S10000 M3
G54
G0 X1.1375 Y11.2781
Z0.6
Z0.2
G1 Z-0.03 F30
X1 F60
X0.65 F180
G2 Y11.4341 I0 J0.078
G1 X1 Y11.4342
G0 Z0.2
X1.1375 Y11.2781
G1 Z-0.07 F30
X1 F60
X0.65 F180
G2 Y11.4341 I0 J0.078
G1 X1 Y11.4342
G0 Z0.2
X1.1375 Y11.2781
G1 Z-0.11 F30
X1 F60
X0.65 F180
G2 Y11.4341 I0 J0.078
G1 X1 Y11.4342
G0 Z0.2
X1.1375 Y11.2781
G1 Z-0.15 F30
X1 F60
X0.65 F180
G2 Y11.4341 I0 J0.078
G1 X1 Y11.4342
G0 Z0.2
X1.1375 Y11.2781
G1 Z-0.19 F30
X1 F60
X0.65 F180
G2 Y11.4341 I0 J0.078
G1 X1 Y11.4342
G0 Z0.2
X1.1375 Y11.2781
G1 Z-0.23 F30
X1 F60
X0.65 F180
G2 Y11.4341 I0 J0.078
G1 X1 Y11.4342
G0 Z0.2
X1.1375 Y11.2781
G1 Z-0.27 F30
X1 F60
X0.65 F180
G2 Y11.4341 I0 J0.078
G1 X1 Y11.4342
G0 Z0.6

(2D Contour9)
X0.875 Y11.4
Z0.6
Z0.2
G1 Z0.08 F30
Z-0.04
Y12 F180
G2 X1 Y12.125 I0.125 J0
G1 X2.5
G2 X2.625 Y12 I0 J-0.125
G1 Y10.8
G2 X2.5 Y10.675 I-0.125 J0
G1 X1
G2 X0.875 Y10.8 I0 J0.125
G1 Y11.4
Z-0.08 F30
Y12 F180
G2 X1 Y12.125 I0.125 J0
G1 X2.5
G2 X2.625 Y12 I0 J-0.125
G1 Y10.8
G2 X2.5 Y10.675 I-0.125 J0
G1 X1
G2 X0.875 Y10.8 I0 J0.125
G1 Y11.4
Z-0.12 F30
Y12 F180
G2 X1 Y12.125 I0.125 J0
G1 X2.5
G2 X2.625 Y12 I0 J-0.125
G1 Y10.8
G2 X2.5 Y10.675 I-0.125 J0
G1 X1
G2 X0.875 Y10.8 I0 J0.125
G1 Y11.4
Z-0.16 F30
Y12 F180
G2 X1 Y12.125 I0.125 J0
G1 X2.5
G2 X2.625 Y12 I0 J-0.125
G1 Y10.8
G2 X2.5 Y10.675 I-0.125 J0
G1 X1
G2 X0.875 Y10.8 I0 J0.125
G1 Y11.4
Z-0.2 F30
Y12 F180
G2 X1 Y12.125 I0.125 J0
G1 X2.5
G2 X2.625 Y12 I0 J-0.125
G1 Y10.8
G2 X2.5 Y10.675 I-0.125 J0
G1 X1
G2 X0.875 Y10.8 I0 J0.125
G1 Y11.4
Z-0.24 F30
Y12 F180
G2 X1 Y12.125 I0.125 J0
G1 X2.5
G2 X2.625 Y12 I0 J-0.125
G1 Y10.8
G2 X2.5 Y10.675 I-0.125 J0
G1 X1
G2 X0.875 Y10.8 I0 J0.125
G1 Y11.4
Z-0.27 F30
Y12 F180
G2 X1 Y12.125 I0.125 J0
G1 X2.5
G2 X2.625 Y12 I0 J-0.125
G1 Y10.8
G2 X2.5 Y10.675 I-0.125 J0
G1 X1
G2 X0.875 Y10.8 I0 J0.125
G1 Y11.4
G0 Z0.6

(2D Contour10)
X0.8758 Y11.12
Z0.6
Z0.2
G1 Z0.08 F30
Z-0.04
X0.65 F60
X0.525
Y11.68
X0.8758
G0 Z0.2
Y11.12
G1 Z0.04 F30
Z-0.08
X0.65 F60
X0.525
Y11.68
X0.8758
G0 Z0.2
Y11.12
G1 Z0 F30
Z-0.12
X0.65 F60
X0.525
Y11.68
X0.8758
G0 Z0.2
Y11.12
G1 Z-0.04 F30
Z-0.16
X0.65 F60
X0.525
Y11.68
X0.8758
G0 Z0.2
Y11.12
G1 Z-0.08 F30
Z-0.2
X0.65 F60
X0.525
Y11.68
X0.8758
G0 Z0.2
Y11.12
G1 Z-0.12 F30
Z-0.24
X0.65 F60
X0.525
Y11.68
X0.8758
G0 Z0.2
Y11.12
G1 Z-0.16 F30
Z-0.28
X0.65 F60
X0.525
Y11.68
X0.8758
G0 Z0.2
Y11.12
G1 Z-0.2 F30
Z-0.32
X0.65 F60
X0.525
Y11.68
X0.8758
G0 Z0.2
Y11.12
G1 Z-0.24 F30
Z-0.36
X0.65 F60
X0.525
Y11.68
X0.8758
G0 Z0.2
Y11.12
G1 Z-0.28 F30
Z-0.4
X0.65 F60
X0.525
Y11.68
X0.8758
G0 Z0.2
Y11.12
G1 Z-0.32 F30
Z-0.44
X0.65 F60
X0.525
Y11.68
X0.8758
G0 Z0.2
Y11.12
G1 Z-0.36 F30
Z-0.48
X0.65 F60
X0.525
Y11.68
X0.8758
G0 Z0.2
Y11.12
G1 Z-0.4 F30
Z-0.52
X0.65 F60
X0.525
Y11.68
X0.8758
G0 Z0.2
Y11.12
G1 Z-0.44 F30
Z-0.56
X0.65 F60
X0.525
Y11.68
X0.8758
G0 Z0.2
Y11.12
G1 Z-0.48 F30
Z-0.6
X0.65 F60
X0.525
Y11.68
X0.8758
G0 Z0.2
Y11.12
G1 Z-0.52 F30
Z-0.64
X0.65 F60
X0.525
Y11.68
X0.8758
G0 Z0.2
Y11.12
G1 Z-0.56 F30
Z-0.68
X0.65 F60
X0.525
Y11.68
X0.8758
G0 Z0.2
Y11.12
G1 Z-0.6 F30
Z-0.72
X0.65 F60
X0.525
Y11.68
X0.8758
G0 Z0.2
Y11.12
G1 Z-0.64 F30
Z-0.76
X0.65 F60
X0.525
Y11.68
X0.8758
G0 Z0.2
Y11.12
G1 Z-0.68 F30
Z-0.8
X0.65 F60
X0.525
Y11.68
X0.8758
G0 Z0.6

(2D Contour11)
X1 Y12.125
Z0.6
Z0.2
G1 Z0.08 F30
Z-0.04
X2.5 F180
G0 Z0.2
X1
G1 Z0.04 F30
Z-0.08
X2.5 F180
G0 Z0.2
X1
G1 Z0 F30
Z-0.12
X2.5 F180
G0 Z0.2
X1
G1 Z-0.04 F30
Z-0.16
X2.5 F180
G0 Z0.2
X1
G1 Z-0.08 F30
Z-0.2
X2.5 F180
G0 Z0.2
X1
G1 Z-0.12 F30
Z-0.24
X2.5 F180
G0 Z0.2
X1
G1 Z-0.16 F30
Z-0.28
X2.5 F180
G0 Z0.2
X1
G1 Z-0.2 F30
Z-0.32
X2.5 F180
G0 Z0.2
X1
G1 Z-0.24 F30
Z-0.36
X2.5 F180
G0 Z0.2
X1
G1 Z-0.28 F30
Z-0.4
X2.5 F180
G0 Z0.2
X1
G1 Z-0.32 F30
Z-0.44
X2.5 F180
G0 Z0.2
X1
G1 Z-0.36 F30
Z-0.48
X2.5 F180
G0 Z0.2
X1
G1 Z-0.4 F30
Z-0.52
X2.5 F180
G0 Z0.2
X1
G1 Z-0.44 F30
Z-0.56
X2.5 F180
G0 Z0.2
X1
G1 Z-0.48 F30
Z-0.6
X2.5 F180
G0 Z0.2
X1
G1 Z-0.52 F30
Z-0.64
X2.5 F180
G0 Z0.2
X1
G1 Z-0.56 F30
Z-0.68
X2.5 F180
G0 Z0.2
X1
G1 Z-0.6 F30
Z-0.72
X2.5 F180
G0 Z0.2
X1
G1 Z-0.64 F30
Z-0.76
X2.5 F180
G0 Z0.2
X1
G1 Z-0.68 F30
Z-0.8
X2.5 F180
G0 Z0.6
G28 G91 Z0
G90
G28 G91 X0 Y0
G90
M30
%
