%
(Delrin Facing -.05")
(T1  D=0.25 CR=0 - ZMIN=-0.05 - flat end mill)
G90
G17
G20
G28 G91 Z0
G90

(Face1)
T1 M6
S10000 M3
G54
G0 X9.35 Y0.0772
Z0.6
Z0.2
G1 Z0.015 F30
G18 G3 X9.325 Z-0.01 I-0.025 K0 F60
G1 X9.1875
X0 F180
G17 G2 Y0.2774 I0 J0.1001
G1 X9.1875
G3 Y0.4776 I0 J0.1001
G1 X0
G2 Y0.6776 I0 J0.1
G1 X9.1875 Y0.6777
G3 Y0.8779 I0 J0.1001
G1 X0
G2 Y1.0781 I0 J0.1001
G1 X9.1875 Y1.078
G3 Y1.2782 I0 J0.1001
G1 X0
G2 Y1.4784 I0 J0.1001
G1 X9.1875
G3 Y1.6784 I0 J0.1
G1 X0 Y1.6785
G2 Y1.8787 I0 J0.1001
G1 X9.1875
G3 Y2.0789 I0 J0.1001
G1 X0
G2 Y2.2789 I0 J0.1
G1 X9.1875 Y2.279
G3 Y2.4792 I0 J0.1001
G1 X0
G18 G3 X-0.025 Z0.015 I0 K0.025 F60
G0 Z0.2
X-0.1625 Y0.0772
G1 Z-0.025 F30
G2 X-0.1375 Z-0.05 I0.025 K0 F60
G1 X0
X9.1875 F180
G17 G3 Y0.2774 I0 J0.1001
G1 X0
G2 Y0.4776 I0 J0.1001
G1 X9.1875
G3 Y0.6776 I0 J0.1
G1 X0 Y0.6777
G2 Y0.8779 I0 J0.1001
G1 X9.1875
G3 Y1.0781 I0 J0.1001
G1 X0 Y1.078
G2 Y1.2782 I0 J0.1001
G1 X9.1875
G3 Y1.4784 I0 J0.1001
G1 X0
G2 Y1.6784 I0 J0.1
G1 X9.1875 Y1.6785
G3 Y1.8787 I0 J0.1001
G1 X0
G2 Y2.0789 I0 J0.1001
G1 X9.1875
G3 Y2.2789 I0 J0.1
G1 X0 Y2.279
G2 Y2.4792 I0 J0.1001
G1 X9.1875
G18 G2 X9.2125 Z-0.025 I0 K0.025 F60
G0 Z0.6
G17
G28 G91 Z0
G90
G28 G91 X0 Y0
G90
M30
%
