%
(Delrin Side )
(T1  D=0.25 CR=0 - ZMIN=-1.2 - flat end mill)
G90
G17
G20
G28 G91 Z0
G90

(2D Contour10)
T1 M6
S10000 M3
G54
G0 X8.4008 Y1.2
Z0.6
Z0.2
G1 Z0.08 F30
Z-0.04
G3 X8.1508 I-0.125 J0 F180
X8.4008 I0.125 J0
G1 Z-0.08 F30
G3 X8.1508 I-0.125 J0 F180
X8.4008 I0.125 J0
G1 Z-0.12 F30
G3 X8.1508 I-0.125 J0 F180
X8.4008 I0.125 J0
G1 Z-0.16 F30
G3 X8.1508 I-0.125 J0 F180
X8.4008 I0.125 J0
G1 Z-0.2 F30
G3 X8.1508 I-0.125 J0 F180
X8.4008 I0.125 J0
G1 Z-0.24 F30
G3 X8.1508 I-0.125 J0 F180
X8.4008 I0.125 J0
G1 Z-0.28 F30
G3 X8.1508 I-0.125 J0 F180
X8.4008 I0.125 J0
G1 Z-0.32 F30
G3 X8.1508 I-0.125 J0 F180
X8.4008 I0.125 J0
G1 Z-0.36 F30
G3 X8.1508 I-0.125 J0 F180
X8.4008 I0.125 J0
G1 Z-0.4 F30
G3 X8.1508 I-0.125 J0 F180
X8.4008 I0.125 J0
G1 Z-0.44 F30
G3 X8.1508 I-0.125 J0 F180
X8.4008 I0.125 J0
G1 Z-0.48 F30
G3 X8.1508 I-0.125 J0 F180
X8.4008 I0.125 J0
G1 Z-0.52 F30
G3 X8.1508 I-0.125 J0 F180
X8.4008 I0.125 J0
G1 Z-0.56 F30
G3 X8.1508 I-0.125 J0 F180
X8.4008 I0.125 J0
G1 Z-0.6 F30
G3 X8.1508 I-0.125 J0 F180
X8.4008 I0.125 J0
G1 Z-0.64 F30
G3 X8.1508 I-0.125 J0 F180
X8.4008 I0.125 J0
G1 Z-0.68 F30
G3 X8.1508 I-0.125 J0 F180
X8.4008 I0.125 J0
G1 Z-0.72 F30
G3 X8.1508 I-0.125 J0 F180
X8.4008 I0.125 J0
G1 Z-0.76 F30
G3 X8.1508 I-0.125 J0 F180
X8.4008 I0.125 J0
G1 Z-0.8 F30
G3 X8.1508 I-0.125 J0 F180
X8.4008 I0.125 J0
G1 Z-0.84 F30
G3 X8.1508 I-0.125 J0 F180
X8.4008 I0.125 J0
G1 Z-0.88 F30
G3 X8.1508 I-0.125 J0 F180
X8.4008 I0.125 J0
G1 Z-0.92 F30
G3 X8.1508 I-0.125 J0 F180
X8.4008 I0.125 J0
G1 Z-0.96 F30
G3 X8.1508 I-0.125 J0 F180
X8.4008 I0.125 J0
G1 Z-1 F30
G3 X8.1508 I-0.125 J0 F180
X8.4008 I0.125 J0
G1 Z-1.04 F30
G3 X8.1508 I-0.125 J0 F180
X8.4008 I0.125 J0
G1 Z-1.08 F30
G3 X8.1508 I-0.125 J0 F180
X8.4008 I0.125 J0
G1 Z-1.12 F30
G3 X8.1508 I-0.125 J0 F180
X8.4008 I0.125 J0
G1 Z-1.16 F30
G3 X8.1508 I-0.125 J0 F180
X8.4008 I0.125 J0
G1 Z-1.2 F30
G3 X8.1508 I-0.125 J0 F180
X8.4008 I0.125 J0
G0 Z0.6

(2D Contour1)
X9.08 Y0.575
Z0.6
Z0.2
G1 Z0.08 F30
Z-0.04
X7.58 F180
G0 Z0.2
X9.08
G1 Z0.04 F30
Z-0.08
X7.58 F180
G0 Z0.2
X9.08
G1 Z0 F30
Z-0.12
X7.58 F180
G0 Z0.2
X9.08
G1 Z-0.04 F30
Z-0.16
X7.58 F180
G0 Z0.2
X9.08
G1 Z-0.08 F30
Z-0.1969
X7.58 F180
G0 Z0.6
G28 G91 Z0
G90
G28 G91 X0 Y0
G90
M30
%
