%
(Delrin Facing -1")
(T1  D=0.25 CR=0 - ZMIN=-1 - flat end mill)
G90
G17
G20
G28 G91 Z0
G90

(Face1)
T1 M6
S10000 M3
G54
G0 X9.35 Y0.1048
Z0.6
Z0.2
G1 Z-0.015 F30
G18 G3 X9.325 Z-0.04 I-0.025 K0 F60
G1 X9.1875
X0 F180
G17 G2 Y0.3322 I0 J0.1137
G1 X9.1875
G3 Y0.5596 I0 J0.1137
G1 X0
G2 Y0.787 I0 J0.1137
G1 X9.1875
G3 Y1.0144 I0 J0.1137
G1 X0
G2 Y1.2418 I0 J0.1137
G1 X9.1875
G3 Y1.4692 I0 J0.1137
G1 X0
G2 Y1.6966 I0 J0.1137
G1 X9.1875
G3 Y1.9242 I0 J0.1138
G1 X0 Y1.9241
G2 Y2.1515 I0 J0.1137
G1 X9.1875
G3 Y2.3789 I0 J0.1137
G1 X0
G18 G3 X-0.025 Z-0.015 I0 K0.025 F60
G0 Z0.2
X-0.1625 Y0.1048
G1 Z-0.055 F30
G2 X-0.1375 Z-0.08 I0.025 K0 F60
G1 X0
X9.1875 F180
G17 G3 Y0.3322 I0 J0.1137
G1 X0
G2 Y0.5596 I0 J0.1137
G1 X9.1875
G3 Y0.787 I0 J0.1137
G1 X0
G2 Y1.0144 I0 J0.1137
G1 X9.1875
G3 Y1.2418 I0 J0.1137
G1 X0
G2 Y1.4692 I0 J0.1137
G1 X9.1875
G3 Y1.6966 I0 J0.1137
G1 X0
G2 Y1.9242 I0 J0.1138
G1 X9.1875 Y1.9241
G3 Y2.1515 I0 J0.1137
G1 X0
G2 Y2.3789 I0 J0.1137
G1 X9.1875
G18 G2 X9.2125 Z-0.055 I0 K0.025 F60
G0 Z0.2
X9.35 Y0.1048
G1 Z-0.095 F30
G3 X9.325 Z-0.12 I-0.025 K0 F60
G1 X9.1875
X0 F180
G17 G2 Y0.3322 I0 J0.1137
G1 X9.1875
G3 Y0.5596 I0 J0.1137
G1 X0
G2 Y0.787 I0 J0.1137
G1 X9.1875
G3 Y1.0144 I0 J0.1137
G1 X0
G2 Y1.2418 I0 J0.1137
G1 X9.1875
G3 Y1.4692 I0 J0.1137
G1 X0
G2 Y1.6966 I0 J0.1137
G1 X9.1875
G3 Y1.9242 I0 J0.1138
G1 X0 Y1.9241
G2 Y2.1515 I0 J0.1137
G1 X9.1875
G3 Y2.3789 I0 J0.1137
G1 X0
G18 G3 X-0.025 Z-0.095 I0 K0.025 F60
G0 Z0.2
X-0.1625 Y0.1048
G1 Z-0.135 F30
G2 X-0.1375 Z-0.16 I0.025 K0 F60
G1 X0
X9.1875 F180
G17 G3 Y0.3322 I0 J0.1137
G1 X0
G2 Y0.5596 I0 J0.1137
G1 X9.1875
G3 Y0.787 I0 J0.1137
G1 X0
G2 Y1.0144 I0 J0.1137
G1 X9.1875
G3 Y1.2418 I0 J0.1137
G1 X0
G2 Y1.4692 I0 J0.1137
G1 X9.1875
G3 Y1.6966 I0 J0.1137
G1 X0
G2 Y1.9242 I0 J0.1138
G1 X9.1875 Y1.9241
G3 Y2.1515 I0 J0.1137
G1 X0
G2 Y2.3789 I0 J0.1137
G1 X9.1875
G18 G2 X9.2125 Z-0.135 I0 K0.025 F60
G0 Z0.2
X9.35 Y0.1048
G1 Z-0.175 F30
G3 X9.325 Z-0.2 I-0.025 K0 F60
G1 X9.1875
X0 F180
G17 G2 Y0.3322 I0 J0.1137
G1 X9.1875
G3 Y0.5596 I0 J0.1137
G1 X0
G2 Y0.787 I0 J0.1137
G1 X9.1875
G3 Y1.0144 I0 J0.1137
G1 X0
G2 Y1.2418 I0 J0.1137
G1 X9.1875
G3 Y1.4692 I0 J0.1137
G1 X0
G2 Y1.6966 I0 J0.1137
G1 X9.1875
G3 Y1.9242 I0 J0.1138
G1 X0 Y1.9241
G2 Y2.1515 I0 J0.1137
G1 X9.1875
G3 Y2.3789 I0 J0.1137
G1 X0
G18 G3 X-0.025 Z-0.175 I0 K0.025 F60
G0 Z0.2
X-0.1625 Y0.1048
G1 Z-0.215 F30
G2 X-0.1375 Z-0.24 I0.025 K0 F60
G1 X0
X9.1875 F180
G17 G3 Y0.3322 I0 J0.1137
G1 X0
G2 Y0.5596 I0 J0.1137
G1 X9.1875
G3 Y0.787 I0 J0.1137
G1 X0
G2 Y1.0144 I0 J0.1137
G1 X9.1875
G3 Y1.2418 I0 J0.1137
G1 X0
G2 Y1.4692 I0 J0.1137
G1 X9.1875
G3 Y1.6966 I0 J0.1137
G1 X0
G2 Y1.9242 I0 J0.1138
G1 X9.1875 Y1.9241
G3 Y2.1515 I0 J0.1137
G1 X0
G2 Y2.3789 I0 J0.1137
G1 X9.1875
G18 G2 X9.2125 Z-0.215 I0 K0.025 F60
G0 Z0.2
X9.35 Y0.1048
G1 Z-0.255 F30
G3 X9.325 Z-0.28 I-0.025 K0 F60
G1 X9.1875
X0 F180
G17 G2 Y0.3322 I0 J0.1137
G1 X9.1875
G3 Y0.5596 I0 J0.1137
G1 X0
G2 Y0.787 I0 J0.1137
G1 X9.1875
G3 Y1.0144 I0 J0.1137
G1 X0
G2 Y1.2418 I0 J0.1137
G1 X9.1875
G3 Y1.4692 I0 J0.1137
G1 X0
G2 Y1.6966 I0 J0.1137
G1 X9.1875
G3 Y1.9242 I0 J0.1138
G1 X0 Y1.9241
G2 Y2.1515 I0 J0.1137
G1 X9.1875
G3 Y2.3789 I0 J0.1137
G1 X0
G18 G3 X-0.025 Z-0.255 I0 K0.025 F60
G0 Z0.2
X-0.1625 Y0.1048
G1 Z-0.295 F30
G2 X-0.1375 Z-0.32 I0.025 K0 F60
G1 X0
X9.1875 F180
G17 G3 Y0.3322 I0 J0.1137
G1 X0
G2 Y0.5596 I0 J0.1137
G1 X9.1875
G3 Y0.787 I0 J0.1137
G1 X0
G2 Y1.0144 I0 J0.1137
G1 X9.1875
G3 Y1.2418 I0 J0.1137
G1 X0
G2 Y1.4692 I0 J0.1137
G1 X9.1875
G3 Y1.6966 I0 J0.1137
G1 X0
G2 Y1.9242 I0 J0.1138
G1 X9.1875 Y1.9241
G3 Y2.1515 I0 J0.1137
G1 X0
G2 Y2.3789 I0 J0.1137
G1 X9.1875
G18 G2 X9.2125 Z-0.295 I0 K0.025 F60
G0 Z0.2
X9.35 Y0.1048
G1 Z-0.335 F30
G3 X9.325 Z-0.36 I-0.025 K0 F60
G1 X9.1875
X0 F180
G17 G2 Y0.3322 I0 J0.1137
G1 X9.1875
G3 Y0.5596 I0 J0.1137
G1 X0
G2 Y0.787 I0 J0.1137
G1 X9.1875
G3 Y1.0144 I0 J0.1137
G1 X0
G2 Y1.2418 I0 J0.1137
G1 X9.1875
G3 Y1.4692 I0 J0.1137
G1 X0
G2 Y1.6966 I0 J0.1137
G1 X9.1875
G3 Y1.9242 I0 J0.1138
G1 X0 Y1.9241
G2 Y2.1515 I0 J0.1137
G1 X9.1875
G3 Y2.3789 I0 J0.1137
G1 X0
G18 G3 X-0.025 Z-0.335 I0 K0.025 F60
G0 Z0.2
X-0.1625 Y0.1048
G1 Z-0.375 F30
G2 X-0.1375 Z-0.4 I0.025 K0 F60
G1 X0
X9.1875 F180
G17 G3 Y0.3322 I0 J0.1137
G1 X0
G2 Y0.5596 I0 J0.1137
G1 X9.1875
G3 Y0.787 I0 J0.1137
G1 X0
G2 Y1.0144 I0 J0.1137
G1 X9.1875
G3 Y1.2418 I0 J0.1137
G1 X0
G2 Y1.4692 I0 J0.1137
G1 X9.1875
G3 Y1.6966 I0 J0.1137
G1 X0
G2 Y1.9242 I0 J0.1138
G1 X9.1875 Y1.9241
G3 Y2.1515 I0 J0.1137
G1 X0
G2 Y2.3789 I0 J0.1137
G1 X9.1875
G18 G2 X9.2125 Z-0.375 I0 K0.025 F60
G0 Z0.2
X9.35 Y0.1048
G1 Z-0.415 F30
G3 X9.325 Z-0.44 I-0.025 K0 F60
G1 X9.1875
X0 F180
G17 G2 Y0.3322 I0 J0.1137
G1 X9.1875
G3 Y0.5596 I0 J0.1137
G1 X0
G2 Y0.787 I0 J0.1137
G1 X9.1875
G3 Y1.0144 I0 J0.1137
G1 X0
G2 Y1.2418 I0 J0.1137
G1 X9.1875
G3 Y1.4692 I0 J0.1137
G1 X0
G2 Y1.6966 I0 J0.1137
G1 X9.1875
G3 Y1.9242 I0 J0.1138
G1 X0 Y1.9241
G2 Y2.1515 I0 J0.1137
G1 X9.1875
G3 Y2.3789 I0 J0.1137
G1 X0
G18 G3 X-0.025 Z-0.415 I0 K0.025 F60
G0 Z0.2
X-0.1625 Y0.1048
G1 Z-0.455 F30
G2 X-0.1375 Z-0.48 I0.025 K0 F60
G1 X0
X9.1875 F180
G17 G3 Y0.3322 I0 J0.1137
G1 X0
G2 Y0.5596 I0 J0.1137
G1 X9.1875
G3 Y0.787 I0 J0.1137
G1 X0
G2 Y1.0144 I0 J0.1137
G1 X9.1875
G3 Y1.2418 I0 J0.1137
G1 X0
G2 Y1.4692 I0 J0.1137
G1 X9.1875
G3 Y1.6966 I0 J0.1137
G1 X0
G2 Y1.9242 I0 J0.1138
G1 X9.1875 Y1.9241
G3 Y2.1515 I0 J0.1137
G1 X0
G2 Y2.3789 I0 J0.1137
G1 X9.1875
G18 G2 X9.2125 Z-0.455 I0 K0.025 F60
G0 Z0.2
X9.35 Y0.1048
G1 Z-0.495 F30
G3 X9.325 Z-0.52 I-0.025 K0 F60
G1 X9.1875
X0 F180
G17 G2 Y0.3322 I0 J0.1137
G1 X9.1875
G3 Y0.5596 I0 J0.1137
G1 X0
G2 Y0.787 I0 J0.1137
G1 X9.1875
G3 Y1.0144 I0 J0.1137
G1 X0
G2 Y1.2418 I0 J0.1137
G1 X9.1875
G3 Y1.4692 I0 J0.1137
G1 X0
G2 Y1.6966 I0 J0.1137
G1 X9.1875
G3 Y1.9242 I0 J0.1138
G1 X0 Y1.9241
G2 Y2.1515 I0 J0.1137
G1 X9.1875
G3 Y2.3789 I0 J0.1137
G1 X0
G18 G3 X-0.025 Z-0.495 I0 K0.025 F60
G0 Z0.2
X-0.1625 Y0.1048
G1 Z-0.535 F30
G2 X-0.1375 Z-0.56 I0.025 K0 F60
G1 X0
X9.1875 F180
G17 G3 Y0.3322 I0 J0.1137
G1 X0
G2 Y0.5596 I0 J0.1137
G1 X9.1875
G3 Y0.787 I0 J0.1137
G1 X0
G2 Y1.0144 I0 J0.1137
G1 X9.1875
G3 Y1.2418 I0 J0.1137
G1 X0
G2 Y1.4692 I0 J0.1137
G1 X9.1875
G3 Y1.6966 I0 J0.1137
G1 X0
G2 Y1.9242 I0 J0.1138
G1 X9.1875 Y1.9241
G3 Y2.1515 I0 J0.1137
G1 X0
G2 Y2.3789 I0 J0.1137
G1 X9.1875
G18 G2 X9.2125 Z-0.535 I0 K0.025 F60
G0 Z0.2
X9.35 Y0.1048
G1 Z-0.575 F30
G3 X9.325 Z-0.6 I-0.025 K0 F60
G1 X9.1875
X0 F180
G17 G2 Y0.3322 I0 J0.1137
G1 X9.1875
G3 Y0.5596 I0 J0.1137
G1 X0
G2 Y0.787 I0 J0.1137
G1 X9.1875
G3 Y1.0144 I0 J0.1137
G1 X0
G2 Y1.2418 I0 J0.1137
G1 X9.1875
G3 Y1.4692 I0 J0.1137
G1 X0
G2 Y1.6966 I0 J0.1137
G1 X9.1875
G3 Y1.9242 I0 J0.1138
G1 X0 Y1.9241
G2 Y2.1515 I0 J0.1137
G1 X9.1875
G3 Y2.3789 I0 J0.1137
G1 X0
G18 G3 X-0.025 Z-0.575 I0 K0.025 F60
G0 Z0.2
X-0.1625 Y0.1048
G1 Z-0.615 F30
G2 X-0.1375 Z-0.64 I0.025 K0 F60
G1 X0
X9.1875 F180
G17 G3 Y0.3322 I0 J0.1137
G1 X0
G2 Y0.5596 I0 J0.1137
G1 X9.1875
G3 Y0.787 I0 J0.1137
G1 X0
G2 Y1.0144 I0 J0.1137
G1 X9.1875
G3 Y1.2418 I0 J0.1137
G1 X0
G2 Y1.4692 I0 J0.1137
G1 X9.1875
G3 Y1.6966 I0 J0.1137
G1 X0
G2 Y1.9242 I0 J0.1138
G1 X9.1875 Y1.9241
G3 Y2.1515 I0 J0.1137
G1 X0
G2 Y2.3789 I0 J0.1137
G1 X9.1875
G18 G2 X9.2125 Z-0.615 I0 K0.025 F60
G0 Z0.2
X9.35 Y0.1048
G1 Z-0.655 F30
G3 X9.325 Z-0.68 I-0.025 K0 F60
G1 X9.1875
X0 F180
G17 G2 Y0.3322 I0 J0.1137
G1 X9.1875
G3 Y0.5596 I0 J0.1137
G1 X0
G2 Y0.787 I0 J0.1137
G1 X9.1875
G3 Y1.0144 I0 J0.1137
G1 X0
G2 Y1.2418 I0 J0.1137
G1 X9.1875
G3 Y1.4692 I0 J0.1137
G1 X0
G2 Y1.6966 I0 J0.1137
G1 X9.1875
G3 Y1.9242 I0 J0.1138
G1 X0 Y1.9241
G2 Y2.1515 I0 J0.1137
G1 X9.1875
G3 Y2.3789 I0 J0.1137
G1 X0
G18 G3 X-0.025 Z-0.655 I0 K0.025 F60
G0 Z0.2
X-0.1625 Y0.1048
G1 Z-0.695 F30
G2 X-0.1375 Z-0.72 I0.025 K0 F60
G1 X0
X9.1875 F180
G17 G3 Y0.3322 I0 J0.1137
G1 X0
G2 Y0.5596 I0 J0.1137
G1 X9.1875
G3 Y0.787 I0 J0.1137
G1 X0
G2 Y1.0144 I0 J0.1137
G1 X9.1875
G3 Y1.2418 I0 J0.1137
G1 X0
G2 Y1.4692 I0 J0.1137
G1 X9.1875
G3 Y1.6966 I0 J0.1137
G1 X0
G2 Y1.9242 I0 J0.1138
G1 X9.1875 Y1.9241
G3 Y2.1515 I0 J0.1137
G1 X0
G2 Y2.3789 I0 J0.1137
G1 X9.1875
G18 G2 X9.2125 Z-0.695 I0 K0.025 F60
G0 Z0.2
X9.35 Y0.1048
G1 Z-0.735 F30
G3 X9.325 Z-0.76 I-0.025 K0 F60
G1 X9.1875
X0 F180
G17 G2 Y0.3322 I0 J0.1137
G1 X9.1875
G3 Y0.5596 I0 J0.1137
G1 X0
G2 Y0.787 I0 J0.1137
G1 X9.1875
G3 Y1.0144 I0 J0.1137
G1 X0
G2 Y1.2418 I0 J0.1137
G1 X9.1875
G3 Y1.4692 I0 J0.1137
G1 X0
G2 Y1.6966 I0 J0.1137
G1 X9.1875
G3 Y1.9242 I0 J0.1138
G1 X0 Y1.9241
G2 Y2.1515 I0 J0.1137
G1 X9.1875
G3 Y2.3789 I0 J0.1137
G1 X0
G18 G3 X-0.025 Z-0.735 I0 K0.025 F60
G0 Z0.2
X-0.1625 Y0.1048
G1 Z-0.775 F30
G2 X-0.1375 Z-0.8 I0.025 K0 F60
G1 X0
X9.1875 F180
G17 G3 Y0.3322 I0 J0.1137
G1 X0
G2 Y0.5596 I0 J0.1137
G1 X9.1875
G3 Y0.787 I0 J0.1137
G1 X0
G2 Y1.0144 I0 J0.1137
G1 X9.1875
G3 Y1.2418 I0 J0.1137
G1 X0
G2 Y1.4692 I0 J0.1137
G1 X9.1875
G3 Y1.6966 I0 J0.1137
G1 X0
G2 Y1.9242 I0 J0.1138
G1 X9.1875 Y1.9241
G3 Y2.1515 I0 J0.1137
G1 X0
G2 Y2.3789 I0 J0.1137
G1 X9.1875
G18 G2 X9.2125 Z-0.775 I0 K0.025 F60
G0 Z0.2
X9.35 Y0.1048
G1 Z-0.815 F30
G3 X9.325 Z-0.84 I-0.025 K0 F60
G1 X9.1875
X0 F180
G17 G2 Y0.3322 I0 J0.1137
G1 X9.1875
G3 Y0.5596 I0 J0.1137
G1 X0
G2 Y0.787 I0 J0.1137
G1 X9.1875
G3 Y1.0144 I0 J0.1137
G1 X0
G2 Y1.2418 I0 J0.1137
G1 X9.1875
G3 Y1.4692 I0 J0.1137
G1 X0
G2 Y1.6966 I0 J0.1137
G1 X9.1875
G3 Y1.9242 I0 J0.1138
G1 X0 Y1.9241
G2 Y2.1515 I0 J0.1137
G1 X9.1875
G3 Y2.3789 I0 J0.1137
G1 X0
G18 G3 X-0.025 Z-0.815 I0 K0.025 F60
G0 Z0.2
X-0.1625 Y0.1048
G1 Z-0.855 F30
G2 X-0.1375 Z-0.88 I0.025 K0 F60
G1 X0
X9.1875 F180
G17 G3 Y0.3322 I0 J0.1137
G1 X0
G2 Y0.5596 I0 J0.1137
G1 X9.1875
G3 Y0.787 I0 J0.1137
G1 X0
G2 Y1.0144 I0 J0.1137
G1 X9.1875
G3 Y1.2418 I0 J0.1137
G1 X0
G2 Y1.4692 I0 J0.1137
G1 X9.1875
G3 Y1.6966 I0 J0.1137
G1 X0
G2 Y1.9242 I0 J0.1138
G1 X9.1875 Y1.9241
G3 Y2.1515 I0 J0.1137
G1 X0
G2 Y2.3789 I0 J0.1137
G1 X9.1875
G18 G2 X9.2125 Z-0.855 I0 K0.025 F60
G0 Z0.2
X9.35 Y0.1048
G1 Z-0.895 F30
G3 X9.325 Z-0.92 I-0.025 K0 F60
G1 X9.1875
X0 F180
G17 G2 Y0.3322 I0 J0.1137
G1 X9.1875
G3 Y0.5596 I0 J0.1137
G1 X0
G2 Y0.787 I0 J0.1137
G1 X9.1875
G3 Y1.0144 I0 J0.1137
G1 X0
G2 Y1.2418 I0 J0.1137
G1 X9.1875
G3 Y1.4692 I0 J0.1137
G1 X0
G2 Y1.6966 I0 J0.1137
G1 X9.1875
G3 Y1.9242 I0 J0.1138
G1 X0 Y1.9241
G2 Y2.1515 I0 J0.1137
G1 X9.1875
G3 Y2.3789 I0 J0.1137
G1 X0
G18 G3 X-0.025 Z-0.895 I0 K0.025 F60
G0 Z0.2
X-0.1625 Y0.1048
G1 Z-0.935 F30
G2 X-0.1375 Z-0.96 I0.025 K0 F60
G1 X0
X9.1875 F180
G17 G3 Y0.3322 I0 J0.1137
G1 X0
G2 Y0.5596 I0 J0.1137
G1 X9.1875
G3 Y0.787 I0 J0.1137
G1 X0
G2 Y1.0144 I0 J0.1137
G1 X9.1875
G3 Y1.2418 I0 J0.1137
G1 X0
G2 Y1.4692 I0 J0.1137
G1 X9.1875
G3 Y1.6966 I0 J0.1137
G1 X0
G2 Y1.9242 I0 J0.1138
G1 X9.1875 Y1.9241
G3 Y2.1515 I0 J0.1137
G1 X0
G2 Y2.3789 I0 J0.1137
G1 X9.1875
G18 G2 X9.2125 Z-0.935 I0 K0.025 F60
G0 Z0.2
X9.35 Y0.1048
G1 Z-0.975 F30
G3 X9.325 Z-1 I-0.025 K0 F60
G1 X9.1875
X0 F180
G17 G2 Y0.3322 I0 J0.1137
G1 X9.1875
G3 Y0.5596 I0 J0.1137
G1 X0
G2 Y0.787 I0 J0.1137
G1 X9.1875
G3 Y1.0144 I0 J0.1137
G1 X0
G2 Y1.2418 I0 J0.1137
G1 X9.1875
G3 Y1.4692 I0 J0.1137
G1 X0
G2 Y1.6966 I0 J0.1137
G1 X9.1875
G3 Y1.9242 I0 J0.1138
G1 X0 Y1.9241
G2 Y2.1515 I0 J0.1137
G1 X9.1875
G3 Y2.3789 I0 J0.1137
G1 X0
G18 G3 X-0.025 Z-0.975 I0 K0.025 F60
G0 Z0.6
G17
G28 G91 Z0
G90
G28 G91 X0 Y0
G90
M30
%
