%
(DelrinFrontParts)
(T1  D=0.25 CR=0 - ZMIN=-1.625 - flat end mill)
(T20  D=0.25 CR=0 TAPER=90deg - ZMIN=-0.949 - countersink)
G90
G17
G20
G28 G91 Z0
G90

(Face8)
T1 M6
S10000 M3
G54
G0 X1.9848 Y3.4296
Z0.6
Z0.2
G1 Z-0.045 F30
X1.8473 F60
X-0.6527 F120
G2 Y3.6598 I0 J0.1151
G1 X1.8473
G3 Y3.89 I0 J0.1151
G1 X-0.6527
G2 Y4.12 I0 J0.115
G1 X1.8473 Y4.1201
G3 Y4.3503 I0 J0.1151
G1 X-0.6527
G2 Y4.5803 I0 J0.115
G1 X1.8473 Y4.5804
G3 Y4.8106 I0 J0.1151
G1 X-0.6527
G2 Y5.0408 I0 J0.1151
G1 X1.8473 Y5.0407
G3 Y5.2709 I0 J0.1151
G1 X-0.6527
G2 Y5.5011 I0 J0.1151
G1 X1.8473 Y5.501
G3 Y5.7312 I0 J0.1151
G1 X-0.6527
G2 Y5.9614 I0 J0.1151
G1 X1.8473 Y5.9613
G3 Y6.1915 I0 J0.1151
G1 X-0.6527
G2 Y6.4217 I0 J0.1151
G1 X1.8473
G3 Y6.6517 I0 J0.115
G1 X-0.6527 Y6.6518
G2 Y6.882 I0 J0.1151
G1 X1.8473
G3 Y7.112 I0 J0.115
G1 X-0.6527 Y7.1121
G2 Y7.3423 I0 J0.1151
G1 X1.8473
G3 Y7.5725 I0 J0.1151
G1 X-0.6527 Y7.5724
G2 Y7.8026 I0 J0.1151
G1 X1.8473
G3 Y8.0328 I0 J0.1151
G1 X-0.6527 Y8.0327
G2 Y8.2629 I0 J0.1151
G1 X1.8473
G3 Y8.4931 I0 J0.1151
G1 X-0.6527 Y8.493
G2 Y8.7232 I0 J0.1151
G1 X1.8473
G3 Y8.9534 I0 J0.1151
G1 X-0.6527
G0 Z0.2
X-0.7902 Y3.4296
G1 Z-0.105 F30
X-0.6527 F60
X1.8473 F120
G3 Y3.6598 I0 J0.1151
G1 X-0.6527
G2 Y3.89 I0 J0.1151
G1 X1.8473
G3 Y4.12 I0 J0.115
G1 X-0.6527 Y4.1201
G2 Y4.3503 I0 J0.1151
G1 X1.8473
G3 Y4.5803 I0 J0.115
G1 X-0.6527 Y4.5804
G2 Y4.8106 I0 J0.1151
G1 X1.8473
G3 Y5.0408 I0 J0.1151
G1 X-0.6527 Y5.0407
G2 Y5.2709 I0 J0.1151
G1 X1.8473
G3 Y5.5011 I0 J0.1151
G1 X-0.6527 Y5.501
G2 Y5.7312 I0 J0.1151
G1 X1.8473
G3 Y5.9614 I0 J0.1151
G1 X-0.6527 Y5.9613
G2 Y6.1915 I0 J0.1151
G1 X1.8473
G3 Y6.4217 I0 J0.1151
G1 X-0.6527
G2 Y6.6517 I0 J0.115
G1 X1.8473 Y6.6518
G3 Y6.882 I0 J0.1151
G1 X-0.6527
G2 Y7.112 I0 J0.115
G1 X1.8473 Y7.1121
G3 Y7.3423 I0 J0.1151
G1 X-0.6527
G2 Y7.5725 I0 J0.1151
G1 X1.8473 Y7.5724
G3 Y7.8026 I0 J0.1151
G1 X-0.6527
G2 Y8.0328 I0 J0.1151
G1 X1.8473 Y8.0327
G3 Y8.2629 I0 J0.1151
G1 X-0.6527
G2 Y8.4931 I0 J0.1151
G1 X1.8473 Y8.493
G3 Y8.7232 I0 J0.1151
G1 X-0.6527
G2 Y8.9534 I0 J0.1151
G1 X1.8473
G0 Z0.2
X1.9848 Y3.4296
G1 Z-0.165 F30
X1.8473 F60
X-0.6527 F120
G2 Y3.6598 I0 J0.1151
G1 X1.8473
G3 Y3.89 I0 J0.1151
G1 X-0.6527
G2 Y4.12 I0 J0.115
G1 X1.8473 Y4.1201
G3 Y4.3503 I0 J0.1151
G1 X-0.6527
G2 Y4.5803 I0 J0.115
G1 X1.8473 Y4.5804
G3 Y4.8106 I0 J0.1151
G1 X-0.6527
G2 Y5.0408 I0 J0.1151
G1 X1.8473 Y5.0407
G3 Y5.2709 I0 J0.1151
G1 X-0.6527
G2 Y5.5011 I0 J0.1151
G1 X1.8473 Y5.501
G3 Y5.7312 I0 J0.1151
G1 X-0.6527
G2 Y5.9614 I0 J0.1151
G1 X1.8473 Y5.9613
G3 Y6.1915 I0 J0.1151
G1 X-0.6527
G2 Y6.4217 I0 J0.1151
G1 X1.8473
G3 Y6.6517 I0 J0.115
G1 X-0.6527 Y6.6518
G2 Y6.882 I0 J0.1151
G1 X1.8473
G3 Y7.112 I0 J0.115
G1 X-0.6527 Y7.1121
G2 Y7.3423 I0 J0.1151
G1 X1.8473
G3 Y7.5725 I0 J0.1151
G1 X-0.6527 Y7.5724
G2 Y7.8026 I0 J0.1151
G1 X1.8473
G3 Y8.0328 I0 J0.1151
G1 X-0.6527 Y8.0327
G2 Y8.2629 I0 J0.1151
G1 X1.8473
G3 Y8.4931 I0 J0.1151
G1 X-0.6527 Y8.493
G2 Y8.7232 I0 J0.1151
G1 X1.8473
G3 Y8.9534 I0 J0.1151
G1 X-0.6527
G0 Z0.2
X-0.7902 Y3.4296
G1 Z-0.225 F30
X-0.6527 F60
X1.8473 F120
G3 Y3.6598 I0 J0.1151
G1 X-0.6527
G2 Y3.89 I0 J0.1151
G1 X1.8473
G3 Y4.12 I0 J0.115
G1 X-0.6527 Y4.1201
G2 Y4.3503 I0 J0.1151
G1 X1.8473
G3 Y4.5803 I0 J0.115
G1 X-0.6527 Y4.5804
G2 Y4.8106 I0 J0.1151
G1 X1.8473
G3 Y5.0408 I0 J0.1151
G1 X-0.6527 Y5.0407
G2 Y5.2709 I0 J0.1151
G1 X1.8473
G3 Y5.5011 I0 J0.1151
G1 X-0.6527 Y5.501
G2 Y5.7312 I0 J0.1151
G1 X1.8473
G3 Y5.9614 I0 J0.1151
G1 X-0.6527 Y5.9613
G2 Y6.1915 I0 J0.1151
G1 X1.8473
G3 Y6.4217 I0 J0.1151
G1 X-0.6527
G2 Y6.6517 I0 J0.115
G1 X1.8473 Y6.6518
G3 Y6.882 I0 J0.1151
G1 X-0.6527
G2 Y7.112 I0 J0.115
G1 X1.8473 Y7.1121
G3 Y7.3423 I0 J0.1151
G1 X-0.6527
G2 Y7.5725 I0 J0.1151
G1 X1.8473 Y7.5724
G3 Y7.8026 I0 J0.1151
G1 X-0.6527
G2 Y8.0328 I0 J0.1151
G1 X1.8473 Y8.0327
G3 Y8.2629 I0 J0.1151
G1 X-0.6527
G2 Y8.4931 I0 J0.1151
G1 X1.8473 Y8.493
G3 Y8.7232 I0 J0.1151
G1 X-0.6527
G2 Y8.9534 I0 J0.1151
G1 X1.8473
G0 Z0.2
X1.9848 Y3.4296
G1 Z-0.285 F30
X1.8473 F60
X-0.6527 F120
G2 Y3.6598 I0 J0.1151
G1 X1.8473
G3 Y3.89 I0 J0.1151
G1 X-0.6527
G2 Y4.12 I0 J0.115
G1 X1.8473 Y4.1201
G3 Y4.3503 I0 J0.1151
G1 X-0.6527
G2 Y4.5803 I0 J0.115
G1 X1.8473 Y4.5804
G3 Y4.8106 I0 J0.1151
G1 X-0.6527
G2 Y5.0408 I0 J0.1151
G1 X1.8473 Y5.0407
G3 Y5.2709 I0 J0.1151
G1 X-0.6527
G2 Y5.5011 I0 J0.1151
G1 X1.8473 Y5.501
G3 Y5.7312 I0 J0.1151
G1 X-0.6527
G2 Y5.9614 I0 J0.1151
G1 X1.8473 Y5.9613
G3 Y6.1915 I0 J0.1151
G1 X-0.6527
G2 Y6.4217 I0 J0.1151
G1 X1.8473
G3 Y6.6517 I0 J0.115
G1 X-0.6527 Y6.6518
G2 Y6.882 I0 J0.1151
G1 X1.8473
G3 Y7.112 I0 J0.115
G1 X-0.6527 Y7.1121
G2 Y7.3423 I0 J0.1151
G1 X1.8473
G3 Y7.5725 I0 J0.1151
G1 X-0.6527 Y7.5724
G2 Y7.8026 I0 J0.1151
G1 X1.8473
G3 Y8.0328 I0 J0.1151
G1 X-0.6527 Y8.0327
G2 Y8.2629 I0 J0.1151
G1 X1.8473
G3 Y8.4931 I0 J0.1151
G1 X-0.6527 Y8.493
G2 Y8.7232 I0 J0.1151
G1 X1.8473
G3 Y8.9534 I0 J0.1151
G1 X-0.6527
G0 Z0.2
X-0.7902 Y3.4296
G1 Z-0.345 F30
X-0.6527 F60
X1.8473 F120
G3 Y3.6598 I0 J0.1151
G1 X-0.6527
G2 Y3.89 I0 J0.1151
G1 X1.8473
G3 Y4.12 I0 J0.115
G1 X-0.6527 Y4.1201
G2 Y4.3503 I0 J0.1151
G1 X1.8473
G3 Y4.5803 I0 J0.115
G1 X-0.6527 Y4.5804
G2 Y4.8106 I0 J0.1151
G1 X1.8473
G3 Y5.0408 I0 J0.1151
G1 X-0.6527 Y5.0407
G2 Y5.2709 I0 J0.1151
G1 X1.8473
G3 Y5.5011 I0 J0.1151
G1 X-0.6527 Y5.501
G2 Y5.7312 I0 J0.1151
G1 X1.8473
G3 Y5.9614 I0 J0.1151
G1 X-0.6527 Y5.9613
G2 Y6.1915 I0 J0.1151
G1 X1.8473
G3 Y6.4217 I0 J0.1151
G1 X-0.6527
G2 Y6.6517 I0 J0.115
G1 X1.8473 Y6.6518
G3 Y6.882 I0 J0.1151
G1 X-0.6527
G2 Y7.112 I0 J0.115
G1 X1.8473 Y7.1121
G3 Y7.3423 I0 J0.1151
G1 X-0.6527
G2 Y7.5725 I0 J0.1151
G1 X1.8473 Y7.5724
G3 Y7.8026 I0 J0.1151
G1 X-0.6527
G2 Y8.0328 I0 J0.1151
G1 X1.8473 Y8.0327
G3 Y8.2629 I0 J0.1151
G1 X-0.6527
G2 Y8.4931 I0 J0.1151
G1 X1.8473 Y8.493
G3 Y8.7232 I0 J0.1151
G1 X-0.6527
G2 Y8.9534 I0 J0.1151
G1 X1.8473
G0 Z0.2
X1.9848 Y3.4296
G1 Z-0.405 F30
X1.8473 F60
X-0.6527 F120
G2 Y3.6598 I0 J0.1151
G1 X1.8473
G3 Y3.89 I0 J0.1151
G1 X-0.6527
G2 Y4.12 I0 J0.115
G1 X1.8473 Y4.1201
G3 Y4.3503 I0 J0.1151
G1 X-0.6527
G2 Y4.5803 I0 J0.115
G1 X1.8473 Y4.5804
G3 Y4.8106 I0 J0.1151
G1 X-0.6527
G2 Y5.0408 I0 J0.1151
G1 X1.8473 Y5.0407
G3 Y5.2709 I0 J0.1151
G1 X-0.6527
G2 Y5.5011 I0 J0.1151
G1 X1.8473 Y5.501
G3 Y5.7312 I0 J0.1151
G1 X-0.6527
G2 Y5.9614 I0 J0.1151
G1 X1.8473 Y5.9613
G3 Y6.1915 I0 J0.1151
G1 X-0.6527
G2 Y6.4217 I0 J0.1151
G1 X1.8473
G3 Y6.6517 I0 J0.115
G1 X-0.6527 Y6.6518
G2 Y6.882 I0 J0.1151
G1 X1.8473
G3 Y7.112 I0 J0.115
G1 X-0.6527 Y7.1121
G2 Y7.3423 I0 J0.1151
G1 X1.8473
G3 Y7.5725 I0 J0.1151
G1 X-0.6527 Y7.5724
G2 Y7.8026 I0 J0.1151
G1 X1.8473
G3 Y8.0328 I0 J0.1151
G1 X-0.6527 Y8.0327
G2 Y8.2629 I0 J0.1151
G1 X1.8473
G3 Y8.4931 I0 J0.1151
G1 X-0.6527 Y8.493
G2 Y8.7232 I0 J0.1151
G1 X1.8473
G3 Y8.9534 I0 J0.1151
G1 X-0.6527
G0 Z0.2
X-0.7902 Y3.4296
G1 Z-0.465 F30
X-0.6527 F60
X1.8473 F120
G3 Y3.6598 I0 J0.1151
G1 X-0.6527
G2 Y3.89 I0 J0.1151
G1 X1.8473
G3 Y4.12 I0 J0.115
G1 X-0.6527 Y4.1201
G2 Y4.3503 I0 J0.1151
G1 X1.8473
G3 Y4.5803 I0 J0.115
G1 X-0.6527 Y4.5804
G2 Y4.8106 I0 J0.1151
G1 X1.8473
G3 Y5.0408 I0 J0.1151
G1 X-0.6527 Y5.0407
G2 Y5.2709 I0 J0.1151
G1 X1.8473
G3 Y5.5011 I0 J0.1151
G1 X-0.6527 Y5.501
G2 Y5.7312 I0 J0.1151
G1 X1.8473
G3 Y5.9614 I0 J0.1151
G1 X-0.6527 Y5.9613
G2 Y6.1915 I0 J0.1151
G1 X1.8473
G3 Y6.4217 I0 J0.1151
G1 X-0.6527
G2 Y6.6517 I0 J0.115
G1 X1.8473 Y6.6518
G3 Y6.882 I0 J0.1151
G1 X-0.6527
G2 Y7.112 I0 J0.115
G1 X1.8473 Y7.1121
G3 Y7.3423 I0 J0.1151
G1 X-0.6527
G2 Y7.5725 I0 J0.1151
G1 X1.8473 Y7.5724
G3 Y7.8026 I0 J0.1151
G1 X-0.6527
G2 Y8.0328 I0 J0.1151
G1 X1.8473 Y8.0327
G3 Y8.2629 I0 J0.1151
G1 X-0.6527
G2 Y8.4931 I0 J0.1151
G1 X1.8473 Y8.493
G3 Y8.7232 I0 J0.1151
G1 X-0.6527
G2 Y8.9534 I0 J0.1151
G1 X1.8473
G0 Z0.2
X1.9848 Y3.4296
G1 Z-0.525 F30
X1.8473 F60
X-0.6527 F120
G2 Y3.6598 I0 J0.1151
G1 X1.8473
G3 Y3.89 I0 J0.1151
G1 X-0.6527
G2 Y4.12 I0 J0.115
G1 X1.8473 Y4.1201
G3 Y4.3503 I0 J0.1151
G1 X-0.6527
G2 Y4.5803 I0 J0.115
G1 X1.8473 Y4.5804
G3 Y4.8106 I0 J0.1151
G1 X-0.6527
G2 Y5.0408 I0 J0.1151
G1 X1.8473 Y5.0407
G3 Y5.2709 I0 J0.1151
G1 X-0.6527
G2 Y5.5011 I0 J0.1151
G1 X1.8473 Y5.501
G3 Y5.7312 I0 J0.1151
G1 X-0.6527
G2 Y5.9614 I0 J0.1151
G1 X1.8473 Y5.9613
G3 Y6.1915 I0 J0.1151
G1 X-0.6527
G2 Y6.4217 I0 J0.1151
G1 X1.8473
G3 Y6.6517 I0 J0.115
G1 X-0.6527 Y6.6518
G2 Y6.882 I0 J0.1151
G1 X1.8473
G3 Y7.112 I0 J0.115
G1 X-0.6527 Y7.1121
G2 Y7.3423 I0 J0.1151
G1 X1.8473
G3 Y7.5725 I0 J0.1151
G1 X-0.6527 Y7.5724
G2 Y7.8026 I0 J0.1151
G1 X1.8473
G3 Y8.0328 I0 J0.1151
G1 X-0.6527 Y8.0327
G2 Y8.2629 I0 J0.1151
G1 X1.8473
G3 Y8.4931 I0 J0.1151
G1 X-0.6527 Y8.493
G2 Y8.7232 I0 J0.1151
G1 X1.8473
G3 Y8.9534 I0 J0.1151
G1 X-0.6527
G0 Z0.2
X-0.7902 Y3.4296
G1 Z-0.585 F30
X-0.6527 F60
X1.8473 F120
G3 Y3.6598 I0 J0.1151
G1 X-0.6527
G2 Y3.89 I0 J0.1151
G1 X1.8473
G3 Y4.12 I0 J0.115
G1 X-0.6527 Y4.1201
G2 Y4.3503 I0 J0.1151
G1 X1.8473
G3 Y4.5803 I0 J0.115
G1 X-0.6527 Y4.5804
G2 Y4.8106 I0 J0.1151
G1 X1.8473
G3 Y5.0408 I0 J0.1151
G1 X-0.6527 Y5.0407
G2 Y5.2709 I0 J0.1151
G1 X1.8473
G3 Y5.5011 I0 J0.1151
G1 X-0.6527 Y5.501
G2 Y5.7312 I0 J0.1151
G1 X1.8473
G3 Y5.9614 I0 J0.1151
G1 X-0.6527 Y5.9613
G2 Y6.1915 I0 J0.1151
G1 X1.8473
G3 Y6.4217 I0 J0.1151
G1 X-0.6527
G2 Y6.6517 I0 J0.115
G1 X1.8473 Y6.6518
G3 Y6.882 I0 J0.1151
G1 X-0.6527
G2 Y7.112 I0 J0.115
G1 X1.8473 Y7.1121
G3 Y7.3423 I0 J0.1151
G1 X-0.6527
G2 Y7.5725 I0 J0.1151
G1 X1.8473 Y7.5724
G3 Y7.8026 I0 J0.1151
G1 X-0.6527
G2 Y8.0328 I0 J0.1151
G1 X1.8473 Y8.0327
G3 Y8.2629 I0 J0.1151
G1 X-0.6527
G2 Y8.4931 I0 J0.1151
G1 X1.8473 Y8.493
G3 Y8.7232 I0 J0.1151
G1 X-0.6527
G2 Y8.9534 I0 J0.1151
G1 X1.8473
G0 Z0.2
X1.9848 Y3.4296
G1 Z-0.645 F30
X1.8473 F60
X-0.6527 F120
G2 Y3.6598 I0 J0.1151
G1 X1.8473
G3 Y3.89 I0 J0.1151
G1 X-0.6527
G2 Y4.12 I0 J0.115
G1 X1.8473 Y4.1201
G3 Y4.3503 I0 J0.1151
G1 X-0.6527
G2 Y4.5803 I0 J0.115
G1 X1.8473 Y4.5804
G3 Y4.8106 I0 J0.1151
G1 X-0.6527
G2 Y5.0408 I0 J0.1151
G1 X1.8473 Y5.0407
G3 Y5.2709 I0 J0.1151
G1 X-0.6527
G2 Y5.5011 I0 J0.1151
G1 X1.8473 Y5.501
G3 Y5.7312 I0 J0.1151
G1 X-0.6527
G2 Y5.9614 I0 J0.1151
G1 X1.8473 Y5.9613
G3 Y6.1915 I0 J0.1151
G1 X-0.6527
G2 Y6.4217 I0 J0.1151
G1 X1.8473
G3 Y6.6517 I0 J0.115
G1 X-0.6527 Y6.6518
G2 Y6.882 I0 J0.1151
G1 X1.8473
G3 Y7.112 I0 J0.115
G1 X-0.6527 Y7.1121
G2 Y7.3423 I0 J0.1151
G1 X1.8473
G3 Y7.5725 I0 J0.1151
G1 X-0.6527 Y7.5724
G2 Y7.8026 I0 J0.1151
G1 X1.8473
G3 Y8.0328 I0 J0.1151
G1 X-0.6527 Y8.0327
G2 Y8.2629 I0 J0.1151
G1 X1.8473
G3 Y8.4931 I0 J0.1151
G1 X-0.6527 Y8.493
G2 Y8.7232 I0 J0.1151
G1 X1.8473
G3 Y8.9534 I0 J0.1151
G1 X-0.6527
G0 Z0.2
X-0.7902 Y3.4296
G1 Z-0.705 F30
X-0.6527 F60
X1.8473 F120
G3 Y3.6598 I0 J0.1151
G1 X-0.6527
G2 Y3.89 I0 J0.1151
G1 X1.8473
G3 Y4.12 I0 J0.115
G1 X-0.6527 Y4.1201
G2 Y4.3503 I0 J0.1151
G1 X1.8473
G3 Y4.5803 I0 J0.115
G1 X-0.6527 Y4.5804
G2 Y4.8106 I0 J0.1151
G1 X1.8473
G3 Y5.0408 I0 J0.1151
G1 X-0.6527 Y5.0407
G2 Y5.2709 I0 J0.1151
G1 X1.8473
G3 Y5.5011 I0 J0.1151
G1 X-0.6527 Y5.501
G2 Y5.7312 I0 J0.1151
G1 X1.8473
G3 Y5.9614 I0 J0.1151
G1 X-0.6527 Y5.9613
G2 Y6.1915 I0 J0.1151
G1 X1.8473
G3 Y6.4217 I0 J0.1151
G1 X-0.6527
G2 Y6.6517 I0 J0.115
G1 X1.8473 Y6.6518
G3 Y6.882 I0 J0.1151
G1 X-0.6527
G2 Y7.112 I0 J0.115
G1 X1.8473 Y7.1121
G3 Y7.3423 I0 J0.1151
G1 X-0.6527
G2 Y7.5725 I0 J0.1151
G1 X1.8473 Y7.5724
G3 Y7.8026 I0 J0.1151
G1 X-0.6527
G2 Y8.0328 I0 J0.1151
G1 X1.8473 Y8.0327
G3 Y8.2629 I0 J0.1151
G1 X-0.6527
G2 Y8.4931 I0 J0.1151
G1 X1.8473 Y8.493
G3 Y8.7232 I0 J0.1151
G1 X-0.6527
G2 Y8.9534 I0 J0.1151
G1 X1.8473
G0 Z0.2
X1.9848 Y3.4296
G1 Z-0.765 F30
X1.8473 F60
X-0.6527 F120
G2 Y3.6598 I0 J0.1151
G1 X1.8473
G3 Y3.89 I0 J0.1151
G1 X-0.6527
G2 Y4.12 I0 J0.115
G1 X1.8473 Y4.1201
G3 Y4.3503 I0 J0.1151
G1 X-0.6527
G2 Y4.5803 I0 J0.115
G1 X1.8473 Y4.5804
G3 Y4.8106 I0 J0.1151
G1 X-0.6527
G2 Y5.0408 I0 J0.1151
G1 X1.8473 Y5.0407
G3 Y5.2709 I0 J0.1151
G1 X-0.6527
G2 Y5.5011 I0 J0.1151
G1 X1.8473 Y5.501
G3 Y5.7312 I0 J0.1151
G1 X-0.6527
G2 Y5.9614 I0 J0.1151
G1 X1.8473 Y5.9613
G3 Y6.1915 I0 J0.1151
G1 X-0.6527
G2 Y6.4217 I0 J0.1151
G1 X1.8473
G3 Y6.6517 I0 J0.115
G1 X-0.6527 Y6.6518
G2 Y6.882 I0 J0.1151
G1 X1.8473
G3 Y7.112 I0 J0.115
G1 X-0.6527 Y7.1121
G2 Y7.3423 I0 J0.1151
G1 X1.8473
G3 Y7.5725 I0 J0.1151
G1 X-0.6527 Y7.5724
G2 Y7.8026 I0 J0.1151
G1 X1.8473
G3 Y8.0328 I0 J0.1151
G1 X-0.6527 Y8.0327
G2 Y8.2629 I0 J0.1151
G1 X1.8473
G3 Y8.4931 I0 J0.1151
G1 X-0.6527 Y8.493
G2 Y8.7232 I0 J0.1151
G1 X1.8473
G3 Y8.9534 I0 J0.1151
G1 X-0.6527
G0 Z0.2
X-0.7902 Y3.4296
G1 Z-0.825 F30
X-0.6527 F60
X1.8473 F120
G3 Y3.6598 I0 J0.1151
G1 X-0.6527
G2 Y3.89 I0 J0.1151
G1 X1.8473
G3 Y4.12 I0 J0.115
G1 X-0.6527 Y4.1201
G2 Y4.3503 I0 J0.1151
G1 X1.8473
G3 Y4.5803 I0 J0.115
G1 X-0.6527 Y4.5804
G2 Y4.8106 I0 J0.1151
G1 X1.8473
G3 Y5.0408 I0 J0.1151
G1 X-0.6527 Y5.0407
G2 Y5.2709 I0 J0.1151
G1 X1.8473
G3 Y5.5011 I0 J0.1151
G1 X-0.6527 Y5.501
G2 Y5.7312 I0 J0.1151
G1 X1.8473
G3 Y5.9614 I0 J0.1151
G1 X-0.6527 Y5.9613
G2 Y6.1915 I0 J0.1151
G1 X1.8473
G3 Y6.4217 I0 J0.1151
G1 X-0.6527
G2 Y6.6517 I0 J0.115
G1 X1.8473 Y6.6518
G3 Y6.882 I0 J0.1151
G1 X-0.6527
G2 Y7.112 I0 J0.115
G1 X1.8473 Y7.1121
G3 Y7.3423 I0 J0.1151
G1 X-0.6527
G2 Y7.5725 I0 J0.1151
G1 X1.8473 Y7.5724
G3 Y7.8026 I0 J0.1151
G1 X-0.6527
G2 Y8.0328 I0 J0.1151
G1 X1.8473 Y8.0327
G3 Y8.2629 I0 J0.1151
G1 X-0.6527
G2 Y8.4931 I0 J0.1151
G1 X1.8473 Y8.493
G3 Y8.7232 I0 J0.1151
G1 X-0.6527
G2 Y8.9534 I0 J0.1151
G1 X1.8473
G0 Z0.6

(Face5)
X0.8683 Y5.8948
Z0.6
Z-0.625
G1 Z-0.865 F30
X0.7308 F60
X0.4638 F120
G2 Y6.0764 I0 J0.0908
G1 X0.7308
G3 Y6.2582 I0 J0.0909
G1 X0.4638 Y6.2581
G2 Y6.4397 I0 J0.0908
G1 X0.7308 Y6.4398
G0 Z0.2
X0.8683 Y5.8948
Z-0.625
G1 Z-0.925 F30
X0.7308 F60
X0.4638 F120
G2 Y6.0764 I0 J0.0908
G1 X0.7308
G3 Y6.2582 I0 J0.0909
G1 X0.4638 Y6.2581
G2 Y6.4397 I0 J0.0908
G1 X0.7308 Y6.4398
G0 Z0.2
X0.8683 Y5.8948
Z-0.625
G1 Z-0.985 F30
X0.7308 F60
X0.4638 F120
G2 Y6.0764 I0 J0.0908
G1 X0.7308
G3 Y6.2582 I0 J0.0909
G1 X0.4638 Y6.2581
G2 Y6.4397 I0 J0.0908
G1 X0.7308 Y6.4398
G0 Z0.2
X0.8683 Y5.8948
Z-0.625
G1 Z-1.045 F30
X0.7308 F60
X0.4638 F120
G2 Y6.0764 I0 J0.0908
G1 X0.7308
G3 Y6.2582 I0 J0.0909
G1 X0.4638 Y6.2581
G2 Y6.4397 I0 J0.0908
G1 X0.7308 Y6.4398
G0 Z0.2
X0.8683 Y5.8948
Z-0.625
G1 Z-1.105 F30
X0.7308 F60
X0.4638 F120
G2 Y6.0764 I0 J0.0908
G1 X0.7308
G3 Y6.2582 I0 J0.0909
G1 X0.4638 Y6.2581
G2 Y6.4397 I0 J0.0908
G1 X0.7308 Y6.4398
G0 Z0.2
X0.8683 Y5.8948
Z-0.625
G1 Z-1.165 F30
X0.7308 F60
X0.4638 F120
G2 Y6.0764 I0 J0.0908
G1 X0.7308
G3 Y6.2582 I0 J0.0909
G1 X0.4638 Y6.2581
G2 Y6.4397 I0 J0.0908
G1 X0.7308 Y6.4398
G0 Z0.2
X0.8683 Y5.8948
Z-0.625
G1 Z-1.225 F30
X0.7308 F60
X0.4638 F120
G2 Y6.0764 I0 J0.0908
G1 X0.7308
G3 Y6.2582 I0 J0.0909
G1 X0.4638 Y6.2581
G2 Y6.4397 I0 J0.0908
G1 X0.7308 Y6.4398
G0 Z0.2
X0.8683 Y5.8948
Z-0.625
G1 Z-1.285 F30
X0.7308 F60
X0.4638 F120
G2 Y6.0764 I0 J0.0908
G1 X0.7308
G3 Y6.2582 I0 J0.0909
G1 X0.4638 Y6.2581
G2 Y6.4397 I0 J0.0908
G1 X0.7308 Y6.4398
G0 Z0.2
X0.8683 Y5.8948
Z-0.625
G1 Z-1.345 F30
X0.7308 F60
X0.4638 F120
G2 Y6.0764 I0 J0.0908
G1 X0.7308
G3 Y6.2582 I0 J0.0909
G1 X0.4638 Y6.2581
G2 Y6.4397 I0 J0.0908
G1 X0.7308 Y6.4398
G0 Z0.2
X0.8683 Y5.8948
Z-0.625
G1 Z-1.405 F30
X0.7308 F60
X0.4638 F120
G2 Y6.0764 I0 J0.0908
G1 X0.7308
G3 Y6.2582 I0 J0.0909
G1 X0.4638 Y6.2581
G2 Y6.4397 I0 J0.0908
G1 X0.7308 Y6.4398
G0 Z0.2
X0.8683 Y5.8948
Z-0.625
G1 Z-1.465 F30
X0.7308 F60
X0.4638 F120
G2 Y6.0764 I0 J0.0908
G1 X0.7308
G3 Y6.2582 I0 J0.0909
G1 X0.4638 Y6.2581
G2 Y6.4397 I0 J0.0908
G1 X0.7308 Y6.4398
G0 Z0.2
X0.8683 Y5.8948
Z-0.625
G1 Z-1.525 F30
X0.7308 F60
X0.4638 F120
G2 Y6.0764 I0 J0.0908
G1 X0.7308
G3 Y6.2582 I0 J0.0909
G1 X0.4638 Y6.2581
G2 Y6.4397 I0 J0.0908
G1 X0.7308 Y6.4398
G0 Z0.6

(2D Contour6)
X0.875 Y6.1516
Z0.6
Z-0.625
G1 Z-0.745 F30
Z-0.865
Y6.525 F60
X0.3219
Y5.875
X0.875
Y6.1516
Z-0.905 F30
Y6.525 F60
X0.3219
Y5.875
X0.875
Y6.1516
Z-0.945 F30
Y6.525 F60
X0.3219
Y5.875
X0.875
Y6.1516
Z-0.985 F30
Y6.525 F60
X0.3219
Y5.875
X0.875
Y6.1516
Z-1.025 F30
Y6.525 F60
X0.3219
Y5.875
X0.875
Y6.1516
Z-1.065 F30
Y6.525 F60
X0.3219
Y5.875
X0.875
Y6.1516
Z-1.105 F30
Y6.525 F60
X0.3219
Y5.875
X0.875
Y6.1516
Z-1.145 F30
Y6.525 F60
X0.3219
Y5.875
X0.875
Y6.1516
Z-1.185 F30
Y6.525 F60
X0.3219
Y5.875
X0.875
Y6.1516
Z-1.225 F30
Y6.525 F60
X0.3219
Y5.875
X0.875
Y6.1516
Z-1.265 F30
Y6.525 F60
X0.3219
Y5.875
X0.875
Y6.1516
Z-1.305 F30
Y6.525 F60
X0.3219
Y5.875
X0.875
Y6.1516
Z-1.345 F30
Y6.525 F60
X0.3219
Y5.875
X0.875
Y6.1516
Z-1.385 F30
Y6.525 F60
X0.3219
Y5.875
X0.875
Y6.1516
Z-1.425 F30
Y6.525 F60
X0.3219
Y5.875
X0.875
Y6.1516
Z-1.465 F30
Y6.525 F60
X0.3219
Y5.875
X0.875
Y6.1516
Z-1.505 F30
Y6.525 F60
X0.3219
Y5.875
X0.875
Y6.1516
Z-1.525 F30
Y6.525 F60
X0.3219
Y5.875
X0.875
Y6.1516
G0 Z0.6

(Face4)
X0.9175 Y5.1531
Z0.6
Z-0.625
G1 Z-0.83 F30
G18 G3 X0.8925 Z-0.855 I-0.025 K0 F60
G1 X0.755
X0.445
G17 G2 Y5.3289 I0 J0.0879
G1 X0.755
G18 G2 X0.78 Z-0.83 I0 K0.025
G0 Z0.2
X0.9175 Y5.1531
Z-0.625
G1 Z-0.87 F30
G3 X0.8925 Z-0.895 I-0.025 K0 F60
G1 X0.755
X0.445
G17 G2 Y5.3289 I0 J0.0879
G1 X0.755
G18 G2 X0.78 Z-0.87 I0 K0.025
G0 Z0.2
X0.9175 Y5.1531
Z-0.625
G1 Z-0.91 F30
G3 X0.8925 Z-0.935 I-0.025 K0 F60
G1 X0.755
X0.445
G17 G2 Y5.3289 I0 J0.0879
G1 X0.755
G18 G2 X0.78 Z-0.91 I0 K0.025
G0 Z0.2
X0.9175 Y5.1531
Z-0.625
G1 Z-0.95 F30
G3 X0.8925 Z-0.975 I-0.025 K0 F60
G1 X0.755
X0.445
G17 G2 Y5.3289 I0 J0.0879
G1 X0.755
G18 G2 X0.78 Z-0.95 I0 K0.025
G0 Z0.2
X0.9175 Y5.1531
Z-0.625
G1 Z-0.99 F30
G3 X0.8925 Z-1.015 I-0.025 K0 F60
G1 X0.755
X0.445
G17 G2 Y5.3289 I0 J0.0879
G1 X0.755
G18 G2 X0.78 Z-0.99 I0 K0.025
G0 Z0.2
X0.9175 Y5.1531
Z-0.625
G1 Z-1.03 F30
G3 X0.8925 Z-1.055 I-0.025 K0 F60
G1 X0.755
X0.445
G17 G2 Y5.3289 I0 J0.0879
G1 X0.755
G18 G2 X0.78 Z-1.03 I0 K0.025
G0 Z0.2
X0.9175 Y5.1531
Z-0.625
G1 Z-1.07 F30
G3 X0.8925 Z-1.095 I-0.025 K0 F60
G1 X0.755
X0.445
G17 G2 Y5.3289 I0 J0.0879
G1 X0.755
G18 G2 X0.78 Z-1.07 I0 K0.025
G0 Z0.6
G17

(2D Contour5)
G0 X0.88 Y5.45
Z0.6
Z0.175
G1 Z-0.865 F30
Y5.1 F60
Y4.975
X0.32
Y5.45
G0 Z0.2
X0.88
Z0.135
G1 Z-0.905 F30
Y5.1 F60
Y4.975
X0.32
Y5.45
G0 Z0.2
X0.88
Z0.095
G1 Z-0.945 F30
Y5.1 F60
Y4.975
X0.32
Y5.45
G0 Z0.2
X0.88
Z0.055
G1 Z-0.985 F30
Y5.1 F60
Y4.975
X0.32
Y5.45
G0 Z0.2
X0.88
Z0.015
G1 Z-1.025 F30
Y5.1 F60
Y4.975
X0.32
Y5.45
G0 Z0.2
X0.88
Z-0.025
G1 Z-1.065 F30
Y5.1 F60
Y4.975
X0.32
Y5.45
G0 Z0.2
X0.88
Z-0.065
G1 Z-1.105 F30
Y5.1 F60
Y4.975
X0.32
Y5.45
G0 Z0.2
X0.88
Z-0.105
G1 Z-1.145 F30
Y5.1 F60
Y4.975
X0.32
Y5.45
G0 Z0.2
X0.88
Z-0.145
G1 Z-1.185 F30
Y5.1 F60
Y4.975
X0.32
Y5.45
G0 Z0.2
X0.88
Z-0.185
G1 Z-1.225 F30
Y5.1 F60
Y4.975
X0.32
Y5.45
G0 Z0.2
X0.88
Z-0.225
G1 Z-1.265 F30
Y5.1 F60
Y4.975
X0.32
Y5.45
G0 Z0.2
X0.88
Z-0.265
G1 Z-1.305 F30
Y5.1 F60
Y4.975
X0.32
Y5.45
G0 Z0.2
X0.88
Z-0.305
G1 Z-1.345 F30
Y5.1 F60
Y4.975
X0.32
Y5.45
G0 Z0.2
X0.88
Z-0.345
G1 Z-1.385 F30
Y5.1 F60
Y4.975
X0.32
Y5.45
G0 Z0.2
X0.88
Z-0.385
G1 Z-1.425 F30
Y5.1 F60
Y4.975
X0.32
Y5.45
G0 Z0.2
X0.88
Z-0.425
G1 Z-1.465 F30
Y5.1 F60
Y4.975
X0.32
Y5.45
G0 Z0.2
X0.88
Z-0.465
G1 Z-1.505 F30
Y5.1 F60
Y4.975
X0.32
Y5.45
G0 Z0.2
X0.88
Z-0.505
G1 Z-1.545 F30
Y5.1 F60
Y4.975
X0.32
Y5.45
G0 Z0.2
X0.88
Z-0.545
G1 Z-1.585 F30
Y5.1 F60
Y4.975
X0.32
Y5.45
G0 Z0.2
X0.88
Z-0.585
G1 Z-1.625 F30
Y5.1 F60
Y4.975
X0.32
Y5.45
G0 Z0.6
M5
G28 G91 Z0
G90

(Drill2)
T20 M6
S5000 M3
G54
G0 X1.05 Y6.8
Z0.6
Z0.2
Z-0.625
G1 Z-0.949 F20
G0 Z0.2
X0.15
Z-0.625
G1 Z-0.949 F20
G0 Z0.2
Y5.6
Z-0.625
G1 Z-0.949 F20
G0 Z0.2
X1.05
Z-0.625
G1 Z-0.949 F20
G0 Z0.2
Z0.6
G28 G91 Z0
G90
G28 G91 X0 Y0
G90
M30
%
