%
(DelrinFrontParts)
(T1  D=0.25 CR=0 - ZMIN=-0.8 - flat end mill)
(T20  D=0.25 CR=0 TAPER=90deg - ZMIN=-0.124 - countersink)
G90
G17
G20
G28 G91 Z0
G90

(Face12)
T1 M6
S10000 M3
G54
G0 X0.8683 Y1.4449
Z0.6
Z0.2
G1 Z-0.02 F30
X0.7308 F60
X0.4638 F180
G2 Y1.6265 I0 J0.0908
G1 X0.7308 Y1.6264
G3 Y1.808 I0 J0.0908
G1 X0.4638 Y1.8079
G2 Y1.9895 I0 J0.0908
G1 X0.7308
G0 Z0.2
X0.8683 Y1.4449
G1 Z-0.06 F30
X0.7308 F60
X0.4638 F180
G2 Y1.6265 I0 J0.0908
G1 X0.7308 Y1.6264
G3 Y1.808 I0 J0.0908
G1 X0.4638 Y1.8079
G2 Y1.9895 I0 J0.0908
G1 X0.7308
G0 Z0.2
X0.8683 Y1.4449
G1 Z-0.1 F30
X0.7308 F60
X0.4638 F180
G2 Y1.6265 I0 J0.0908
G1 X0.7308 Y1.6264
G3 Y1.808 I0 J0.0908
G1 X0.4638 Y1.8079
G2 Y1.9895 I0 J0.0908
G1 X0.7308
G0 Z0.2
X0.8683 Y1.4449
G1 Z-0.14 F30
X0.7308 F60
X0.4638 F180
G2 Y1.6265 I0 J0.0908
G1 X0.7308 Y1.6264
G3 Y1.808 I0 J0.0908
G1 X0.4638 Y1.8079
G2 Y1.9895 I0 J0.0908
G1 X0.7308
G0 Z0.2
X0.8683 Y1.4449
G1 Z-0.18 F30
X0.7308 F60
X0.4638 F180
G2 Y1.6265 I0 J0.0908
G1 X0.7308 Y1.6264
G3 Y1.808 I0 J0.0908
G1 X0.4638 Y1.8079
G2 Y1.9895 I0 J0.0908
G1 X0.7308
G0 Z0.2
X0.8683 Y1.4449
G1 Z-0.22 F30
X0.7308 F60
X0.4638 F180
G2 Y1.6265 I0 J0.0908
G1 X0.7308 Y1.6264
G3 Y1.808 I0 J0.0908
G1 X0.4638 Y1.8079
G2 Y1.9895 I0 J0.0908
G1 X0.7308
G0 Z0.2
X0.8683 Y1.4449
G1 Z-0.26 F30
X0.7308 F60
X0.4638 F180
G2 Y1.6265 I0 J0.0908
G1 X0.7308 Y1.6264
G3 Y1.808 I0 J0.0908
G1 X0.4638 Y1.8079
G2 Y1.9895 I0 J0.0908
G1 X0.7308
G0 Z0.2
X0.8683 Y1.4449
G1 Z-0.3 F30
X0.7308 F60
X0.4638 F180
G2 Y1.6265 I0 J0.0908
G1 X0.7308 Y1.6264
G3 Y1.808 I0 J0.0908
G1 X0.4638 Y1.8079
G2 Y1.9895 I0 J0.0908
G1 X0.7308
G0 Z0.2
X0.8683 Y1.4449
G1 Z-0.34 F30
X0.7308 F60
X0.4638 F180
G2 Y1.6265 I0 J0.0908
G1 X0.7308 Y1.6264
G3 Y1.808 I0 J0.0908
G1 X0.4638 Y1.8079
G2 Y1.9895 I0 J0.0908
G1 X0.7308
G0 Z0.2
X0.8683 Y1.4449
G1 Z-0.38 F30
X0.7308 F60
X0.4638 F180
G2 Y1.6265 I0 J0.0908
G1 X0.7308 Y1.6264
G3 Y1.808 I0 J0.0908
G1 X0.4638 Y1.8079
G2 Y1.9895 I0 J0.0908
G1 X0.7308
G0 Z0.2
X0.8683 Y1.4449
G1 Z-0.42 F30
X0.7308 F60
X0.4638 F180
G2 Y1.6265 I0 J0.0908
G1 X0.7308 Y1.6264
G3 Y1.808 I0 J0.0908
G1 X0.4638 Y1.8079
G2 Y1.9895 I0 J0.0908
G1 X0.7308
G0 Z0.2
X0.8683 Y1.4449
G1 Z-0.46 F30
X0.7308 F60
X0.4638 F180
G2 Y1.6265 I0 J0.0908
G1 X0.7308 Y1.6264
G3 Y1.808 I0 J0.0908
G1 X0.4638 Y1.8079
G2 Y1.9895 I0 J0.0908
G1 X0.7308
G0 Z0.2
X0.8683 Y1.4449
G1 Z-0.5 F30
X0.7308 F60
X0.4638 F180
G2 Y1.6265 I0 J0.0908
G1 X0.7308 Y1.6264
G3 Y1.808 I0 J0.0908
G1 X0.4638 Y1.8079
G2 Y1.9895 I0 J0.0908
G1 X0.7308
G0 Z0.2
X0.8683 Y1.4449
G1 Z-0.54 F30
X0.7308 F60
X0.4638 F180
G2 Y1.6265 I0 J0.0908
G1 X0.7308 Y1.6264
G3 Y1.808 I0 J0.0908
G1 X0.4638 Y1.8079
G2 Y1.9895 I0 J0.0908
G1 X0.7308
G0 Z0.2
X0.8683 Y1.4449
G1 Z-0.58 F30
X0.7308 F60
X0.4638 F180
G2 Y1.6265 I0 J0.0908
G1 X0.7308 Y1.6264
G3 Y1.808 I0 J0.0908
G1 X0.4638 Y1.8079
G2 Y1.9895 I0 J0.0908
G1 X0.7308
G0 Z0.2
X0.8683 Y1.4449
G1 Z-0.62 F30
X0.7308 F60
X0.4638 F180
G2 Y1.6265 I0 J0.0908
G1 X0.7308 Y1.6264
G3 Y1.808 I0 J0.0908
G1 X0.4638 Y1.8079
G2 Y1.9895 I0 J0.0908
G1 X0.7308
G0 Z0.2
X0.8683 Y1.4449
G1 Z-0.66 F30
X0.7308 F60
X0.4638 F180
G2 Y1.6265 I0 J0.0908
G1 X0.7308 Y1.6264
G3 Y1.808 I0 J0.0908
G1 X0.4638 Y1.8079
G2 Y1.9895 I0 J0.0908
G1 X0.7308
G0 Z0.2
X0.8683 Y1.4449
G1 Z-0.7 F30
X0.7308 F60
X0.4638 F180
G2 Y1.6265 I0 J0.0908
G1 X0.7308 Y1.6264
G3 Y1.808 I0 J0.0908
G1 X0.4638 Y1.8079
G2 Y1.9895 I0 J0.0908
G1 X0.7308
G0 Z0.6

(2D Contour12)
X0.875 Y1.7016
Z0.6
Z0.2
G1 Z0.08 F30
Z-0.04
Y2.075 F180
X0.3219
Y1.425
X0.875
Y1.7016
Z-0.08 F30
Y2.075 F180
X0.3219
Y1.425
X0.875
Y1.7016
Z-0.12 F30
Y2.075 F180
X0.3219
Y1.425
X0.875
Y1.7016
Z-0.16 F30
Y2.075 F180
X0.3219
Y1.425
X0.875
Y1.7016
Z-0.2 F30
Y2.075 F180
X0.3219
Y1.425
X0.875
Y1.7016
Z-0.24 F30
Y2.075 F180
X0.3219
Y1.425
X0.875
Y1.7016
Z-0.28 F30
Y2.075 F180
X0.3219
Y1.425
X0.875
Y1.7016
Z-0.32 F30
Y2.075 F180
X0.3219
Y1.425
X0.875
Y1.7016
Z-0.36 F30
Y2.075 F180
X0.3219
Y1.425
X0.875
Y1.7016
Z-0.4 F30
Y2.075 F180
X0.3219
Y1.425
X0.875
Y1.7016
Z-0.44 F30
Y2.075 F180
X0.3219
Y1.425
X0.875
Y1.7016
Z-0.48 F30
Y2.075 F180
X0.3219
Y1.425
X0.875
Y1.7016
Z-0.52 F30
Y2.075 F180
X0.3219
Y1.425
X0.875
Y1.7016
Z-0.56 F30
Y2.075 F180
X0.3219
Y1.425
X0.875
Y1.7016
Z-0.6 F30
Y2.075 F180
X0.3219
Y1.425
X0.875
Y1.7016
Z-0.64 F30
Y2.075 F180
X0.3219
Y1.425
X0.875
Y1.7016
Z-0.68 F30
Y2.075 F180
X0.3219
Y1.425
X0.875
Y1.7016
Z-0.7 F30
Y2.075 F180
X0.3219
Y1.425
X0.875
Y1.7016
G0 Z0.6
M5
G28 G91 Z0
G90

(Drill3)
T20 M6
S5000 M3
G54
G0 X1.05 Y2.35
Z0.6
Z0.2
G1 Z-0.124 F20
G0 Z0.2
X0.15
G1 Z-0.124 F20
G0 Z0.2
Y1.15
G1 Z-0.124 F20
G0 Z0.2
X1.05
G1 Z-0.124 F20
G0 Z0.2
Z0.6
M5
G28 G91 Z0
G90

(Face13)
T1 M6
S10000 M3
G54
G0 X0.8925 Y0.7031
Z0.6
Z0.2
G1 Z-0.03 F30
X0.755 F60
X0.445 F180
G2 Y0.8791 I0 J0.088
G1 X0.755 Y0.8792
G0 Z0.2
X0.8925 Y0.7031
G1 Z-0.07 F30
X0.755 F60
X0.445 F180
G2 Y0.8791 I0 J0.088
G1 X0.755 Y0.8792
G0 Z0.2
X0.8925 Y0.7031
G1 Z-0.11 F30
X0.755 F60
X0.445 F180
G2 Y0.8791 I0 J0.088
G1 X0.755 Y0.8792
G0 Z0.2
X0.8925 Y0.7031
G1 Z-0.15 F30
X0.755 F60
X0.445 F180
G2 Y0.8791 I0 J0.088
G1 X0.755 Y0.8792
G0 Z0.2
X0.8925 Y0.7031
G1 Z-0.19 F30
X0.755 F60
X0.445 F180
G2 Y0.8791 I0 J0.088
G1 X0.755 Y0.8792
G0 Z0.2
X0.8925 Y0.7031
G1 Z-0.23 F30
X0.755 F60
X0.445 F180
G2 Y0.8791 I0 J0.088
G1 X0.755 Y0.8792
G0 Z0.2
X0.8925 Y0.7031
G1 Z-0.27 F30
X0.755 F60
X0.445 F180
G2 Y0.8791 I0 J0.088
G1 X0.755 Y0.8792
G0 Z0.6

(2D Contour9)
X0.6 Y0.875
Z0.6
Z0.2
G1 Z0.08 F30
Z-0.04
X0 F180
G2 X-0.125 Y1 I0 J0.125
G1 Y2.5
G2 X0 Y2.625 I0.125 J0
G1 X1.2
G2 X1.325 Y2.5 I0 J-0.125
G1 Y1
G2 X1.2 Y0.875 I-0.125 J0
G1 X0.6
Z-0.08 F30
X0 F180
G2 X-0.125 Y1 I0 J0.125
G1 Y2.5
G2 X0 Y2.625 I0.125 J0
G1 X1.2
G2 X1.325 Y2.5 I0 J-0.125
G1 Y1
G2 X1.2 Y0.875 I-0.125 J0
G1 X0.6
Z-0.12 F30
X0 F180
G2 X-0.125 Y1 I0 J0.125
G1 Y2.5
G2 X0 Y2.625 I0.125 J0
G1 X1.2
G2 X1.325 Y2.5 I0 J-0.125
G1 Y1
G2 X1.2 Y0.875 I-0.125 J0
G1 X0.6
Z-0.16 F30
X0 F180
G2 X-0.125 Y1 I0 J0.125
G1 Y2.5
G2 X0 Y2.625 I0.125 J0
G1 X1.2
G2 X1.325 Y2.5 I0 J-0.125
G1 Y1
G2 X1.2 Y0.875 I-0.125 J0
G1 X0.6
Z-0.2 F30
X0 F180
G2 X-0.125 Y1 I0 J0.125
G1 Y2.5
G2 X0 Y2.625 I0.125 J0
G1 X1.2
G2 X1.325 Y2.5 I0 J-0.125
G1 Y1
G2 X1.2 Y0.875 I-0.125 J0
G1 X0.6
Z-0.24 F30
X0 F180
G2 X-0.125 Y1 I0 J0.125
G1 Y2.5
G2 X0 Y2.625 I0.125 J0
G1 X1.2
G2 X1.325 Y2.5 I0 J-0.125
G1 Y1
G2 X1.2 Y0.875 I-0.125 J0
G1 X0.6
Z-0.27 F30
X0 F180
G2 X-0.125 Y1 I0 J0.125
G1 Y2.5
G2 X0 Y2.625 I0.125 J0
G1 X1.2
G2 X1.325 Y2.5 I0 J-0.125
G1 Y1
G2 X1.2 Y0.875 I-0.125 J0
G1 X0.6
G0 Z0.6

(2D Contour10)
X0.88 Y0.8758
Z0.6
Z0.2
G1 Z0.08 F30
Z-0.04
Y0.65 F60
Y0.525
X0.32
Y0.8758
G0 Z0.2
X0.88
G1 Z0.04 F30
Z-0.08
Y0.65 F60
Y0.525
X0.32
Y0.8758
G0 Z0.2
X0.88
G1 Z0 F30
Z-0.12
Y0.65 F60
Y0.525
X0.32
Y0.8758
G0 Z0.2
X0.88
G1 Z-0.04 F30
Z-0.16
Y0.65 F60
Y0.525
X0.32
Y0.8758
G0 Z0.2
X0.88
G1 Z-0.08 F30
Z-0.2
Y0.65 F60
Y0.525
X0.32
Y0.8758
G0 Z0.2
X0.88
G1 Z-0.12 F30
Z-0.24
Y0.65 F60
Y0.525
X0.32
Y0.8758
G0 Z0.2
X0.88
G1 Z-0.16 F30
Z-0.28
Y0.65 F60
Y0.525
X0.32
Y0.8758
G0 Z0.2
X0.88
G1 Z-0.2 F30
Z-0.32
Y0.65 F60
Y0.525
X0.32
Y0.8758
G0 Z0.2
X0.88
G1 Z-0.24 F30
Z-0.36
Y0.65 F60
Y0.525
X0.32
Y0.8758
G0 Z0.2
X0.88
G1 Z-0.28 F30
Z-0.4
Y0.65 F60
Y0.525
X0.32
Y0.8758
G0 Z0.2
X0.88
G1 Z-0.32 F30
Z-0.44
Y0.65 F60
Y0.525
X0.32
Y0.8758
G0 Z0.2
X0.88
G1 Z-0.36 F30
Z-0.48
Y0.65 F60
Y0.525
X0.32
Y0.8758
G0 Z0.2
X0.88
G1 Z-0.4 F30
Z-0.52
Y0.65 F60
Y0.525
X0.32
Y0.8758
G0 Z0.2
X0.88
G1 Z-0.44 F30
Z-0.56
Y0.65 F60
Y0.525
X0.32
Y0.8758
G0 Z0.2
X0.88
G1 Z-0.48 F30
Z-0.6
Y0.65 F60
Y0.525
X0.32
Y0.8758
G0 Z0.2
X0.88
G1 Z-0.52 F30
Z-0.64
Y0.65 F60
Y0.525
X0.32
Y0.8758
G0 Z0.2
X0.88
G1 Z-0.56 F30
Z-0.68
Y0.65 F60
Y0.525
X0.32
Y0.8758
G0 Z0.2
X0.88
G1 Z-0.6 F30
Z-0.72
Y0.65 F60
Y0.525
X0.32
Y0.8758
G0 Z0.2
X0.88
G1 Z-0.64 F30
Z-0.76
Y0.65 F60
Y0.525
X0.32
Y0.8758
G0 Z0.2
X0.88
G1 Z-0.68 F30
Z-0.8
Y0.65 F60
Y0.525
X0.32
Y0.8758
G0 Z0.6

(2D Contour11)
X-0.125 Y1
Z0.6
Z0.2
G1 Z0.08 F30
Z-0.04
Y2.5 F180
G0 Z0.2
Y1
G1 Z0.04 F30
Z-0.08
Y2.5 F180
G0 Z0.2
Y1
G1 Z0 F30
Z-0.12
Y2.5 F180
G0 Z0.2
Y1
G1 Z-0.04 F30
Z-0.16
Y2.5 F180
G0 Z0.2
Y1
G1 Z-0.08 F30
Z-0.2
Y2.5 F180
G0 Z0.2
Y1
G1 Z-0.12 F30
Z-0.24
Y2.5 F180
G0 Z0.2
Y1
G1 Z-0.16 F30
Z-0.28
Y2.5 F180
G0 Z0.2
Y1
G1 Z-0.2 F30
Z-0.32
Y2.5 F180
G0 Z0.2
Y1
G1 Z-0.24 F30
Z-0.36
Y2.5 F180
G0 Z0.2
Y1
G1 Z-0.28 F30
Z-0.4
Y2.5 F180
G0 Z0.2
Y1
G1 Z-0.32 F30
Z-0.44
Y2.5 F180
G0 Z0.2
Y1
G1 Z-0.36 F30
Z-0.48
Y2.5 F180
G0 Z0.2
Y1
G1 Z-0.4 F30
Z-0.52
Y2.5 F180
G0 Z0.2
Y1
G1 Z-0.44 F30
Z-0.56
Y2.5 F180
G0 Z0.2
Y1
G1 Z-0.48 F30
Z-0.6
Y2.5 F180
G0 Z0.2
Y1
G1 Z-0.52 F30
Z-0.64
Y2.5 F180
G0 Z0.2
Y1
G1 Z-0.56 F30
Z-0.68
Y2.5 F180
G0 Z0.2
Y1
G1 Z-0.6 F30
Z-0.72
Y2.5 F180
G0 Z0.2
Y1
G1 Z-0.64 F30
Z-0.76
Y2.5 F180
G0 Z0.2
Y1
G1 Z-0.68 F30
Z-0.8
Y2.5 F180
G0 Z0.6

(2D Contour1)
X1.325 Y2.5
Z0.6
Z0.2
G1 Z0.08 F30
Z-0.04
Y1 F180
G0 Z0.2
Y2.5
G1 Z0.04 F30
Z-0.08
Y1 F180
G0 Z0.2
Y2.5
G1 Z0 F30
Z-0.12
Y1 F180
G0 Z0.2
Y2.5
G1 Z-0.04 F30
Z-0.16
Y1 F180
G0 Z0.2
Y2.5
G1 Z-0.08 F30
Z-0.2
Y1 F180
G0 Z0.2
Y2.5
G1 Z-0.12 F30
Z-0.24
Y1 F180
G0 Z0.2
Y2.5
G1 Z-0.16 F30
Z-0.28
Y1 F180
G0 Z0.2
Y2.5
G1 Z-0.2 F30
Z-0.32
Y1 F180
G0 Z0.2
Y2.5
G1 Z-0.24 F30
Z-0.36
Y1 F180
G0 Z0.2
Y2.5
G1 Z-0.28 F30
Z-0.4
Y1 F180
G0 Z0.2
Y2.5
G1 Z-0.32 F30
Z-0.44
Y1 F180
G0 Z0.2
Y2.5
G1 Z-0.36 F30
Z-0.48
Y1 F180
G0 Z0.2
Y2.5
G1 Z-0.4 F30
Z-0.52
Y1 F180
G0 Z0.2
Y2.5
G1 Z-0.44 F30
Z-0.56
Y1 F180
G0 Z0.2
Y2.5
G1 Z-0.48 F30
Z-0.6
Y1 F180
G0 Z0.2
Y2.5
G1 Z-0.52 F30
Z-0.64
Y1 F180
G0 Z0.2
Y2.5
G1 Z-0.56 F30
Z-0.68
Y1 F180
G0 Z0.2
Y2.5
G1 Z-0.6 F30
Z-0.72
Y1 F180
G0 Z0.2
Y2.5
G1 Z-0.64 F30
Z-0.76
Y1 F180
G0 Z0.2
Y2.5
G1 Z-0.68 F30
Z-0.8
Y1 F180
G0 Z0.6
G28 G91 Z0
G90
G28 G91 X0 Y0
G90
M30
%
