%
(Door_Sides)
(T1  D=0.25 CR=0 - ZMIN=-0.0315 - flat end mill)
G90
G17
G20
G28 G91 Z0
G90

(2D Contour3)
T1 M6
S10000 M3
G54
G0 X8 Y4.875
Z1
G1 Z0.02 F30
G18 G3 X7.975 Z-0.005 I-0.025 K0 F60
G1 X7.95
G17 G3 X7.925 Y4.85 I0 J-0.025
G1 Y3.25
G2 X7.8 Y3.125 I-0.125 J0
G1 X2.5
G2 X2.375 Y3.25 I0 J0.125
G1 Y4.85
G3 X2.35 Y4.875 I-0.025 J0
G1 X2.325
G18 G3 X2.3 Z0.02 I0 K0.025
G0 Z1
X8
Z0.995
G1 Z0.015 F30
G3 X7.975 Z-0.01 I-0.025 K0 F60
G1 X7.95
G17 G3 X7.925 Y4.85 I0 J-0.025
G1 Y3.25
G2 X7.8 Y3.125 I-0.125 J0
G1 X2.5
G2 X2.375 Y3.25 I0 J0.125
G1 Y4.85
G3 X2.35 Y4.875 I-0.025 J0
G1 X2.325
G18 G3 X2.3 Z0.015 I0 K0.025
G0 Z1
X8
Z0.99
G1 Z0.01 F30
G3 X7.975 Z-0.015 I-0.025 K0 F60
G1 X7.95
G17 G3 X7.925 Y4.85 I0 J-0.025
G1 Y3.25
G2 X7.8 Y3.125 I-0.125 J0
G1 X2.5
G2 X2.375 Y3.25 I0 J0.125
G1 Y4.85
G3 X2.35 Y4.875 I-0.025 J0
G1 X2.325
G18 G3 X2.3 Z0.01 I0 K0.025
G0 Z1
X8
Z0.985
G1 Z0.005 F30
G3 X7.975 Z-0.02 I-0.025 K0 F60
G1 X7.95
G17 G3 X7.925 Y4.85 I0 J-0.025
G1 Y3.25
G2 X7.8 Y3.125 I-0.125 J0
G1 X2.5
G2 X2.375 Y3.25 I0 J0.125
G1 Y4.85
G3 X2.35 Y4.875 I-0.025 J0
G1 X2.325
G18 G3 X2.3 Z0.005 I0 K0.025
G0 Z1
X8
Z0.98
G1 Z0 F30
G3 X7.975 Z-0.025 I-0.025 K0 F60
G1 X7.95
G17 G3 X7.925 Y4.85 I0 J-0.025
G1 Y3.25
G2 X7.8 Y3.125 I-0.125 J0
G1 X2.5
G2 X2.375 Y3.25 I0 J0.125
G1 Y4.85
G3 X2.35 Y4.875 I-0.025 J0
G1 X2.325
G18 G3 X2.3 Z0 I0 K0.025
G0 Z1
X8
Z0.975
G1 Z-0.005 F30
G3 X7.975 Z-0.03 I-0.025 K0 F60
G1 X7.95
G17 G3 X7.925 Y4.85 I0 J-0.025
G1 Y3.25
G2 X7.8 Y3.125 I-0.125 J0
G1 X2.5
G2 X2.375 Y3.25 I0 J0.125
G1 Y4.85
G3 X2.35 Y4.875 I-0.025 J0
G1 X2.325
G18 G3 X2.3 Z-0.005 I0 K0.025
G0 Z1
X8
Z0.97
G1 Z-0.0065 F30
G3 X7.975 Z-0.0315 I-0.025 K0 F60
G1 X7.95
G17 G3 X7.925 Y4.85 I0 J-0.025
G1 Y3.25
G2 X7.8 Y3.125 I-0.125 J0
G1 X2.5
G2 X2.375 Y3.25 I0 J0.125
G1 Y4.85
G3 X2.35 Y4.875 I-0.025 J0
G1 X2.325
G18 G3 X2.3 Z-0.0065 I0 K0.025
G0 Z1
G17
G28 G91 Z0
G90
G28 G91 X0 Y0
G90
M30
%
