%
(Door_allButSides)
(T1  D=0.25 CR=0 - ZMIN=-0.0315 - flat end mill)
(T20  D=0.25 CR=0 TAPER=90deg - ZMIN=-0.0315 - countersink)
G90
G17
G20
G28 G91 Z0
G90

(2D Contour1)
T20 M6
S5000 M3
G54
G0 X5.1653 Y4.6281
Z1.7
Z1
G1 Z-0.0065 F20
X5.1656 Z-0.0104
X5.1665 Z-0.0142
X5.168 Z-0.0178
X5.17 Z-0.0212
X5.1726 Z-0.0242
X5.1756 Z-0.0267
X5.1789 Z-0.0288
X5.1825 Z-0.0303
X5.1863 Z-0.0312
X5.1903 Z-0.0315
X5.2153 Y4.628
G3 X5.2403 Y4.653 I0 J0.025
X5.0631 Y4.6533 I-0.0886 J0.0001 F40
X5.2403 Y4.653 I0.0886 J-0.0002
X5.2154 Y4.678 I-0.025 J0
G1 X5.1904 Y4.6781
X5.1864 Z-0.0312
X5.1826 Z-0.0303
X5.179 Z-0.0288
X5.1757 Z-0.0267
X5.1727 Z-0.0242
X5.1701 Z-0.0212
X5.1681 Z-0.0178
X5.1666 Z-0.0142
X5.1657 Z-0.0104
X5.1654 Z-0.0065
G0 Z1
X5.5211 Y4.6281
G1 Z-0.0065 F20
X5.5215 Z-0.0104
X5.5224 Z-0.0142
X5.5239 Z-0.0178
X5.5259 Z-0.0212
X5.5285 Z-0.0242
X5.5315 Z-0.0267
X5.5348 Z-0.0288
X5.5384 Z-0.0303
X5.5422 Z-0.0312
X5.5461 Z-0.0315
X5.5711 Y4.628
G3 X5.5962 Y4.653 I0.0001 J0.025
X5.419 Y4.6533 I-0.0886 J0.0001 F40
X5.5962 Y4.653 I0.0886 J-0.0002
X5.5712 Y4.678 I-0.025 J0
G1 X5.5462 Y4.6781
X5.5423 Z-0.0312
X5.5385 Z-0.0303
X5.5349 Z-0.0288
X5.5316 Z-0.0267
X5.5286 Z-0.0242
X5.526 Z-0.0212
X5.524 Z-0.0178
X5.5225 Z-0.0142
X5.5216 Z-0.0104
X5.5212 Z-0.0065
G0 Z1
X4.8146 Y4.6318
G1 Z-0.0065 F20
X4.8149 Z-0.0104
X4.8158 Y4.632 Z-0.0142
X4.8173 Y4.6324 Z-0.0178
X4.8193 Y4.6328 Z-0.0212
X4.8217 Y4.6334 Z-0.0242
X4.8247 Y4.634 Z-0.0267
X4.8279 Y4.6348 Z-0.0288
X4.8315 Y4.6356 Z-0.0303
X4.8352 Y4.6364 Z-0.0312
X4.839 Y4.6373 Z-0.0315
X4.8634 Y4.6428
G3 X4.8823 Y4.6727 I-0.0055 J0.0244
X4.7093 Y4.6336 I-0.0865 J-0.0196 F40
X4.8823 Y4.6727 I0.0865 J0.0195
X4.8523 Y4.6916 I-0.0244 J-0.0055
G1 X4.828 Y4.686
X4.8241 Y4.6852 Z-0.0312
X4.8204 Y4.6843 Z-0.0303
X4.8169 Y4.6835 Z-0.0288
X4.8136 Y4.6828 Z-0.0267
X4.8107 Y4.6821 Z-0.0242
X4.8082 Y4.6816 Z-0.0212
X4.8062 Y4.6811 Z-0.0178
X4.8048 Y4.6808 Z-0.0142
X4.8039 Y4.6806 Z-0.0104
X4.8036 Y4.6805 Z-0.0065
G0 Z1
X4.8095 Y3.4219
G1 Z-0.0065 F20
X4.8098 Z-0.0104
X4.8107 Z-0.0142
X4.8122 Z-0.0178
X4.8142 Z-0.0212
X4.8168 Z-0.0242
X4.8198 Z-0.0267
X4.8231 Z-0.0288
X4.8267 Z-0.0303
X4.8306 Z-0.0312
X4.8345 Z-0.0315
X4.8595 Y3.422
G3 X4.8844 Y3.447 I-0.0001 J0.025
X4.7072 Y3.4467 I-0.0886 J-0.0001 F40
X4.8844 Y3.447 I0.0886 J0.0002
X4.8594 Y3.472 I-0.025 J0
G1 X4.8344 Y3.4719
X4.8305 Z-0.0312
X4.8266 Z-0.0303
X4.823 Z-0.0288
X4.8197 Z-0.0267
X4.8167 Z-0.0242
X4.8141 Z-0.0212
X4.8121 Z-0.0178
X4.8106 Z-0.0142
X4.8097 Z-0.0104
X4.8094 Z-0.0065
G0 Z1
X5.1654 Y3.4219
G1 Z-0.0065 F20
X5.1657 Z-0.0104
X5.1666 Z-0.0142
X5.1681 Z-0.0178
X5.1701 Z-0.0212
X5.1727 Z-0.0242
X5.1757 Z-0.0267
X5.179 Z-0.0288
X5.1826 Z-0.0303
X5.1864 Z-0.0312
X5.1904 Z-0.0315
X5.2154 Y3.422
G3 X5.2403 Y3.447 I-0.0001 J0.025
X5.0631 Y3.4467 I-0.0886 J-0.0001 F40
X5.2403 Y3.447 I0.0886 J0.0002
X5.2153 Y3.472 I-0.025 J0
G1 X5.1903 Y3.4719
X5.1863 Z-0.0312
X5.1825 Z-0.0303
X5.1789 Z-0.0288
X5.1756 Z-0.0267
X5.1726 Z-0.0242
X5.17 Z-0.0212
X5.168 Z-0.0178
X5.1665 Z-0.0142
X5.1656 Z-0.0104
X5.1653 Z-0.0065
G0 Z1
X5.5212 Y3.4219
G1 Z-0.0065 F20
X5.5216 Z-0.0104
X5.5225 Z-0.0142
X5.524 Z-0.0178
X5.526 Z-0.0212
X5.5286 Z-0.0242
X5.5316 Z-0.0267
X5.5349 Z-0.0288
X5.5385 Z-0.0303
X5.5423 Z-0.0312
X5.5462 Z-0.0315
X5.5712 Y3.422
G3 X5.5962 Y3.447 I0 J0.025
X5.419 Y3.4467 I-0.0886 J-0.0001 F40
X5.5962 Y3.447 I0.0886 J0.0002
X5.5711 Y3.472 I-0.025 J0
G1 X5.5461 Y3.4719
X5.5422 Z-0.0312
X5.5384 Z-0.0303
X5.5348 Z-0.0288
X5.5315 Z-0.0267
X5.5285 Z-0.0242
X5.5259 Z-0.0212
X5.5239 Z-0.0178
X5.5224 Z-0.0142
X5.5215 Z-0.0104
X5.5211 Z-0.0065
G0 Z1
X6.5712 Y5.8943
G1 Z-0.0065 F20
X6.5715 Z-0.0104
X6.5724 Z-0.0142
X6.5739 Z-0.0178
X6.5759 Z-0.0212
X6.5785 Z-0.0242
X6.5815 Z-0.0267
X6.5848 Z-0.0288
X6.5884 Z-0.0303
X6.5922 Z-0.0312
X6.5962 Z-0.0315
X6.6212 Y5.8944
G3 X6.6461 Y5.9194 I-0.0001 J0.025
X6.5477 Y5.9192 I-0.0492 J-0.0001 F40
X6.6461 Y5.9194 I0.0492 J0.0001
X6.6211 Y5.9444 I-0.025 J0
G1 X6.5961 Y5.9443
X6.5921 Z-0.0312
X6.5883 Z-0.0303
X6.5847 Z-0.0288
X6.5814 Z-0.0267
X6.5784 Z-0.0242
X6.5758 Z-0.0212
X6.5738 Z-0.0178
X6.5723 Z-0.0142
X6.5714 Z-0.0104
X6.5711 Z-0.0065
G0 Z1
X3.6903 Y5.8943
G1 Z-0.0065 F20
X3.6906 Z-0.0104
X3.6915 Z-0.0142
X3.693 Z-0.0178
X3.695 Z-0.0212
X3.6976 Z-0.0242
X3.7006 Z-0.0267
X3.7039 Z-0.0288
X3.7075 Z-0.0303
X3.7113 Z-0.0312
X3.7153 Z-0.0315
X3.7403 Y5.8944
G3 X3.7652 Y5.9194 I-0.0001 J0.025
X3.6668 Y5.9192 I-0.0492 J-0.0001 F40
X3.7652 Y5.9194 I0.0492 J0.0001
X3.7402 Y5.9444 I-0.025 J0
G1 X3.7152 Y5.9443
X3.7113 Z-0.0312
X3.7074 Z-0.0303
X3.7038 Z-0.0288
X3.7005 Z-0.0267
X3.6975 Z-0.0242
X3.6949 Z-0.0212
X3.6929 Z-0.0178
X3.6914 Z-0.0142
X3.6905 Z-0.0104
X3.6902 Z-0.0065
G0 Z1.7
M5
G28 G91 Z0
G90

(2D Contour3)
T1 M6
S10000 M3
G54
G0 X2.475 Y5.05
Z1
G1 Z0.02 F30
G19 G2 Y5.025 Z-0.005 J-0.025 K0 F60
G1 Y5
G17 G3 X2.5 Y4.975 I0.025 J0
G1 X3.16
Y6.1576
G2 X3.285 Y6.2826 I0.125 J0
G1 X4.125
G2 X4.25 Y6.1576 I0 J-0.125
G1 Y4.975
X6.05
Y6.1576
G2 X6.175 Y6.2826 I0.125 J0
G1 X7.015
G2 X7.14 Y6.1576 I0 J-0.125
G1 Y4.975
X7.8
G3 X7.825 Y5 I0 J0.025
G1 Y5.025
G19 G3 Y5.05 Z0.02 J0 K0.025
G0 Z1
X2.475
Z0.995
G1 Z0.015 F30
G2 Y5.025 Z-0.01 J-0.025 K0 F60
G1 Y5
G17 G3 X2.5 Y4.975 I0.025 J0
G1 X3.16
Y6.1576
G2 X3.285 Y6.2826 I0.125 J0
G1 X4.125
G2 X4.25 Y6.1576 I0 J-0.125
G1 Y4.975
X6.05
Y6.1576
G2 X6.175 Y6.2826 I0.125 J0
G1 X7.015
G2 X7.14 Y6.1576 I0 J-0.125
G1 Y4.975
X7.8
G3 X7.825 Y5 I0 J0.025
G1 Y5.025
G19 G3 Y5.05 Z0.015 J0 K0.025
G0 Z1
X2.475
Z0.99
G1 Z0.01 F30
G2 Y5.025 Z-0.015 J-0.025 K0 F60
G1 Y5
G17 G3 X2.5 Y4.975 I0.025 J0
G1 X3.16
Y6.1576
G2 X3.285 Y6.2826 I0.125 J0
G1 X4.125
G2 X4.25 Y6.1576 I0 J-0.125
G1 Y4.975
X6.05
Y6.1576
G2 X6.175 Y6.2826 I0.125 J0
G1 X7.015
G2 X7.14 Y6.1576 I0 J-0.125
G1 Y4.975
X7.8
G3 X7.825 Y5 I0 J0.025
G1 Y5.025
G19 G3 Y5.05 Z0.01 J0 K0.025
G0 Z1
X2.475
Z0.985
G1 Z0.005 F30
G2 Y5.025 Z-0.02 J-0.025 K0 F60
G1 Y5
G17 G3 X2.5 Y4.975 I0.025 J0
G1 X3.16
Y6.1576
G2 X3.285 Y6.2826 I0.125 J0
G1 X4.125
G2 X4.25 Y6.1576 I0 J-0.125
G1 Y4.975
X6.05
Y6.1576
G2 X6.175 Y6.2826 I0.125 J0
G1 X7.015
G2 X7.14 Y6.1576 I0 J-0.125
G1 Y4.975
X7.8
G3 X7.825 Y5 I0 J0.025
G1 Y5.025
G19 G3 Y5.05 Z0.005 J0 K0.025
G0 Z1
X2.475
Z0.98
G1 Z0 F30
G2 Y5.025 Z-0.025 J-0.025 K0 F60
G1 Y5
G17 G3 X2.5 Y4.975 I0.025 J0
G1 X3.16
Y6.1576
G2 X3.285 Y6.2826 I0.125 J0
G1 X4.125
G2 X4.25 Y6.1576 I0 J-0.125
G1 Y4.975
X6.05
Y6.1576
G2 X6.175 Y6.2826 I0.125 J0
G1 X7.015
G2 X7.14 Y6.1576 I0 J-0.125
G1 Y4.975
X7.8
G3 X7.825 Y5 I0 J0.025
G1 Y5.025
G19 G3 Y5.05 Z0 J0 K0.025
G0 Z1
X2.475
Z0.975
G1 Z-0.005 F30
G2 Y5.025 Z-0.03 J-0.025 K0 F60
G1 Y5
G17 G3 X2.5 Y4.975 I0.025 J0
G1 X3.16
Y6.1576
G2 X3.285 Y6.2826 I0.125 J0
G1 X4.125
G2 X4.25 Y6.1576 I0 J-0.125
G1 Y4.975
X6.05
Y6.1576
G2 X6.175 Y6.2826 I0.125 J0
G1 X7.015
G2 X7.14 Y6.1576 I0 J-0.125
G1 Y4.975
X7.8
G3 X7.825 Y5 I0 J0.025
G1 Y5.025
G19 G3 Y5.05 Z-0.005 J0 K0.025
G0 Z1
X2.475
Z0.97
G1 Z-0.0065 F30
G2 Y5.025 Z-0.0315 J-0.025 K0 F60
G1 Y5
G17 G3 X2.5 Y4.975 I0.025 J0
G1 X3.16
Y6.1576
G2 X3.285 Y6.2826 I0.125 J0
G1 X4.125
G2 X4.25 Y6.1576 I0 J-0.125
G1 Y4.975
X6.05
Y6.1576
G2 X6.175 Y6.2826 I0.125 J0
G1 X7.015
G2 X7.14 Y6.1576 I0 J-0.125
G1 Y4.975
X7.8
G3 X7.825 Y5 I0 J0.025
G1 Y5.025
G19 G3 Y5.05 Z-0.0065 J0 K0.025
G0 Z1
G17
G28 G91 Z0
G90
G28 G91 X0 Y0
G90
M30
%
