%
(Door_allButSides)
(T1  D=0.25 CR=0 - ZMIN=-0.0315 - flat end mill)
(T3  D=0.125 CR=0 - ZMIN=-0.0315 - ball end mill)
G90
G17
G20
G28 G91 Z0
G90

(2D Contour1)
T3 M6
S10000 M3
G54
G0 X5.1403 Y4.6407
Z1.7
Z1
G1 Z-0.019 F30
X5.1406 Z-0.0218
X5.1415 Z-0.0244
X5.143 Z-0.0268
X5.145 Z-0.0288
X5.1474 Z-0.0303
X5.15 Z-0.0312
X5.1528 Y4.6406 Z-0.0315
X5.1653
G3 X5.1778 Y4.6531 I0 J0.0125
X5.1256 Y4.6532 I-0.0261 J0
X5.1778 Y4.6531 I0.0261 J-0.0001
X5.1653 Y4.6656 I-0.0125 J0
G1 X5.1528
X5.1501 Y4.6657 Z-0.0312
X5.1474 Z-0.0303
X5.145 Z-0.0288
X5.1431 Z-0.0268
X5.1416 Z-0.0244
X5.1406 Z-0.0218
X5.1403 Z-0.019
G0 Z1
X4.7922 Y4.6366
G1 Z-0.019 F30
X4.7924 Y4.6368 Z-0.0218
X4.7932 Y4.6372 Z-0.0244
X4.7945 Y4.638 Z-0.0268
X4.7962 Y4.639 Z-0.0288
X4.7983 Y4.6401 Z-0.0303
X4.8006 Y4.6415 Z-0.0312
X4.803 Y4.6429 Z-0.0315
X4.8138 Y4.6491
G3 X4.8184 Y4.6661 I-0.0062 J0.0108
X4.7732 Y4.6401 I-0.0226 J-0.013
X4.8184 Y4.6661 I0.0226 J0.013
X4.8014 Y4.6707 I-0.0108 J-0.0062
G1 X4.7905 Y4.6645
X4.7881 Y4.6631 Z-0.0312
X4.7858 Y4.6618 Z-0.0303
X4.7838 Y4.6606 Z-0.0288
X4.7821 Y4.6597 Z-0.0268
X4.7808 Y4.6589 Z-0.0244
X4.78 Y4.6585 Z-0.0218
X4.7797 Y4.6583 Z-0.019
G0 Z1
X5.4962 Y4.6407
G1 Z-0.019 F30
X5.4965 Z-0.0218
X5.4974 Z-0.0244
X5.4989 Z-0.0268
X5.5009 Z-0.0288
X5.5032 Z-0.0303
X5.5059 Z-0.0312
X5.5087 Y4.6406 Z-0.0315
X5.5212
G3 X5.5337 Y4.6531 I0 J0.0125
X5.4815 Y4.6532 I-0.0261 J0
X5.5337 Y4.6531 I0.0261 J-0.0001
X5.5212 Y4.6656 I-0.0125 J0
G1 X5.5087
X5.5059 Y4.6657 Z-0.0312
X5.5033 Z-0.0303
X5.5009 Z-0.0288
X5.4989 Z-0.0268
X5.4975 Z-0.0244
X5.4965 Z-0.0218
X5.4962 Z-0.019
G0 Z1
Y3.4343
G1 Z-0.019 F30
X5.4965 Z-0.0218
X5.4975 Z-0.0244
X5.4989 Z-0.0268
X5.5009 Z-0.0288
X5.5033 Z-0.0303
X5.5059 Z-0.0312
X5.5087 Y3.4344 Z-0.0315
X5.5212
G3 X5.5337 Y3.4469 I0 J0.0125
X5.4815 Y3.4468 I-0.0261 J0
X5.5337 Y3.4469 I0.0261 J0.0001
X5.5212 Y3.4594 I-0.0125 J0
G1 X5.5087
X5.5059 Y3.4593 Z-0.0312
X5.5032 Z-0.0303
X5.5009 Z-0.0288
X5.4989 Z-0.0268
X5.4974 Z-0.0244
X5.4965 Z-0.0218
X5.4962 Z-0.019
G0 Z1
X5.1403 Y3.4343
G1 Z-0.019 F30
X5.1406 Z-0.0218
X5.1416 Z-0.0244
X5.1431 Z-0.0268
X5.145 Z-0.0288
X5.1474 Z-0.0303
X5.1501 Z-0.0312
X5.1528 Y3.4344 Z-0.0315
X5.1653
G3 X5.1778 Y3.4469 I0 J0.0125
X5.1256 Y3.4468 I-0.0261 J0
X5.1778 Y3.4469 I0.0261 J0.0001
X5.1653 Y3.4594 I-0.0125 J0
G1 X5.1528
X5.15 Y3.4593 Z-0.0312
X5.1474 Z-0.0303
X5.145 Z-0.0288
X5.143 Z-0.0268
X5.1415 Z-0.0244
X5.1406 Z-0.0218
X5.1403 Z-0.019
G0 Z1
X4.7844 Y3.4343
G1 Z-0.019 F30
X4.7848 Z-0.0218
X4.7857 Z-0.0244
X4.7872 Z-0.0268
X4.7892 Z-0.0288
X4.7915 Z-0.0303
X4.7942 Z-0.0312
X4.7969 Y3.4344 Z-0.0315
X4.8094
G3 X4.8219 Y3.4469 I0 J0.0125
X4.7697 Y3.4468 I-0.0261 J0
X4.8219 Y3.4469 I0.0261 J0.0001
X4.8094 Y3.4594 I-0.0125 J0
G1 X4.7969
X4.7941 Y3.4593 Z-0.0312
X4.7915 Z-0.0303
X4.7891 Z-0.0288
X4.7871 Z-0.0268
X4.7856 Z-0.0244
X4.7847 Z-0.0218
X4.7844 Z-0.019
G0 Z1.7

(Drill2)
X3.716 Y5.9193
Z0.6
Z0.2
Z0.1925
G1 Z-0.0315 F30
G0 Z0.2
X6.5969
Z0.1925
G1 Z-0.0315 F30
G0 Z0.2
Z0.6
M5
G28 G91 Z0
G90

(2D Contour3)
T1 M6
S10000 M3
G54
G0 X2.475 Y5.05
Z1
G1 Z0.02 F30
G19 G2 Y5.025 Z-0.005 J-0.025 K0 F60
G1 Y5
G17 G3 X2.5 Y4.975 I0.025 J0
G1 X3.16
Y6.1576
G2 X3.285 Y6.2826 I0.125 J0
G1 X4.125
G2 X4.25 Y6.1576 I0 J-0.125
G1 Y4.975
X6.05
Y6.1576
G2 X6.175 Y6.2826 I0.125 J0
G1 X7.015
G2 X7.14 Y6.1576 I0 J-0.125
G1 Y4.975
X7.8
G3 X7.825 Y5 I0 J0.025
G1 Y5.025
G19 G3 Y5.05 Z0.02 J0 K0.025
G0 Z1
X2.475
Z0.995
G1 Z0.015 F30
G2 Y5.025 Z-0.01 J-0.025 K0 F60
G1 Y5
G17 G3 X2.5 Y4.975 I0.025 J0
G1 X3.16
Y6.1576
G2 X3.285 Y6.2826 I0.125 J0
G1 X4.125
G2 X4.25 Y6.1576 I0 J-0.125
G1 Y4.975
X6.05
Y6.1576
G2 X6.175 Y6.2826 I0.125 J0
G1 X7.015
G2 X7.14 Y6.1576 I0 J-0.125
G1 Y4.975
X7.8
G3 X7.825 Y5 I0 J0.025
G1 Y5.025
G19 G3 Y5.05 Z0.015 J0 K0.025
G0 Z1
X2.475
Z0.99
G1 Z0.01 F30
G2 Y5.025 Z-0.015 J-0.025 K0 F60
G1 Y5
G17 G3 X2.5 Y4.975 I0.025 J0
G1 X3.16
Y6.1576
G2 X3.285 Y6.2826 I0.125 J0
G1 X4.125
G2 X4.25 Y6.1576 I0 J-0.125
G1 Y4.975
X6.05
Y6.1576
G2 X6.175 Y6.2826 I0.125 J0
G1 X7.015
G2 X7.14 Y6.1576 I0 J-0.125
G1 Y4.975
X7.8
G3 X7.825 Y5 I0 J0.025
G1 Y5.025
G19 G3 Y5.05 Z0.01 J0 K0.025
G0 Z1
X2.475
Z0.985
G1 Z0.005 F30
G2 Y5.025 Z-0.02 J-0.025 K0 F60
G1 Y5
G17 G3 X2.5 Y4.975 I0.025 J0
G1 X3.16
Y6.1576
G2 X3.285 Y6.2826 I0.125 J0
G1 X4.125
G2 X4.25 Y6.1576 I0 J-0.125
G1 Y4.975
X6.05
Y6.1576
G2 X6.175 Y6.2826 I0.125 J0
G1 X7.015
G2 X7.14 Y6.1576 I0 J-0.125
G1 Y4.975
X7.8
G3 X7.825 Y5 I0 J0.025
G1 Y5.025
G19 G3 Y5.05 Z0.005 J0 K0.025
G0 Z1
X2.475
Z0.98
G1 Z0 F30
G2 Y5.025 Z-0.025 J-0.025 K0 F60
G1 Y5
G17 G3 X2.5 Y4.975 I0.025 J0
G1 X3.16
Y6.1576
G2 X3.285 Y6.2826 I0.125 J0
G1 X4.125
G2 X4.25 Y6.1576 I0 J-0.125
G1 Y4.975
X6.05
Y6.1576
G2 X6.175 Y6.2826 I0.125 J0
G1 X7.015
G2 X7.14 Y6.1576 I0 J-0.125
G1 Y4.975
X7.8
G3 X7.825 Y5 I0 J0.025
G1 Y5.025
G19 G3 Y5.05 Z0 J0 K0.025
G0 Z1
X2.475
Z0.975
G1 Z-0.005 F30
G2 Y5.025 Z-0.03 J-0.025 K0 F60
G1 Y5
G17 G3 X2.5 Y4.975 I0.025 J0
G1 X3.16
Y6.1576
G2 X3.285 Y6.2826 I0.125 J0
G1 X4.125
G2 X4.25 Y6.1576 I0 J-0.125
G1 Y4.975
X6.05
Y6.1576
G2 X6.175 Y6.2826 I0.125 J0
G1 X7.015
G2 X7.14 Y6.1576 I0 J-0.125
G1 Y4.975
X7.8
G3 X7.825 Y5 I0 J0.025
G1 Y5.025
G19 G3 Y5.05 Z-0.005 J0 K0.025
G0 Z1
X2.475
Z0.97
G1 Z-0.0065 F30
G2 Y5.025 Z-0.0315 J-0.025 K0 F60
G1 Y5
G17 G3 X2.5 Y4.975 I0.025 J0
G1 X3.16
Y6.1576
G2 X3.285 Y6.2826 I0.125 J0
G1 X4.125
G2 X4.25 Y6.1576 I0 J-0.125
G1 Y4.975
X6.05
Y6.1576
G2 X6.175 Y6.2826 I0.125 J0
G1 X7.015
G2 X7.14 Y6.1576 I0 J-0.125
G1 Y4.975
X7.8
G3 X7.825 Y5 I0 J0.025
G1 Y5.025
G19 G3 Y5.05 Z-0.0065 J0 K0.025
G0 Z1
G17
G28 G91 Z0
G90
G28 G91 X0 Y0
G90
M30
%
