%
(Door)
(T2  D=0.125 CR=0 - ZMIN=-0.074 - flat end mill)
G90
G17
G20
G28 G91 Z0
G90

(2D Contour3)
T2 M6
S10000 M3
G54
M7
G0 X2.6329 Y2.7037
Z1
G1 Z0.0075 F15
X2.6332 Y2.7036 Z0.0047
X2.634 Y2.7032 Z0.0021
X2.6354 Y2.7027 Z-0.0003
X2.6372 Y2.7019 Z-0.0023
X2.6394 Y2.701 Z-0.0038
X2.6418 Y2.6999 Z-0.0047
X2.6444 Y2.6988 Z-0.005
X2.6559 Y2.6939
G3 X2.6723 Y2.7005 I0.0049 J0.0115
X2.6242 Y2.721 I-0.024 J0.0103
X2.6724 Y2.7005 I0.0241 J-0.0102
X2.6657 Y2.717 I-0.0116 J0.0049
G1 X2.6542 Y2.7218
X2.6516 Y2.7229 Z-0.0047
X2.6492 Y2.724 Z-0.0038
X2.647 Y2.7249 Z-0.0023
X2.6452 Y2.7257 Z-0.0003
X2.6438 Y2.7262 Z0.0021
X2.6429 Y2.7266 Z0.0047
X2.6427 Y2.7267 Z0.0075
X2.6329 Y2.7037
Z0.0025
X2.6332 Y2.7036 Z-0.0003
X2.634 Y2.7032 Z-0.0029
X2.6354 Y2.7027 Z-0.0053
X2.6372 Y2.7019 Z-0.0073
X2.6394 Y2.701 Z-0.0088
X2.6418 Y2.6999 Z-0.0097
X2.6444 Y2.6988 Z-0.01
X2.6559 Y2.6939
G3 X2.6723 Y2.7005 I0.0049 J0.0115
X2.6242 Y2.721 I-0.024 J0.0103
X2.6724 Y2.7005 I0.0241 J-0.0102
X2.6657 Y2.717 I-0.0116 J0.0049
G1 X2.6542 Y2.7218
X2.6516 Y2.7229 Z-0.0097
X2.6492 Y2.724 Z-0.0088
X2.647 Y2.7249 Z-0.0073
X2.6452 Y2.7257 Z-0.0053
X2.6438 Y2.7262 Z-0.0029
X2.6429 Y2.7266 Z-0.0003
X2.6427 Y2.7267 Z0.0025
X2.6329 Y2.7037
Z-0.0025
X2.6332 Y2.7036 Z-0.0053
X2.634 Y2.7032 Z-0.0079
X2.6354 Y2.7027 Z-0.0103
X2.6372 Y2.7019 Z-0.0123
X2.6394 Y2.701 Z-0.0138
X2.6418 Y2.6999 Z-0.0147
X2.6444 Y2.6988 Z-0.015
X2.6559 Y2.6939
G3 X2.6723 Y2.7005 I0.0049 J0.0115
X2.6242 Y2.721 I-0.024 J0.0103
X2.6724 Y2.7005 I0.0241 J-0.0102
X2.6657 Y2.717 I-0.0116 J0.0049
G1 X2.6542 Y2.7218
X2.6516 Y2.7229 Z-0.0147
X2.6492 Y2.724 Z-0.0138
X2.647 Y2.7249 Z-0.0123
X2.6452 Y2.7257 Z-0.0103
X2.6438 Y2.7262 Z-0.0079
X2.6429 Y2.7266 Z-0.0053
X2.6427 Y2.7267 Z-0.0025
X2.6329 Y2.7037
Z-0.0075
X2.6332 Y2.7036 Z-0.0103
X2.634 Y2.7032 Z-0.0129
X2.6354 Y2.7027 Z-0.0153
X2.6372 Y2.7019 Z-0.0173
X2.6394 Y2.701 Z-0.0188
X2.6418 Y2.6999 Z-0.0197
X2.6444 Y2.6988 Z-0.02
X2.6559 Y2.6939
G3 X2.6723 Y2.7005 I0.0049 J0.0115
X2.6242 Y2.721 I-0.024 J0.0103
X2.6724 Y2.7005 I0.0241 J-0.0102
X2.6657 Y2.717 I-0.0116 J0.0049
G1 X2.6542 Y2.7218
X2.6516 Y2.7229 Z-0.0197
X2.6492 Y2.724 Z-0.0188
X2.647 Y2.7249 Z-0.0173
X2.6452 Y2.7257 Z-0.0153
X2.6438 Y2.7262 Z-0.0129
X2.6429 Y2.7266 Z-0.0103
X2.6427 Y2.7267 Z-0.0075
X2.6329 Y2.7037
Z-0.0125
X2.6332 Y2.7036 Z-0.0153
X2.634 Y2.7032 Z-0.0179
X2.6354 Y2.7027 Z-0.0203
X2.6372 Y2.7019 Z-0.0223
X2.6394 Y2.701 Z-0.0238
X2.6418 Y2.6999 Z-0.0247
X2.6444 Y2.6988 Z-0.025
X2.6559 Y2.6939
G3 X2.6723 Y2.7005 I0.0049 J0.0115
X2.6242 Y2.721 I-0.024 J0.0103
X2.6724 Y2.7005 I0.0241 J-0.0102
X2.6657 Y2.717 I-0.0116 J0.0049
G1 X2.6542 Y2.7218
X2.6516 Y2.7229 Z-0.0247
X2.6492 Y2.724 Z-0.0238
X2.647 Y2.7249 Z-0.0223
X2.6452 Y2.7257 Z-0.0203
X2.6438 Y2.7262 Z-0.0179
X2.6429 Y2.7266 Z-0.0153
X2.6427 Y2.7267 Z-0.0125
X2.6329 Y2.7037
Z-0.0175
X2.6332 Y2.7036 Z-0.0203
X2.634 Y2.7032 Z-0.0229
X2.6354 Y2.7027 Z-0.0253
X2.6372 Y2.7019 Z-0.0273
X2.6394 Y2.701 Z-0.0288
X2.6418 Y2.6999 Z-0.0297
X2.6444 Y2.6988 Z-0.03
X2.6559 Y2.6939
G3 X2.6723 Y2.7005 I0.0049 J0.0115
X2.6242 Y2.721 I-0.024 J0.0103
X2.6724 Y2.7005 I0.0241 J-0.0102
X2.6657 Y2.717 I-0.0116 J0.0049
G1 X2.6542 Y2.7218
X2.6516 Y2.7229 Z-0.0297
X2.6492 Y2.724 Z-0.0288
X2.647 Y2.7249 Z-0.0273
X2.6452 Y2.7257 Z-0.0253
X2.6438 Y2.7262 Z-0.0229
X2.6429 Y2.7266 Z-0.0203
X2.6427 Y2.7267 Z-0.0175
X2.6329 Y2.7037
Z-0.0225
X2.6332 Y2.7036 Z-0.0253
X2.634 Y2.7032 Z-0.0279
X2.6354 Y2.7027 Z-0.0303
X2.6372 Y2.7019 Z-0.0323
X2.6394 Y2.701 Z-0.0338
X2.6418 Y2.6999 Z-0.0347
X2.6444 Y2.6988 Z-0.035
X2.6559 Y2.6939
G3 X2.6723 Y2.7005 I0.0049 J0.0115
X2.6242 Y2.721 I-0.024 J0.0103
X2.6724 Y2.7005 I0.0241 J-0.0102
X2.6657 Y2.717 I-0.0116 J0.0049
G1 X2.6542 Y2.7218
X2.6516 Y2.7229 Z-0.0347
X2.6492 Y2.724 Z-0.0338
X2.647 Y2.7249 Z-0.0323
X2.6452 Y2.7257 Z-0.0303
X2.6438 Y2.7262 Z-0.0279
X2.6429 Y2.7266 Z-0.0253
X2.6427 Y2.7267 Z-0.0225
X2.6329 Y2.7037
Z-0.0275
X2.6332 Y2.7036 Z-0.0303
X2.634 Y2.7032 Z-0.0329
X2.6354 Y2.7027 Z-0.0353
X2.6372 Y2.7019 Z-0.0373
X2.6394 Y2.701 Z-0.0388
X2.6418 Y2.6999 Z-0.0397
X2.6444 Y2.6988 Z-0.04
X2.6559 Y2.6939
G3 X2.6723 Y2.7005 I0.0049 J0.0115
X2.6242 Y2.721 I-0.024 J0.0103
X2.6724 Y2.7005 I0.0241 J-0.0102
X2.6657 Y2.717 I-0.0116 J0.0049
G1 X2.6542 Y2.7218
X2.6516 Y2.7229 Z-0.0397
X2.6492 Y2.724 Z-0.0388
X2.647 Y2.7249 Z-0.0373
X2.6452 Y2.7257 Z-0.0353
X2.6438 Y2.7262 Z-0.0329
X2.6429 Y2.7266 Z-0.0303
X2.6427 Y2.7267 Z-0.0275
X2.6329 Y2.7037
Z-0.0325
X2.6332 Y2.7036 Z-0.0353
X2.634 Y2.7032 Z-0.0379
X2.6354 Y2.7027 Z-0.0403
X2.6372 Y2.7019 Z-0.0423
X2.6394 Y2.701 Z-0.0438
X2.6418 Y2.6999 Z-0.0447
X2.6444 Y2.6988 Z-0.045
X2.6559 Y2.6939
G3 X2.6723 Y2.7005 I0.0049 J0.0115
X2.6242 Y2.721 I-0.024 J0.0103
X2.6724 Y2.7005 I0.0241 J-0.0102
X2.6657 Y2.717 I-0.0116 J0.0049
G1 X2.6542 Y2.7218
X2.6516 Y2.7229 Z-0.0447
X2.6492 Y2.724 Z-0.0438
X2.647 Y2.7249 Z-0.0423
X2.6452 Y2.7257 Z-0.0403
X2.6438 Y2.7262 Z-0.0379
X2.6429 Y2.7266 Z-0.0353
X2.6427 Y2.7267 Z-0.0325
X2.6329 Y2.7037
Z-0.0375
X2.6332 Y2.7036 Z-0.0403
X2.634 Y2.7032 Z-0.0429
X2.6354 Y2.7027 Z-0.0453
X2.6372 Y2.7019 Z-0.0473
X2.6394 Y2.701 Z-0.0488
X2.6418 Y2.6999 Z-0.0497
X2.6444 Y2.6988 Z-0.05
X2.6559 Y2.6939
G3 X2.6723 Y2.7005 I0.0049 J0.0115
X2.6242 Y2.721 I-0.024 J0.0103
X2.6724 Y2.7005 I0.0241 J-0.0102
X2.6657 Y2.717 I-0.0116 J0.0049
G1 X2.6542 Y2.7218
X2.6516 Y2.7229 Z-0.0497
X2.6492 Y2.724 Z-0.0488
X2.647 Y2.7249 Z-0.0473
X2.6452 Y2.7257 Z-0.0453
X2.6438 Y2.7262 Z-0.0429
X2.6429 Y2.7266 Z-0.0403
X2.6427 Y2.7267 Z-0.0375
X2.6329 Y2.7037
Z-0.0425
X2.6332 Y2.7036 Z-0.0453
X2.634 Y2.7032 Z-0.0479
X2.6354 Y2.7027 Z-0.0503
X2.6372 Y2.7019 Z-0.0523
X2.6394 Y2.701 Z-0.0538
X2.6418 Y2.6999 Z-0.0547
X2.6444 Y2.6988 Z-0.055
X2.6559 Y2.6939
G3 X2.6723 Y2.7005 I0.0049 J0.0115
X2.6242 Y2.721 I-0.024 J0.0103
X2.6724 Y2.7005 I0.0241 J-0.0102
X2.6657 Y2.717 I-0.0116 J0.0049
G1 X2.6542 Y2.7218
X2.6516 Y2.7229 Z-0.0547
X2.6492 Y2.724 Z-0.0538
X2.647 Y2.7249 Z-0.0523
X2.6452 Y2.7257 Z-0.0503
X2.6438 Y2.7262 Z-0.0479
X2.6429 Y2.7266 Z-0.0453
X2.6427 Y2.7267 Z-0.0425
X2.6329 Y2.7037
Z-0.0475
X2.6332 Y2.7036 Z-0.0503
X2.634 Y2.7032 Z-0.0529
X2.6354 Y2.7027 Z-0.0553
X2.6372 Y2.7019 Z-0.0573
X2.6394 Y2.701 Z-0.0588
X2.6418 Y2.6999 Z-0.0597
X2.6444 Y2.6988 Z-0.06
X2.6559 Y2.6939
G3 X2.6723 Y2.7005 I0.0049 J0.0115
X2.6242 Y2.721 I-0.024 J0.0103
X2.6724 Y2.7005 I0.0241 J-0.0102
X2.6657 Y2.717 I-0.0116 J0.0049
G1 X2.6542 Y2.7218
X2.6516 Y2.7229 Z-0.0597
X2.6492 Y2.724 Z-0.0588
X2.647 Y2.7249 Z-0.0573
X2.6452 Y2.7257 Z-0.0553
X2.6438 Y2.7262 Z-0.0529
X2.6429 Y2.7266 Z-0.0503
X2.6427 Y2.7267 Z-0.0475
X2.6329 Y2.7037
Z-0.0525
X2.6332 Y2.7036 Z-0.0553
X2.634 Y2.7032 Z-0.0579
X2.6354 Y2.7027 Z-0.0603
X2.6372 Y2.7019 Z-0.0623
X2.6394 Y2.701 Z-0.0638
X2.6418 Y2.6999 Z-0.0647
X2.6444 Y2.6988 Z-0.065
X2.6559 Y2.6939
G3 X2.6723 Y2.7005 I0.0049 J0.0115
X2.6242 Y2.721 I-0.024 J0.0103
X2.6724 Y2.7005 I0.0241 J-0.0102
X2.6657 Y2.717 I-0.0116 J0.0049
G1 X2.6542 Y2.7218
X2.6516 Y2.7229 Z-0.0647
X2.6492 Y2.724 Z-0.0638
X2.647 Y2.7249 Z-0.0623
X2.6452 Y2.7257 Z-0.0603
X2.6438 Y2.7262 Z-0.0579
X2.6429 Y2.7266 Z-0.0553
X2.6427 Y2.7267 Z-0.0525
X2.6329 Y2.7037
Z-0.0575
X2.6332 Y2.7036 Z-0.0603
X2.634 Y2.7032 Z-0.0629
X2.6354 Y2.7027 Z-0.0653
X2.6372 Y2.7019 Z-0.0673
X2.6394 Y2.701 Z-0.0688
X2.6418 Y2.6999 Z-0.0697
X2.6444 Y2.6988 Z-0.07
X2.6559 Y2.6939
G3 X2.6723 Y2.7005 I0.0049 J0.0115
X2.6242 Y2.721 I-0.024 J0.0103
X2.6724 Y2.7005 I0.0241 J-0.0102
X2.6657 Y2.717 I-0.0116 J0.0049
G1 X2.6542 Y2.7218
X2.6516 Y2.7229 Z-0.0697
X2.6492 Y2.724 Z-0.0688
X2.647 Y2.7249 Z-0.0673
X2.6452 Y2.7257 Z-0.0653
X2.6438 Y2.7262 Z-0.0629
X2.6429 Y2.7266 Z-0.0603
X2.6427 Y2.7267 Z-0.0575
X2.6329 Y2.7037
Z-0.0615
X2.6332 Y2.7036 Z-0.0643
X2.634 Y2.7032 Z-0.0669
X2.6354 Y2.7027 Z-0.0693
X2.6372 Y2.7019 Z-0.0713
X2.6394 Y2.701 Z-0.0728
X2.6418 Y2.6999 Z-0.0737
X2.6444 Y2.6988 Z-0.074
X2.6559 Y2.6939
G3 X2.6723 Y2.7005 I0.0049 J0.0115
X2.6242 Y2.721 I-0.024 J0.0103
X2.6724 Y2.7005 I0.0241 J-0.0102
X2.6657 Y2.717 I-0.0116 J0.0049
G1 X2.6542 Y2.7218
X2.6516 Y2.7229 Z-0.0737
X2.6492 Y2.724 Z-0.0728
X2.647 Y2.7249 Z-0.0713
X2.6452 Y2.7257 Z-0.0693
X2.6438 Y2.7262 Z-0.0669
X2.6429 Y2.7266 Z-0.0643
X2.6427 Y2.7267 Z-0.0615
G0 Z1
X2.6514 Y1.4878
G1 Z0.0075 F15
X2.6516 Y1.4881 Z0.0047
X2.6521 Y1.4888 Z0.0021
X2.653 Y1.49 Z-0.0003
X2.6542 Y1.4916 Z-0.0023
X2.6556 Y1.4935 Z-0.0038
X2.6572 Y1.4956 Z-0.0047
X2.6589 Y1.4978 Z-0.005
X2.6664 Y1.5078
G3 X2.6639 Y1.5253 I-0.01 J0.0075
X2.6327 Y1.4837 I-0.0156 J-0.0208
X2.6639 Y1.5253 I0.0156 J0.0208
X2.6464 Y1.5228 I-0.0075 J-0.01
G1 X2.6389 Y1.5128
X2.6373 Y1.5106 Z-0.0047
X2.6357 Y1.5085 Z-0.0038
X2.6343 Y1.5066 Z-0.0023
X2.6331 Y1.505 Z-0.0003
X2.6322 Y1.5038 Z0.0021
X2.6316 Y1.5031 Z0.0047
X2.6314 Y1.5029 Z0.0075
X2.6514 Y1.4878
Z0.0025
X2.6516 Y1.4881 Z-0.0003
X2.6521 Y1.4888 Z-0.0029
X2.653 Y1.49 Z-0.0053
X2.6542 Y1.4916 Z-0.0073
X2.6556 Y1.4935 Z-0.0088
X2.6572 Y1.4956 Z-0.0097
X2.6589 Y1.4978 Z-0.01
X2.6664 Y1.5078
G3 X2.6639 Y1.5253 I-0.01 J0.0075
X2.6327 Y1.4837 I-0.0156 J-0.0208
X2.6639 Y1.5253 I0.0156 J0.0208
X2.6464 Y1.5228 I-0.0075 J-0.01
G1 X2.6389 Y1.5128
X2.6373 Y1.5106 Z-0.0097
X2.6357 Y1.5085 Z-0.0088
X2.6343 Y1.5066 Z-0.0073
X2.6331 Y1.505 Z-0.0053
X2.6322 Y1.5038 Z-0.0029
X2.6316 Y1.5031 Z-0.0003
X2.6314 Y1.5029 Z0.0025
X2.6514 Y1.4878
Z-0.0025
X2.6516 Y1.4881 Z-0.0053
X2.6521 Y1.4888 Z-0.0079
X2.653 Y1.49 Z-0.0103
X2.6542 Y1.4916 Z-0.0123
X2.6556 Y1.4935 Z-0.0138
X2.6572 Y1.4956 Z-0.0147
X2.6589 Y1.4978 Z-0.015
X2.6664 Y1.5078
G3 X2.6639 Y1.5253 I-0.01 J0.0075
X2.6327 Y1.4837 I-0.0156 J-0.0208
X2.6639 Y1.5253 I0.0156 J0.0208
X2.6464 Y1.5228 I-0.0075 J-0.01
G1 X2.6389 Y1.5128
X2.6373 Y1.5106 Z-0.0147
X2.6357 Y1.5085 Z-0.0138
X2.6343 Y1.5066 Z-0.0123
X2.6331 Y1.505 Z-0.0103
X2.6322 Y1.5038 Z-0.0079
X2.6316 Y1.5031 Z-0.0053
X2.6314 Y1.5029 Z-0.0025
X2.6514 Y1.4878
Z-0.0075
X2.6516 Y1.4881 Z-0.0103
X2.6521 Y1.4888 Z-0.0129
X2.653 Y1.49 Z-0.0153
X2.6542 Y1.4916 Z-0.0173
X2.6556 Y1.4935 Z-0.0188
X2.6572 Y1.4956 Z-0.0197
X2.6589 Y1.4978 Z-0.02
X2.6664 Y1.5078
G3 X2.6639 Y1.5253 I-0.01 J0.0075
X2.6327 Y1.4837 I-0.0156 J-0.0208
X2.6639 Y1.5253 I0.0156 J0.0208
X2.6464 Y1.5228 I-0.0075 J-0.01
G1 X2.6389 Y1.5128
X2.6373 Y1.5106 Z-0.0197
X2.6357 Y1.5085 Z-0.0188
X2.6343 Y1.5066 Z-0.0173
X2.6331 Y1.505 Z-0.0153
X2.6322 Y1.5038 Z-0.0129
X2.6316 Y1.5031 Z-0.0103
X2.6314 Y1.5029 Z-0.0075
X2.6514 Y1.4878
Z-0.0125
X2.6516 Y1.4881 Z-0.0153
X2.6521 Y1.4888 Z-0.0179
X2.653 Y1.49 Z-0.0203
X2.6542 Y1.4916 Z-0.0223
X2.6556 Y1.4935 Z-0.0238
X2.6572 Y1.4956 Z-0.0247
X2.6589 Y1.4978 Z-0.025
X2.6664 Y1.5078
G3 X2.6639 Y1.5253 I-0.01 J0.0075
X2.6327 Y1.4837 I-0.0156 J-0.0208
X2.6639 Y1.5253 I0.0156 J0.0208
X2.6464 Y1.5228 I-0.0075 J-0.01
G1 X2.6389 Y1.5128
X2.6373 Y1.5106 Z-0.0247
X2.6357 Y1.5085 Z-0.0238
X2.6343 Y1.5066 Z-0.0223
X2.6331 Y1.505 Z-0.0203
X2.6322 Y1.5038 Z-0.0179
X2.6316 Y1.5031 Z-0.0153
X2.6314 Y1.5029 Z-0.0125
X2.6514 Y1.4878
Z-0.0175
X2.6516 Y1.4881 Z-0.0203
X2.6521 Y1.4888 Z-0.0229
X2.653 Y1.49 Z-0.0253
X2.6542 Y1.4916 Z-0.0273
X2.6556 Y1.4935 Z-0.0288
X2.6572 Y1.4956 Z-0.0297
X2.6589 Y1.4978 Z-0.03
X2.6664 Y1.5078
G3 X2.6639 Y1.5253 I-0.01 J0.0075
X2.6327 Y1.4837 I-0.0156 J-0.0208
X2.6639 Y1.5253 I0.0156 J0.0208
X2.6464 Y1.5228 I-0.0075 J-0.01
G1 X2.6389 Y1.5128
X2.6373 Y1.5106 Z-0.0297
X2.6357 Y1.5085 Z-0.0288
X2.6343 Y1.5066 Z-0.0273
X2.6331 Y1.505 Z-0.0253
X2.6322 Y1.5038 Z-0.0229
X2.6316 Y1.5031 Z-0.0203
X2.6314 Y1.5029 Z-0.0175
X2.6514 Y1.4878
Z-0.0225
X2.6516 Y1.4881 Z-0.0253
X2.6521 Y1.4888 Z-0.0279
X2.653 Y1.49 Z-0.0303
X2.6542 Y1.4916 Z-0.0323
X2.6556 Y1.4935 Z-0.0338
X2.6572 Y1.4956 Z-0.0347
X2.6589 Y1.4978 Z-0.035
X2.6664 Y1.5078
G3 X2.6639 Y1.5253 I-0.01 J0.0075
X2.6327 Y1.4837 I-0.0156 J-0.0208
X2.6639 Y1.5253 I0.0156 J0.0208
X2.6464 Y1.5228 I-0.0075 J-0.01
G1 X2.6389 Y1.5128
X2.6373 Y1.5106 Z-0.0347
X2.6357 Y1.5085 Z-0.0338
X2.6343 Y1.5066 Z-0.0323
X2.6331 Y1.505 Z-0.0303
X2.6322 Y1.5038 Z-0.0279
X2.6316 Y1.5031 Z-0.0253
X2.6314 Y1.5029 Z-0.0225
X2.6514 Y1.4878
Z-0.0275
X2.6516 Y1.4881 Z-0.0303
X2.6521 Y1.4888 Z-0.0329
X2.653 Y1.49 Z-0.0353
X2.6542 Y1.4916 Z-0.0373
X2.6556 Y1.4935 Z-0.0388
X2.6572 Y1.4956 Z-0.0397
X2.6589 Y1.4978 Z-0.04
X2.6664 Y1.5078
G3 X2.6639 Y1.5253 I-0.01 J0.0075
X2.6327 Y1.4837 I-0.0156 J-0.0208
X2.6639 Y1.5253 I0.0156 J0.0208
X2.6464 Y1.5228 I-0.0075 J-0.01
G1 X2.6389 Y1.5128
X2.6373 Y1.5106 Z-0.0397
X2.6357 Y1.5085 Z-0.0388
X2.6343 Y1.5066 Z-0.0373
X2.6331 Y1.505 Z-0.0353
X2.6322 Y1.5038 Z-0.0329
X2.6316 Y1.5031 Z-0.0303
X2.6314 Y1.5029 Z-0.0275
X2.6514 Y1.4878
Z-0.0325
X2.6516 Y1.4881 Z-0.0353
X2.6521 Y1.4888 Z-0.0379
X2.653 Y1.49 Z-0.0403
X2.6542 Y1.4916 Z-0.0423
X2.6556 Y1.4935 Z-0.0438
X2.6572 Y1.4956 Z-0.0447
X2.6589 Y1.4978 Z-0.045
X2.6664 Y1.5078
G3 X2.6639 Y1.5253 I-0.01 J0.0075
X2.6327 Y1.4837 I-0.0156 J-0.0208
X2.6639 Y1.5253 I0.0156 J0.0208
X2.6464 Y1.5228 I-0.0075 J-0.01
G1 X2.6389 Y1.5128
X2.6373 Y1.5106 Z-0.0447
X2.6357 Y1.5085 Z-0.0438
X2.6343 Y1.5066 Z-0.0423
X2.6331 Y1.505 Z-0.0403
X2.6322 Y1.5038 Z-0.0379
X2.6316 Y1.5031 Z-0.0353
X2.6314 Y1.5029 Z-0.0325
X2.6514 Y1.4878
Z-0.0375
X2.6516 Y1.4881 Z-0.0403
X2.6521 Y1.4888 Z-0.0429
X2.653 Y1.49 Z-0.0453
X2.6542 Y1.4916 Z-0.0473
X2.6556 Y1.4935 Z-0.0488
X2.6572 Y1.4956 Z-0.0497
X2.6589 Y1.4978 Z-0.05
X2.6664 Y1.5078
G3 X2.6639 Y1.5253 I-0.01 J0.0075
X2.6327 Y1.4837 I-0.0156 J-0.0208
X2.6639 Y1.5253 I0.0156 J0.0208
X2.6464 Y1.5228 I-0.0075 J-0.01
G1 X2.6389 Y1.5128
X2.6373 Y1.5106 Z-0.0497
X2.6357 Y1.5085 Z-0.0488
X2.6343 Y1.5066 Z-0.0473
X2.6331 Y1.505 Z-0.0453
X2.6322 Y1.5038 Z-0.0429
X2.6316 Y1.5031 Z-0.0403
X2.6314 Y1.5029 Z-0.0375
X2.6514 Y1.4878
Z-0.0425
X2.6516 Y1.4881 Z-0.0453
X2.6521 Y1.4888 Z-0.0479
X2.653 Y1.49 Z-0.0503
X2.6542 Y1.4916 Z-0.0523
X2.6556 Y1.4935 Z-0.0538
X2.6572 Y1.4956 Z-0.0547
X2.6589 Y1.4978 Z-0.055
X2.6664 Y1.5078
G3 X2.6639 Y1.5253 I-0.01 J0.0075
X2.6327 Y1.4837 I-0.0156 J-0.0208
X2.6639 Y1.5253 I0.0156 J0.0208
X2.6464 Y1.5228 I-0.0075 J-0.01
G1 X2.6389 Y1.5128
X2.6373 Y1.5106 Z-0.0547
X2.6357 Y1.5085 Z-0.0538
X2.6343 Y1.5066 Z-0.0523
X2.6331 Y1.505 Z-0.0503
X2.6322 Y1.5038 Z-0.0479
X2.6316 Y1.5031 Z-0.0453
X2.6314 Y1.5029 Z-0.0425
X2.6514 Y1.4878
Z-0.0475
X2.6516 Y1.4881 Z-0.0503
X2.6521 Y1.4888 Z-0.0529
X2.653 Y1.49 Z-0.0553
X2.6542 Y1.4916 Z-0.0573
X2.6556 Y1.4935 Z-0.0588
X2.6572 Y1.4956 Z-0.0597
X2.6589 Y1.4978 Z-0.06
X2.6664 Y1.5078
G3 X2.6639 Y1.5253 I-0.01 J0.0075
X2.6327 Y1.4837 I-0.0156 J-0.0208
X2.6639 Y1.5253 I0.0156 J0.0208
X2.6464 Y1.5228 I-0.0075 J-0.01
G1 X2.6389 Y1.5128
X2.6373 Y1.5106 Z-0.0597
X2.6357 Y1.5085 Z-0.0588
X2.6343 Y1.5066 Z-0.0573
X2.6331 Y1.505 Z-0.0553
X2.6322 Y1.5038 Z-0.0529
X2.6316 Y1.5031 Z-0.0503
X2.6314 Y1.5029 Z-0.0475
X2.6514 Y1.4878
Z-0.0525
X2.6516 Y1.4881 Z-0.0553
X2.6521 Y1.4888 Z-0.0579
X2.653 Y1.49 Z-0.0603
X2.6542 Y1.4916 Z-0.0623
X2.6556 Y1.4935 Z-0.0638
X2.6572 Y1.4956 Z-0.0647
X2.6589 Y1.4978 Z-0.065
X2.6664 Y1.5078
G3 X2.6639 Y1.5253 I-0.01 J0.0075
X2.6327 Y1.4837 I-0.0156 J-0.0208
X2.6639 Y1.5253 I0.0156 J0.0208
X2.6464 Y1.5228 I-0.0075 J-0.01
G1 X2.6389 Y1.5128
X2.6373 Y1.5106 Z-0.0647
X2.6357 Y1.5085 Z-0.0638
X2.6343 Y1.5066 Z-0.0623
X2.6331 Y1.505 Z-0.0603
X2.6322 Y1.5038 Z-0.0579
X2.6316 Y1.5031 Z-0.0553
X2.6314 Y1.5029 Z-0.0525
X2.6514 Y1.4878
Z-0.0575
X2.6516 Y1.4881 Z-0.0603
X2.6521 Y1.4888 Z-0.0629
X2.653 Y1.49 Z-0.0653
X2.6542 Y1.4916 Z-0.0673
X2.6556 Y1.4935 Z-0.0688
X2.6572 Y1.4956 Z-0.0697
X2.6589 Y1.4978 Z-0.07
X2.6664 Y1.5078
G3 X2.6639 Y1.5253 I-0.01 J0.0075
X2.6327 Y1.4837 I-0.0156 J-0.0208
X2.6639 Y1.5253 I0.0156 J0.0208
X2.6464 Y1.5228 I-0.0075 J-0.01
G1 X2.6389 Y1.5128
X2.6373 Y1.5106 Z-0.0697
X2.6357 Y1.5085 Z-0.0688
X2.6343 Y1.5066 Z-0.0673
X2.6331 Y1.505 Z-0.0653
X2.6322 Y1.5038 Z-0.0629
X2.6316 Y1.5031 Z-0.0603
X2.6314 Y1.5029 Z-0.0575
X2.6514 Y1.4878
Z-0.0615
X2.6516 Y1.4881 Z-0.0643
X2.6521 Y1.4888 Z-0.0669
X2.653 Y1.49 Z-0.0693
X2.6542 Y1.4916 Z-0.0713
X2.6556 Y1.4935 Z-0.0728
X2.6572 Y1.4956 Z-0.0737
X2.6589 Y1.4978 Z-0.074
X2.6664 Y1.5078
G3 X2.6639 Y1.5253 I-0.01 J0.0075
X2.6327 Y1.4837 I-0.0156 J-0.0208
X2.6639 Y1.5253 I0.0156 J0.0208
X2.6464 Y1.5228 I-0.0075 J-0.01
G1 X2.6389 Y1.5128
X2.6373 Y1.5106 Z-0.0737
X2.6357 Y1.5085 Z-0.0728
X2.6343 Y1.5066 Z-0.0713
X2.6331 Y1.505 Z-0.0693
X2.6322 Y1.5038 Z-0.0669
X2.6316 Y1.5031 Z-0.0643
X2.6314 Y1.5029 Z-0.0615
G0 Z1

(Drill1)
X4.084 Y0.2383
Z0.6
Z0.2
G1 Z-0.074 F15
G0 Z0.2
X1.2031
G1 Z-0.074 F15
G0 Z0.2
Z0.6
M9

(2D Contour1)
X-0.1 Y1.2951
Z0.6
Z0.2
G1 Z0.08 F15
Z0.0075
G18 G2 X-0.0875 Z-0.005 I0.0125 K0
G1 X-0.075
G17 G3 X-0.0625 Y1.3076 I0 J0.0125
G1 Y2.9076
G2 X0 Y2.9701 I0.0625 J0
G1 X5.3
G2 X5.3625 Y2.9076 I0 J-0.0625
G1 Y1.3076
G2 X5.3 Y1.2451 I-0.0625 J0
G1 X4.5775
Y0
G2 X4.515 Y-0.0625 I-0.0625 J0
G1 X3.675
G2 X3.6125 Y0 I0 J0.0625
G1 Y1.2451
X1.6875
Y0
G2 X1.625 Y-0.0625 I-0.0625 J0
G1 X0.785
G2 X0.7225 Y0 I0 J0.0625
G1 Y1.2451
X0
G2 X-0.0625 Y1.3076 I0 J0.0625
G3 X-0.075 Y1.3201 I-0.0125 J0
G1 X-0.0875
G18 G3 X-0.1 Z0.0075 I0 K0.0125
G1 Y1.2951
Z0.0025
G2 X-0.0875 Z-0.01 I0.0125 K0
G1 X-0.075
G17 G3 X-0.0625 Y1.3076 I0 J0.0125
G1 Y2.9076
G2 X0 Y2.9701 I0.0625 J0
G1 X5.3
G2 X5.3625 Y2.9076 I0 J-0.0625
G1 Y1.3076
G2 X5.3 Y1.2451 I-0.0625 J0
G1 X4.5775
Y0
G2 X4.515 Y-0.0625 I-0.0625 J0
G1 X3.675
G2 X3.6125 Y0 I0 J0.0625
G1 Y1.2451
X1.6875
Y0
G2 X1.625 Y-0.0625 I-0.0625 J0
G1 X0.785
G2 X0.7225 Y0 I0 J0.0625
G1 Y1.2451
X0
G2 X-0.0625 Y1.3076 I0 J0.0625
G3 X-0.075 Y1.3201 I-0.0125 J0
G1 X-0.0875
G18 G3 X-0.1 Z0.0025 I0 K0.0125
G1 Y1.2951
Z-0.0025
G2 X-0.0875 Z-0.015 I0.0125 K0
G1 X-0.075
G17 G3 X-0.0625 Y1.3076 I0 J0.0125
G1 Y2.9076
G2 X0 Y2.9701 I0.0625 J0
G1 X5.3
G2 X5.3625 Y2.9076 I0 J-0.0625
G1 Y1.3076
G2 X5.3 Y1.2451 I-0.0625 J0
G1 X4.5775
Y0
G2 X4.515 Y-0.0625 I-0.0625 J0
G1 X3.675
G2 X3.6125 Y0 I0 J0.0625
G1 Y1.2451
X1.6875
Y0
G2 X1.625 Y-0.0625 I-0.0625 J0
G1 X0.785
G2 X0.7225 Y0 I0 J0.0625
G1 Y1.2451
X0
G2 X-0.0625 Y1.3076 I0 J0.0625
G3 X-0.075 Y1.3201 I-0.0125 J0
G1 X-0.0875
G18 G3 X-0.1 Z-0.0025 I0 K0.0125
G1 Y1.2951
Z-0.0075
G2 X-0.0875 Z-0.02 I0.0125 K0
G1 X-0.075
G17 G3 X-0.0625 Y1.3076 I0 J0.0125
G1 Y2.9076
G2 X0 Y2.9701 I0.0625 J0
G1 X5.3
G2 X5.3625 Y2.9076 I0 J-0.0625
G1 Y1.3076
G2 X5.3 Y1.2451 I-0.0625 J0
G1 X4.5775
Y0
G2 X4.515 Y-0.0625 I-0.0625 J0
G1 X3.675
G2 X3.6125 Y0 I0 J0.0625
G1 Y1.2451
X1.6875
Y0
G2 X1.625 Y-0.0625 I-0.0625 J0
G1 X0.785
G2 X0.7225 Y0 I0 J0.0625
G1 Y1.2451
X0
G2 X-0.0625 Y1.3076 I0 J0.0625
G3 X-0.075 Y1.3201 I-0.0125 J0
G1 X-0.0875
G18 G3 X-0.1 Z-0.0075 I0 K0.0125
G1 Y1.2951
Z-0.0125
G2 X-0.0875 Z-0.025 I0.0125 K0
G1 X-0.075
G17 G3 X-0.0625 Y1.3076 I0 J0.0125
G1 Y2.9076
G2 X0 Y2.9701 I0.0625 J0
G1 X5.3
G2 X5.3625 Y2.9076 I0 J-0.0625
G1 Y1.3076
G2 X5.3 Y1.2451 I-0.0625 J0
G1 X4.5775
Y0
G2 X4.515 Y-0.0625 I-0.0625 J0
G1 X3.675
G2 X3.6125 Y0 I0 J0.0625
G1 Y1.2451
X1.6875
Y0
G2 X1.625 Y-0.0625 I-0.0625 J0
G1 X0.785
G2 X0.7225 Y0 I0 J0.0625
G1 Y1.2451
X0
G2 X-0.0625 Y1.3076 I0 J0.0625
G3 X-0.075 Y1.3201 I-0.0125 J0
G1 X-0.0875
G18 G3 X-0.1 Z-0.0125 I0 K0.0125
G1 Y1.2951
Z-0.0175
G2 X-0.0875 Z-0.03 I0.0125 K0
G1 X-0.075
G17 G3 X-0.0625 Y1.3076 I0 J0.0125
G1 Y2.9076
G2 X0 Y2.9701 I0.0625 J0
G1 X5.3
G2 X5.3625 Y2.9076 I0 J-0.0625
G1 Y1.3076
G2 X5.3 Y1.2451 I-0.0625 J0
G1 X4.5775
Y0
G2 X4.515 Y-0.0625 I-0.0625 J0
G1 X3.675
G2 X3.6125 Y0 I0 J0.0625
G1 Y1.2451
X1.6875
Y0
G2 X1.625 Y-0.0625 I-0.0625 J0
G1 X0.785
G2 X0.7225 Y0 I0 J0.0625
G1 Y1.2451
X0
G2 X-0.0625 Y1.3076 I0 J0.0625
G3 X-0.075 Y1.3201 I-0.0125 J0
G1 X-0.0875
G18 G3 X-0.1 Z-0.0175 I0 K0.0125
G1 Y1.2951
Z-0.0225
G2 X-0.0875 Z-0.035 I0.0125 K0
G1 X-0.075
G17 G3 X-0.0625 Y1.3076 I0 J0.0125
G1 Y2.9076
G2 X0 Y2.9701 I0.0625 J0
G1 X5.3
G2 X5.3625 Y2.9076 I0 J-0.0625
G1 Y1.3076
G2 X5.3 Y1.2451 I-0.0625 J0
G1 X4.5775
Y0
G2 X4.515 Y-0.0625 I-0.0625 J0
G1 X3.675
G2 X3.6125 Y0 I0 J0.0625
G1 Y1.2451
X1.6875
Y0
G2 X1.625 Y-0.0625 I-0.0625 J0
G1 X0.785
G2 X0.7225 Y0 I0 J0.0625
G1 Y1.2451
X0
G2 X-0.0625 Y1.3076 I0 J0.0625
G3 X-0.075 Y1.3201 I-0.0125 J0
G1 X-0.0875
G18 G3 X-0.1 Z-0.0225 I0 K0.0125
G1 Y1.2951
Z-0.0275
G2 X-0.0875 Z-0.04 I0.0125 K0
G1 X-0.075
G17 G3 X-0.0625 Y1.3076 I0 J0.0125
G1 Y2.9076
G2 X0 Y2.9701 I0.0625 J0
G1 X5.3
G2 X5.3625 Y2.9076 I0 J-0.0625
G1 Y1.3076
G2 X5.3 Y1.2451 I-0.0625 J0
G1 X4.5775
Y0
G2 X4.515 Y-0.0625 I-0.0625 J0
G1 X3.675
G2 X3.6125 Y0 I0 J0.0625
G1 Y1.2451
X1.6875
Y0
G2 X1.625 Y-0.0625 I-0.0625 J0
G1 X0.785
G2 X0.7225 Y0 I0 J0.0625
G1 Y1.2451
X0
G2 X-0.0625 Y1.3076 I0 J0.0625
G3 X-0.075 Y1.3201 I-0.0125 J0
G1 X-0.0875
G18 G3 X-0.1 Z-0.0275 I0 K0.0125
G1 Y1.2951
Z-0.0325
G2 X-0.0875 Z-0.045 I0.0125 K0
G1 X-0.075
G17 G3 X-0.0625 Y1.3076 I0 J0.0125
G1 Y2.9076
G2 X0 Y2.9701 I0.0625 J0
G1 X5.3
G2 X5.3625 Y2.9076 I0 J-0.0625
G1 Y1.3076
G2 X5.3 Y1.2451 I-0.0625 J0
G1 X4.5775
Y0
G2 X4.515 Y-0.0625 I-0.0625 J0
G1 X3.675
G2 X3.6125 Y0 I0 J0.0625
G1 Y1.2451
X1.6875
Y0
G2 X1.625 Y-0.0625 I-0.0625 J0
G1 X0.785
G2 X0.7225 Y0 I0 J0.0625
G1 Y1.2451
X0
G2 X-0.0625 Y1.3076 I0 J0.0625
G3 X-0.075 Y1.3201 I-0.0125 J0
G1 X-0.0875
G18 G3 X-0.1 Z-0.0325 I0 K0.0125
G1 Y1.2951
Z-0.0375
G2 X-0.0875 Z-0.05 I0.0125 K0
G1 X-0.075
G17 G3 X-0.0625 Y1.3076 I0 J0.0125
G1 Y2.9076
G2 X0 Y2.9701 I0.0625 J0
G1 X5.3
G2 X5.3625 Y2.9076 I0 J-0.0625
G1 Y1.3076
G2 X5.3 Y1.2451 I-0.0625 J0
G1 X4.5775
Y0
G2 X4.515 Y-0.0625 I-0.0625 J0
G1 X3.675
G2 X3.6125 Y0 I0 J0.0625
G1 Y1.2451
X1.6875
Y0
G2 X1.625 Y-0.0625 I-0.0625 J0
G1 X0.785
G2 X0.7225 Y0 I0 J0.0625
G1 Y1.2451
X0
G2 X-0.0625 Y1.3076 I0 J0.0625
G3 X-0.075 Y1.3201 I-0.0125 J0
G1 X-0.0875
G18 G3 X-0.1 Z-0.0375 I0 K0.0125
G1 Y1.2951
Z-0.0425
G2 X-0.0875 Z-0.055 I0.0125 K0
G1 X-0.075
G17 G3 X-0.0625 Y1.3076 I0 J0.0125
G1 Y2.9076
G2 X0 Y2.9701 I0.0625 J0
G1 X5.3
G2 X5.3625 Y2.9076 I0 J-0.0625
G1 Y1.3076
G2 X5.3 Y1.2451 I-0.0625 J0
G1 X4.5775
Y0
G2 X4.515 Y-0.0625 I-0.0625 J0
G1 X3.675
G2 X3.6125 Y0 I0 J0.0625
G1 Y1.2451
X1.6875
Y0
G2 X1.625 Y-0.0625 I-0.0625 J0
G1 X0.785
G2 X0.7225 Y0 I0 J0.0625
G1 Y1.2451
X0
G2 X-0.0625 Y1.3076 I0 J0.0625
G3 X-0.075 Y1.3201 I-0.0125 J0
G1 X-0.0875
G18 G3 X-0.1 Z-0.0425 I0 K0.0125
G1 Y1.2951
Z-0.0475
G2 X-0.0875 Z-0.06 I0.0125 K0
G1 X-0.075
G17 G3 X-0.0625 Y1.3076 I0 J0.0125
G1 Y2.9076
G2 X0 Y2.9701 I0.0625 J0
G1 X5.3
G2 X5.3625 Y2.9076 I0 J-0.0625
G1 Y1.3076
G2 X5.3 Y1.2451 I-0.0625 J0
G1 X4.5775
Y0
G2 X4.515 Y-0.0625 I-0.0625 J0
G1 X3.675
G2 X3.6125 Y0 I0 J0.0625
G1 Y1.2451
X1.6875
Y0
G2 X1.625 Y-0.0625 I-0.0625 J0
G1 X0.785
G2 X0.7225 Y0 I0 J0.0625
G1 Y1.2451
X0
G2 X-0.0625 Y1.3076 I0 J0.0625
G3 X-0.075 Y1.3201 I-0.0125 J0
G1 X-0.0875
G18 G3 X-0.1 Z-0.0475 I0 K0.0125
G1 Y1.2951
Z-0.0525
G2 X-0.0875 Z-0.065 I0.0125 K0
G1 X-0.075
G17 G3 X-0.0625 Y1.3076 I0 J0.0125
G1 Y2.9076
G2 X0 Y2.9701 I0.0625 J0
G1 X5.3
G2 X5.3625 Y2.9076 I0 J-0.0625
G1 Y1.3076
G2 X5.3 Y1.2451 I-0.0625 J0
G1 X4.5775
Y0
G2 X4.515 Y-0.0625 I-0.0625 J0
G1 X3.675
G2 X3.6125 Y0 I0 J0.0625
G1 Y1.2451
X1.6875
Y0
G2 X1.625 Y-0.0625 I-0.0625 J0
G1 X0.785
G2 X0.7225 Y0 I0 J0.0625
G1 Y1.2451
X0
G2 X-0.0625 Y1.3076 I0 J0.0625
G3 X-0.075 Y1.3201 I-0.0125 J0
G1 X-0.0875
G18 G3 X-0.1 Z-0.0525 I0 K0.0125
G1 Y1.2951
Z-0.0575
G2 X-0.0875 Z-0.07 I0.0125 K0
G1 X-0.075
G17 G3 X-0.0625 Y1.3076 I0 J0.0125
G1 Y2.9076
G2 X0 Y2.9701 I0.0625 J0
G1 X5.3
G2 X5.3625 Y2.9076 I0 J-0.0625
G1 Y1.3076
G2 X5.3 Y1.2451 I-0.0625 J0
G1 X4.5775
Y0
G2 X4.515 Y-0.0625 I-0.0625 J0
G1 X3.675
G2 X3.6125 Y0 I0 J0.0625
G1 Y1.2451
X1.6875
Y0
G2 X1.625 Y-0.0625 I-0.0625 J0
G1 X0.785
G2 X0.7225 Y0 I0 J0.0625
G1 Y1.2451
X0
G2 X-0.0625 Y1.3076 I0 J0.0625
G3 X-0.075 Y1.3201 I-0.0125 J0
G1 X-0.0875
G18 G3 X-0.1 Z-0.0575 I0 K0.0125
G1 Y1.2951
Z-0.0615
G2 X-0.0875 Z-0.074 I0.0125 K0
G1 X-0.075
G17 G3 X-0.0625 Y1.3076 I0 J0.0125
G1 Y2.9076
G2 X0 Y2.9701 I0.0625 J0
G1 X5.3
G2 X5.3625 Y2.9076 I0 J-0.0625
G1 Y1.3076
G2 X5.3 Y1.2451 I-0.0625 J0
G1 X4.5775
Y0
G2 X4.515 Y-0.0625 I-0.0625 J0
G1 X3.675
G2 X3.6125 Y0 I0 J0.0625
G1 Y1.2451
X1.6875
Y0
G2 X1.625 Y-0.0625 I-0.0625 J0
G1 X0.785
G2 X0.7225 Y0 I0 J0.0625
G1 Y1.2451
X0
G2 X-0.0625 Y1.3076 I0 J0.0625
G3 X-0.075 Y1.3201 I-0.0125 J0
G1 X-0.0875
G18 G3 X-0.1 Z-0.0615 I0 K0.0125
G0 Z0.6
G17
G28 G91 Z0
G90
G28 G91 X0 Y0
G90
M30
%
