%
(Doorholes 2)
(T1  D=0.25 CR=0 - ZMIN=-0.0315 - flat end mill)
(T20  D=0.25 CR=0 TAPER=90deg - ZMIN=-0.0965 - countersink)
G90
G17
G20
G28 G91 Z0
G90

(Drill1)
S10000 M3
T20 M6
S5000 M3
G54
G0 X4.7958 Y1.4031
Z2.2
Z0.2
Z0.1925
G1 Z-0.0965 F20
G0 Z0.2
X5.1517
Z0.1925
G1 Z-0.0965 F20
G0 Z0.2
X5.5076
Z0.1925
G1 Z-0.0965 F20
G0 Z0.2
Z2.2

(Drill3)
X3.716 Y2.6693
Z0.9
Z0.2
Z0.1925
G1 Z-0.0665 F20
G0 Z0.2
X6.5969
Z0.1925
G1 Z-0.0665 F20
G0 Z0.2
Z0.9
M5
G28 G91 Z0
G90

(2D Contour2)
T1 M6
S10000 M3
G54
G0 X2.475 Y1.8
Z0.6
Z0.2
G1 Z0.08 F30
Z0.02
G19 G2 Y1.775 Z-0.005 J-0.025 K0 F60
G1 Y1.75
G17 G3 X2.5 Y1.725 I0.025 J0
G1 X3.16
Y2.7896
G2 X3.285 Y2.9146 I0.125 J0
G1 X4.125
G2 X4.25 Y2.7896 I0 J-0.125
G1 Y1.725
X6.05
Y2.7896
G2 X6.175 Y2.9146 I0.125 J0
G1 X7.015
G2 X7.14 Y2.7896 I0 J-0.125
G1 Y1.725
X7.8
G3 X7.825 Y1.75 I0 J0.025
G1 Y1.775
G19 G3 Y1.8 Z0.02 J0 K0.025
G0 Z0.2
X2.475
G1 Z0.075 F30
Z0.015
G2 Y1.775 Z-0.01 J-0.025 K0 F60
G1 Y1.75
G17 G3 X2.5 Y1.725 I0.025 J0
G1 X3.16
Y2.7896
G2 X3.285 Y2.9146 I0.125 J0
G1 X4.125
G2 X4.25 Y2.7896 I0 J-0.125
G1 Y1.725
X6.05
Y2.7896
G2 X6.175 Y2.9146 I0.125 J0
G1 X7.015
G2 X7.14 Y2.7896 I0 J-0.125
G1 Y1.725
X7.8
G3 X7.825 Y1.75 I0 J0.025
G1 Y1.775
G19 G3 Y1.8 Z0.015 J0 K0.025
G0 Z0.2
X2.475
G1 Z0.07 F30
Z0.01
G2 Y1.775 Z-0.015 J-0.025 K0 F60
G1 Y1.75
G17 G3 X2.5 Y1.725 I0.025 J0
G1 X3.16
Y2.7896
G2 X3.285 Y2.9146 I0.125 J0
G1 X4.125
G2 X4.25 Y2.7896 I0 J-0.125
G1 Y1.725
X6.05
Y2.7896
G2 X6.175 Y2.9146 I0.125 J0
G1 X7.015
G2 X7.14 Y2.7896 I0 J-0.125
G1 Y1.725
X7.8
G3 X7.825 Y1.75 I0 J0.025
G1 Y1.775
G19 G3 Y1.8 Z0.01 J0 K0.025
G0 Z0.2
X2.475
G1 Z0.065 F30
Z0.005
G2 Y1.775 Z-0.02 J-0.025 K0 F60
G1 Y1.75
G17 G3 X2.5 Y1.725 I0.025 J0
G1 X3.16
Y2.7896
G2 X3.285 Y2.9146 I0.125 J0
G1 X4.125
G2 X4.25 Y2.7896 I0 J-0.125
G1 Y1.725
X6.05
Y2.7896
G2 X6.175 Y2.9146 I0.125 J0
G1 X7.015
G2 X7.14 Y2.7896 I0 J-0.125
G1 Y1.725
X7.8
G3 X7.825 Y1.75 I0 J0.025
G1 Y1.775
G19 G3 Y1.8 Z0.005 J0 K0.025
G0 Z0.2
X2.475
G1 Z0.06 F30
Z0.0015
G2 Y1.775 Z-0.0235 J-0.025 K0 F60
G1 Y1.75
G17 G3 X2.5 Y1.725 I0.025 J0
G1 X3.16
Y2.7896
G2 X3.285 Y2.9146 I0.125 J0
G1 X4.125
G2 X4.25 Y2.7896 I0 J-0.125
G1 Y1.725
X6.05
Y2.7896
G2 X6.175 Y2.9146 I0.125 J0
G1 X7.015
G2 X7.14 Y2.7896 I0 J-0.125
G1 Y1.725
X7.8
G3 X7.825 Y1.75 I0 J0.025
G1 Y1.775
G19 G3 Y1.8 Z0.0015 J0 K0.025
G0 Z0.2
X2.475
G1 Z0.0565 F30
Z-0.0065
G2 Y1.775 Z-0.0315 J-0.025 K0 F60
G1 Y1.75
G17 G3 X2.5 Y1.725 I0.025 J0
G1 X3.16
Y2.7896
G2 X3.285 Y2.9146 I0.125 J0
G1 X4.125
G2 X4.25 Y2.7896 I0 J-0.125
G1 Y1.725
X6.05
Y2.7896
G2 X6.175 Y2.9146 I0.125 J0
G1 X7.015
G2 X7.14 Y2.7896 I0 J-0.125
G1 Y1.725
X7.8
G3 X7.825 Y1.75 I0 J0.025
G1 Y1.775
G19 G3 Y1.8 Z-0.0065 J0 K0.025
G0 Z0.6
G17
G28 G91 Z0
G90
G28 G91 X0 Y0
G90
M30
%
