%
(Faceplate_Holes_FinalCorner)
(T2  D=0.125 CR=0 - ZMIN=-0.0305 - flat end mill)
G90
G17
G20
G28 G91 Z0
G90

(2D Contour3)
T2 M6
S10000 M3
G54
G0 X2.6055 Y5.4875
Z1.5
G1 Z0.0075 F30
G18 G2 X2.618 Z-0.005 I0.0125 K0
G1 X2.6305
G17 G3 X2.643 Y5.5 I0 J0.0125
X2.2562 I-0.1934 J0
G1 Y4.4961
G3 X2.643 I0.1934 J0
G1 Y5.5
G3 X2.6305 Y5.5125 I-0.0125 J0
G1 X2.618
G18 G3 X2.6055 Z0.0075 I0 K0.0125
G1 Y5.4875
Z0.0025
G2 X2.618 Z-0.01 I0.0125 K0
G1 X2.6305
G17 G3 X2.643 Y5.5 I0 J0.0125
X2.2562 I-0.1934 J0
G1 Y4.4961
G3 X2.643 I0.1934 J0
G1 Y5.5
G3 X2.6305 Y5.5125 I-0.0125 J0
G1 X2.618
G18 G3 X2.6055 Z0.0025 I0 K0.0125
G1 Y5.4875
Z-0.0025
G2 X2.618 Z-0.015 I0.0125 K0
G1 X2.6305
G17 G3 X2.643 Y5.5 I0 J0.0125
X2.2562 I-0.1934 J0
G1 Y4.4961
G3 X2.643 I0.1934 J0
G1 Y5.5
G3 X2.6305 Y5.5125 I-0.0125 J0
G1 X2.618
G18 G3 X2.6055 Z-0.0025 I0 K0.0125
G1 Y5.4875
Z-0.0075
G2 X2.618 Z-0.02 I0.0125 K0
G1 X2.6305
G17 G3 X2.643 Y5.5 I0 J0.0125
X2.2562 I-0.1934 J0
G1 Y4.4961
G3 X2.643 I0.1934 J0
G1 Y5.5
G3 X2.6305 Y5.5125 I-0.0125 J0
G1 X2.618
G18 G3 X2.6055 Z-0.0075 I0 K0.0125
G1 Y5.4875
Z-0.0125
G2 X2.618 Z-0.025 I0.0125 K0
G1 X2.6305
G17 G3 X2.643 Y5.5 I0 J0.0125
X2.2562 I-0.1934 J0
G1 Y4.4961
G3 X2.643 I0.1934 J0
G1 Y5.5
G3 X2.6305 Y5.5125 I-0.0125 J0
G1 X2.618
G18 G3 X2.6055 Z-0.0125 I0 K0.0125
G1 Y5.4875
Z-0.0153
G2 X2.618 Z-0.0277 I0.0125 K0.0001
G1 X2.6305 Z-0.0278
G17 G3 X2.643 Y5.5 I0 J0.0125
X2.2562 I-0.1934 J0
G1 Y4.4961
G3 X2.643 I0.1934 J0
G1 Y5.5
G3 X2.6305 Y5.5125 I-0.0125 J0
G1 X2.618
G18 G3 X2.6054 Z-0.0153 I0 K0.0126
G1 X2.6055 Y5.4875
Z-0.018
G2 X2.618 Z-0.0305 I0.0125 K0
G1 X2.6305
G17 G3 X2.643 Y5.5 I0 J0.0125
X2.2562 I-0.1934 J0
G1 Y4.4961
G3 X2.643 I0.1934 J0
G1 Y5.5
G3 X2.6305 Y5.5125 I-0.0125 J0
G1 X2.618
G18 G3 X2.6055 Z-0.018 I0 K0.0125
G0 Z1.5
X5.4855 Y5.4875
G1 Z0.0075 F30
G2 X5.498 Z-0.005 I0.0125 K0
G1 X5.5105
G17 G3 X5.523 Y5.5 I0 J0.0125
X5.1362 I-0.1934 J0
G1 Y4.4961
G3 X5.523 I0.1934 J0
G1 Y5.5
G3 X5.5105 Y5.5125 I-0.0125 J0
G1 X5.498
G18 G3 X5.4855 Z0.0075 I0 K0.0125
G1 Y5.4875
Z0.0025
G2 X5.498 Z-0.01 I0.0125 K0
G1 X5.5105
G17 G3 X5.523 Y5.5 I0 J0.0125
X5.1362 I-0.1934 J0
G1 Y4.4961
G3 X5.523 I0.1934 J0
G1 Y5.5
G3 X5.5105 Y5.5125 I-0.0125 J0
G1 X5.498
G18 G3 X5.4855 Z0.0025 I0 K0.0125
G1 Y5.4875
Z-0.0025
G2 X5.498 Z-0.015 I0.0125 K0
G1 X5.5105
G17 G3 X5.523 Y5.5 I0 J0.0125
X5.1362 I-0.1934 J0
G1 Y4.4961
G3 X5.523 I0.1934 J0
G1 Y5.5
G3 X5.5105 Y5.5125 I-0.0125 J0
G1 X5.498
G18 G3 X5.4855 Z-0.0025 I0 K0.0125
G1 Y5.4875
Z-0.0075
G2 X5.498 Z-0.02 I0.0125 K0
G1 X5.5105
G17 G3 X5.523 Y5.5 I0 J0.0125
X5.1362 I-0.1934 J0
G1 Y4.4961
G3 X5.523 I0.1934 J0
G1 Y5.5
G3 X5.5105 Y5.5125 I-0.0125 J0
G1 X5.498
G18 G3 X5.4855 Z-0.0075 I0 K0.0125
G1 Y5.4875
Z-0.0125
G2 X5.498 Z-0.025 I0.0125 K0
G1 X5.5105
G17 G3 X5.523 Y5.5 I0 J0.0125
X5.1362 I-0.1934 J0
G1 Y4.4961
G3 X5.523 I0.1934 J0
G1 Y5.5
G3 X5.5105 Y5.5125 I-0.0125 J0
G1 X5.498
G18 G3 X5.4855 Z-0.0125 I0 K0.0125
G1 Y5.4875
Z-0.0153
G2 X5.498 Z-0.0277 I0.0125 K0.0001
G1 X5.5105 Z-0.0278
G17 G3 X5.523 Y5.5 I0 J0.0125
X5.1362 I-0.1934 J0
G1 Y4.4961
G3 X5.523 I0.1934 J0
G1 Y5.5
G3 X5.5105 Y5.5125 I-0.0125 J0
G1 X5.498
G18 G3 X5.4854 Z-0.0153 I0 K0.0126
G1 X5.4855 Y5.4875
Z-0.018
G2 X5.498 Z-0.0305 I0.0125 K0
G1 X5.5105
G17 G3 X5.523 Y5.5 I0 J0.0125
X5.1362 I-0.1934 J0
G1 Y4.4961
G3 X5.523 I0.1934 J0
G1 Y5.5
G3 X5.5105 Y5.5125 I-0.0125 J0
G1 X5.498
G18 G3 X5.4855 Z-0.018 I0 K0.0125
G0 Z1.5
G17

(2D Contour2)
G0 X0.5965 Y4.4442
G1 Z1.5 F30
Z0.0075
G18 G2 X0.609 Z-0.005 I0.0125 K0
G1 X0.6215
G17 G3 X0.634 Y4.4567 I0 J0.0125
X0.512 I-0.061 J0
X0.634 I0.061 J0
X0.6215 Y4.4692 I-0.0125 J0
G1 X0.609
G18 G3 X0.5965 Z0.0075 I0 K0.0125
G1 Y4.4442
Z0.0025
G2 X0.609 Z-0.01 I0.0125 K0
G1 X0.6215
G17 G3 X0.634 Y4.4567 I0 J0.0125
X0.512 I-0.061 J0
X0.634 I0.061 J0
X0.6215 Y4.4692 I-0.0125 J0
G1 X0.609
G18 G3 X0.5965 Z0.0025 I0 K0.0125
G1 Y4.4442
Z-0.0025
G2 X0.609 Z-0.015 I0.0125 K0
G1 X0.6215
G17 G3 X0.634 Y4.4567 I0 J0.0125
X0.512 I-0.061 J0
X0.634 I0.061 J0
X0.6215 Y4.4692 I-0.0125 J0
G1 X0.609
G18 G3 X0.5965 Z-0.0025 I0 K0.0125
G1 Y4.4442
Z-0.0075
G2 X0.609 Z-0.02 I0.0125 K0
G1 X0.6215
G17 G3 X0.634 Y4.4567 I0 J0.0125
X0.512 I-0.061 J0
X0.634 I0.061 J0
X0.6215 Y4.4692 I-0.0125 J0
G1 X0.609
G18 G3 X0.5965 Z-0.0075 I0 K0.0125
G1 Y4.4442
Z-0.0125
G2 X0.609 Z-0.025 I0.0125 K0
G1 X0.6215
G17 G3 X0.634 Y4.4567 I0 J0.0125
X0.512 I-0.061 J0
X0.634 I0.061 J0
X0.6215 Y4.4692 I-0.0125 J0
G1 X0.609
G18 G3 X0.5965 Z-0.0125 I0 K0.0125
G1 Y4.4442
Z-0.0153
G2 X0.609 Z-0.0277 I0.0125 K0.0001
G1 X0.6215 Z-0.0278
G17 G3 X0.634 Y4.4567 I0 J0.0125
X0.512 I-0.061 J0
X0.634 I0.061 J0
X0.6215 Y4.4692 I-0.0125 J0
G1 X0.609
G18 G3 X0.5964 Z-0.0153 I0 K0.0126
G1 X0.5965 Y4.4442
Z-0.018
G2 X0.609 Z-0.0305 I0.0125 K0
G1 X0.6215
G17 G3 X0.634 Y4.4567 I0 J0.0125
X0.512 I-0.061 J0
X0.634 I0.061 J0
X0.6215 Y4.4692 I-0.0125 J0
G1 X0.609
G18 G3 X0.5965 Z-0.018 I0 K0.0125
G0 Z1.5
X0.5987 Y5.434
G1 Z0.0075 F30
X0.599 Y5.4341 Z0.0047
X0.5999 Y5.4343 Z0.0021
X0.6014 Y5.4346 Z-0.0003
X0.6033 Y5.435 Z-0.0023
X0.6056 Y5.4356 Z-0.0038
X0.6082 Y5.4362 Z-0.0047
X0.6109 Y5.4368 Z-0.005
X0.6231 Y5.4396
G17 G3 X0.6324 Y5.4545 I-0.0028 J0.0121
X0.5136 Y5.4274 I-0.0594 J-0.0136
X0.6324 Y5.4545 I0.0594 J0.0135
X0.6176 Y5.4638 I-0.0121 J-0.0028
G1 X0.6054 Y5.4611
X0.6027 Y5.4605 Z-0.0047
X0.6001 Y5.4599 Z-0.0038
X0.5978 Y5.4594 Z-0.0023
X0.5958 Y5.459 Z-0.0003
X0.5944 Y5.4586 Z0.0021
X0.5935 Y5.4584 Z0.0047
X0.5932 Z0.0075
X0.5987 Y5.434
Z0.0025
X0.599 Y5.4341 Z-0.0003
X0.5999 Y5.4343 Z-0.0029
X0.6014 Y5.4346 Z-0.0053
X0.6033 Y5.435 Z-0.0073
X0.6056 Y5.4356 Z-0.0088
X0.6082 Y5.4362 Z-0.0097
X0.6109 Y5.4368 Z-0.01
X0.6231 Y5.4396
G3 X0.6324 Y5.4545 I-0.0028 J0.0121
X0.5136 Y5.4274 I-0.0594 J-0.0136
X0.6324 Y5.4545 I0.0594 J0.0135
X0.6176 Y5.4638 I-0.0121 J-0.0028
G1 X0.6054 Y5.4611
X0.6027 Y5.4605 Z-0.0097
X0.6001 Y5.4599 Z-0.0088
X0.5978 Y5.4594 Z-0.0073
X0.5958 Y5.459 Z-0.0053
X0.5944 Y5.4586 Z-0.0029
X0.5935 Y5.4584 Z-0.0003
X0.5932 Z0.0025
X0.5987 Y5.434
Z-0.0025
X0.599 Y5.4341 Z-0.0053
X0.5999 Y5.4343 Z-0.0079
X0.6014 Y5.4346 Z-0.0103
X0.6033 Y5.435 Z-0.0123
X0.6056 Y5.4356 Z-0.0138
X0.6082 Y5.4362 Z-0.0147
X0.6109 Y5.4368 Z-0.015
X0.6231 Y5.4396
G3 X0.6324 Y5.4545 I-0.0028 J0.0121
X0.5136 Y5.4274 I-0.0594 J-0.0136
X0.6324 Y5.4545 I0.0594 J0.0135
X0.6176 Y5.4638 I-0.0121 J-0.0028
G1 X0.6054 Y5.4611
X0.6027 Y5.4605 Z-0.0147
X0.6001 Y5.4599 Z-0.0138
X0.5978 Y5.4594 Z-0.0123
X0.5958 Y5.459 Z-0.0103
X0.5944 Y5.4586 Z-0.0079
X0.5935 Y5.4584 Z-0.0053
X0.5932 Z-0.0025
X0.5987 Y5.434
Z-0.0075
X0.599 Y5.4341 Z-0.0103
X0.5999 Y5.4343 Z-0.0129
X0.6014 Y5.4346 Z-0.0153
X0.6033 Y5.435 Z-0.0173
X0.6056 Y5.4356 Z-0.0188
X0.6082 Y5.4362 Z-0.0197
X0.6109 Y5.4368 Z-0.02
X0.6231 Y5.4396
G3 X0.6324 Y5.4545 I-0.0028 J0.0121
X0.5136 Y5.4274 I-0.0594 J-0.0136
X0.6324 Y5.4545 I0.0594 J0.0135
X0.6176 Y5.4638 I-0.0121 J-0.0028
G1 X0.6054 Y5.4611
X0.6027 Y5.4605 Z-0.0197
X0.6001 Y5.4599 Z-0.0188
X0.5978 Y5.4594 Z-0.0173
X0.5958 Y5.459 Z-0.0153
X0.5944 Y5.4586 Z-0.0129
X0.5935 Y5.4584 Z-0.0103
X0.5932 Z-0.0075
X0.5987 Y5.434
Z-0.0125
X0.599 Y5.4341 Z-0.0153
X0.5999 Y5.4343 Z-0.0179
X0.6014 Y5.4346 Z-0.0203
X0.6033 Y5.435 Z-0.0223
X0.6056 Y5.4356 Z-0.0238
X0.6082 Y5.4362 Z-0.0247
X0.6109 Y5.4368 Z-0.025
X0.6231 Y5.4396
G3 X0.6324 Y5.4545 I-0.0028 J0.0121
X0.5136 Y5.4274 I-0.0594 J-0.0136
X0.6324 Y5.4545 I0.0594 J0.0135
X0.6176 Y5.4638 I-0.0121 J-0.0028
G1 X0.6054 Y5.4611
X0.6027 Y5.4605 Z-0.0247
X0.6001 Y5.4599 Z-0.0238
X0.5978 Y5.4594 Z-0.0223
X0.5958 Y5.459 Z-0.0203
X0.5944 Y5.4586 Z-0.0179
X0.5935 Y5.4584 Z-0.0153
X0.5932 Z-0.0125
X0.5987 Y5.434
Z-0.0153
X0.599 Y5.4341 Z-0.018
X0.5999 Y5.4343 Z-0.0207
X0.6014 Y5.4346 Z-0.023
X0.6033 Y5.435 Z-0.025
X0.6056 Y5.4356 Z-0.0265
X0.6082 Y5.4362 Z-0.0274
X0.6109 Y5.4368 Z-0.0278
X0.6231 Y5.4396
G3 X0.6324 Y5.4545 I-0.0028 J0.0121
X0.5136 Y5.4274 I-0.0594 J-0.0136
X0.6324 Y5.4545 I0.0594 J0.0135
X0.6176 Y5.4638 I-0.0121 J-0.0028
G1 X0.6054 Y5.4611
X0.6027 Y5.4605 Z-0.0274
X0.6001 Y5.4599 Z-0.0265
X0.5978 Y5.4594 Z-0.025
X0.5958 Y5.459 Z-0.023
X0.5944 Y5.4586 Z-0.0207
X0.5935 Y5.4584 Z-0.018
X0.5932 Z-0.0153
X0.5987 Y5.434
Z-0.018
X0.599 Y5.4341 Z-0.0208
X0.5999 Y5.4343 Z-0.0234
X0.6014 Y5.4346 Z-0.0258
X0.6033 Y5.435 Z-0.0278
X0.6056 Y5.4356 Z-0.0293
X0.6082 Y5.4362 Z-0.0302
X0.6109 Y5.4368 Z-0.0305
X0.6231 Y5.4396
G3 X0.6324 Y5.4545 I-0.0028 J0.0121
X0.5136 Y5.4274 I-0.0594 J-0.0136
X0.6324 Y5.4545 I0.0594 J0.0135
X0.6176 Y5.4638 I-0.0121 J-0.0028
G1 X0.6054 Y5.4611
X0.6027 Y5.4605 Z-0.0302
X0.6001 Y5.4599 Z-0.0293
X0.5978 Y5.4594 Z-0.0278
X0.5958 Y5.459 Z-0.0258
X0.5944 Y5.4586 Z-0.0234
X0.5935 Y5.4584 Z-0.0208
X0.5932 Z-0.018
G0 Z1.5
X0.5965 Y6.4127
G1 Z0.0075 F30
G18 G2 X0.609 Z-0.005 I0.0125 K0
G1 X0.6215
G17 G3 X0.634 Y6.4252 I0 J0.0125
X0.512 I-0.061 J0
X0.634 I0.061 J0
X0.6215 Y6.4377 I-0.0125 J0
G1 X0.609
G18 G3 X0.5965 Z0.0075 I0 K0.0125
G1 Y6.4127
Z0.0025
G2 X0.609 Z-0.01 I0.0125 K0
G1 X0.6215
G17 G3 X0.634 Y6.4252 I0 J0.0125
X0.512 I-0.061 J0
X0.634 I0.061 J0
X0.6215 Y6.4377 I-0.0125 J0
G1 X0.609
G18 G3 X0.5965 Z0.0025 I0 K0.0125
G1 Y6.4127
Z-0.0025
G2 X0.609 Z-0.015 I0.0125 K0
G1 X0.6215
G17 G3 X0.634 Y6.4252 I0 J0.0125
X0.512 I-0.061 J0
X0.634 I0.061 J0
X0.6215 Y6.4377 I-0.0125 J0
G1 X0.609
G18 G3 X0.5965 Z-0.0025 I0 K0.0125
G1 Y6.4127
Z-0.0075
G2 X0.609 Z-0.02 I0.0125 K0
G1 X0.6215
G17 G3 X0.634 Y6.4252 I0 J0.0125
X0.512 I-0.061 J0
X0.634 I0.061 J0
X0.6215 Y6.4377 I-0.0125 J0
G1 X0.609
G18 G3 X0.5965 Z-0.0075 I0 K0.0125
G1 Y6.4127
Z-0.0125
G2 X0.609 Z-0.025 I0.0125 K0
G1 X0.6215
G17 G3 X0.634 Y6.4252 I0 J0.0125
X0.512 I-0.061 J0
X0.634 I0.061 J0
X0.6215 Y6.4377 I-0.0125 J0
G1 X0.609
G18 G3 X0.5965 Z-0.0125 I0 K0.0125
G1 Y6.4127
Z-0.0153
G2 X0.609 Z-0.0277 I0.0125 K0.0001
G1 X0.6215 Z-0.0278
G17 G3 X0.634 Y6.4252 I0 J0.0125
X0.512 I-0.061 J0
X0.634 I0.061 J0
X0.6215 Y6.4377 I-0.0125 J0
G1 X0.609
G18 G3 X0.5964 Z-0.0153 I0 K0.0126
G1 X0.5965 Y6.4127
Z-0.018
G2 X0.609 Z-0.0305 I0.0125 K0
G1 X0.6215
G17 G3 X0.634 Y6.4252 I0 J0.0125
X0.512 I-0.061 J0
X0.634 I0.061 J0
X0.6215 Y6.4377 I-0.0125 J0
G1 X0.609
G18 G3 X0.5965 Z-0.018 I0 K0.0125
G0 Z1.5
Y7.3969
G1 Z0.0075 F30
G2 X0.609 Z-0.005 I0.0125 K0
G1 X0.6215
G17 G3 X0.634 Y7.4094 I0 J0.0125
X0.512 I-0.061 J0
X0.634 I0.061 J0
X0.6215 Y7.4219 I-0.0125 J0
G1 X0.609
G18 G3 X0.5965 Z0.0075 I0 K0.0125
G1 Y7.3969
Z0.0025
G2 X0.609 Z-0.01 I0.0125 K0
G1 X0.6215
G17 G3 X0.634 Y7.4094 I0 J0.0125
X0.512 I-0.061 J0
X0.634 I0.061 J0
X0.6215 Y7.4219 I-0.0125 J0
G1 X0.609
G18 G3 X0.5965 Z0.0025 I0 K0.0125
G1 Y7.3969
Z-0.0025
G2 X0.609 Z-0.015 I0.0125 K0
G1 X0.6215
G17 G3 X0.634 Y7.4094 I0 J0.0125
X0.512 I-0.061 J0
X0.634 I0.061 J0
X0.6215 Y7.4219 I-0.0125 J0
G1 X0.609
G18 G3 X0.5965 Z-0.0025 I0 K0.0125
G1 Y7.3969
Z-0.0075
G2 X0.609 Z-0.02 I0.0125 K0
G1 X0.6215
G17 G3 X0.634 Y7.4094 I0 J0.0125
X0.512 I-0.061 J0
X0.634 I0.061 J0
X0.6215 Y7.4219 I-0.0125 J0
G1 X0.609
G18 G3 X0.5965 Z-0.0075 I0 K0.0125
G1 Y7.3969
Z-0.0125
G2 X0.609 Z-0.025 I0.0125 K0
G1 X0.6215
G17 G3 X0.634 Y7.4094 I0 J0.0125
X0.512 I-0.061 J0
X0.634 I0.061 J0
X0.6215 Y7.4219 I-0.0125 J0
G1 X0.609
G18 G3 X0.5965 Z-0.0125 I0 K0.0125
G1 Y7.3969
Z-0.0153
G2 X0.609 Z-0.0277 I0.0125 K0.0001
G1 X0.6215 Z-0.0278
G17 G3 X0.634 Y7.4094 I0 J0.0125
X0.512 I-0.061 J0
X0.634 I0.061 J0
X0.6215 Y7.4219 I-0.0125 J0
G1 X0.609
G18 G3 X0.5964 Z-0.0153 I0 K0.0126
G1 X0.5965 Y7.3969
Z-0.018
G2 X0.609 Z-0.0305 I0.0125 K0
G1 X0.6215
G17 G3 X0.634 Y7.4094 I0 J0.0125
X0.512 I-0.061 J0
X0.634 I0.061 J0
X0.6215 Y7.4219 I-0.0125 J0
G1 X0.609
G18 G3 X0.5965 Z-0.018 I0 K0.0125
G0 Z1.5
X0.5987 Y3.4655
G1 Z0.0075 F30
X0.599 Y3.4656 Z0.0047
X0.5999 Y3.4658 Z0.0021
X0.6014 Y3.4661 Z-0.0003
X0.6033 Y3.4665 Z-0.0023
X0.6056 Y3.4671 Z-0.0038
X0.6082 Y3.4676 Z-0.0047
X0.6109 Y3.4683 Z-0.005
X0.6231 Y3.4711
G17 G3 X0.6324 Y3.486 I-0.0028 J0.0121
X0.5136 Y3.4589 I-0.0594 J-0.0136
X0.6324 Y3.486 I0.0594 J0.0135
X0.6176 Y3.4953 I-0.0121 J-0.0028
G1 X0.6054 Y3.4926
X0.6027 Y3.492 Z-0.0047
X0.6001 Y3.4914 Z-0.0038
X0.5978 Y3.4909 Z-0.0023
X0.5958 Y3.4905 Z-0.0003
X0.5944 Y3.4901 Z0.0021
X0.5935 Y3.4899 Z0.0047
X0.5932 Z0.0075
X0.5987 Y3.4655
Z0.0025
X0.599 Y3.4656 Z-0.0003
X0.5999 Y3.4658 Z-0.0029
X0.6014 Y3.4661 Z-0.0053
X0.6033 Y3.4665 Z-0.0073
X0.6056 Y3.4671 Z-0.0088
X0.6082 Y3.4676 Z-0.0097
X0.6109 Y3.4683 Z-0.01
X0.6231 Y3.4711
G3 X0.6324 Y3.486 I-0.0028 J0.0121
X0.5136 Y3.4589 I-0.0594 J-0.0136
X0.6324 Y3.486 I0.0594 J0.0135
X0.6176 Y3.4953 I-0.0121 J-0.0028
G1 X0.6054 Y3.4926
X0.6027 Y3.492 Z-0.0097
X0.6001 Y3.4914 Z-0.0088
X0.5978 Y3.4909 Z-0.0073
X0.5958 Y3.4905 Z-0.0053
X0.5944 Y3.4901 Z-0.0029
X0.5935 Y3.4899 Z-0.0003
X0.5932 Z0.0025
X0.5987 Y3.4655
Z-0.0025
X0.599 Y3.4656 Z-0.0053
X0.5999 Y3.4658 Z-0.0079
X0.6014 Y3.4661 Z-0.0103
X0.6033 Y3.4665 Z-0.0123
X0.6056 Y3.4671 Z-0.0138
X0.6082 Y3.4676 Z-0.0147
X0.6109 Y3.4683 Z-0.015
X0.6231 Y3.4711
G3 X0.6324 Y3.486 I-0.0028 J0.0121
X0.5136 Y3.4589 I-0.0594 J-0.0136
X0.6324 Y3.486 I0.0594 J0.0135
X0.6176 Y3.4953 I-0.0121 J-0.0028
G1 X0.6054 Y3.4926
X0.6027 Y3.492 Z-0.0147
X0.6001 Y3.4914 Z-0.0138
X0.5978 Y3.4909 Z-0.0123
X0.5958 Y3.4905 Z-0.0103
X0.5944 Y3.4901 Z-0.0079
X0.5935 Y3.4899 Z-0.0053
X0.5932 Z-0.0025
X0.5987 Y3.4655
Z-0.0075
X0.599 Y3.4656 Z-0.0103
X0.5999 Y3.4658 Z-0.0129
X0.6014 Y3.4661 Z-0.0153
X0.6033 Y3.4665 Z-0.0173
X0.6056 Y3.4671 Z-0.0188
X0.6082 Y3.4676 Z-0.0197
X0.6109 Y3.4683 Z-0.02
X0.6231 Y3.4711
G3 X0.6324 Y3.486 I-0.0028 J0.0121
X0.5136 Y3.4589 I-0.0594 J-0.0136
X0.6324 Y3.486 I0.0594 J0.0135
X0.6176 Y3.4953 I-0.0121 J-0.0028
G1 X0.6054 Y3.4926
X0.6027 Y3.492 Z-0.0197
X0.6001 Y3.4914 Z-0.0188
X0.5978 Y3.4909 Z-0.0173
X0.5958 Y3.4905 Z-0.0153
X0.5944 Y3.4901 Z-0.0129
X0.5935 Y3.4899 Z-0.0103
X0.5932 Z-0.0075
X0.5987 Y3.4655
Z-0.0125
X0.599 Y3.4656 Z-0.0153
X0.5999 Y3.4658 Z-0.0179
X0.6014 Y3.4661 Z-0.0203
X0.6033 Y3.4665 Z-0.0223
X0.6056 Y3.4671 Z-0.0238
X0.6082 Y3.4676 Z-0.0247
X0.6109 Y3.4683 Z-0.025
X0.6231 Y3.4711
G3 X0.6324 Y3.486 I-0.0028 J0.0121
X0.5136 Y3.4589 I-0.0594 J-0.0136
X0.6324 Y3.486 I0.0594 J0.0135
X0.6176 Y3.4953 I-0.0121 J-0.0028
G1 X0.6054 Y3.4926
X0.6027 Y3.492 Z-0.0247
X0.6001 Y3.4914 Z-0.0238
X0.5978 Y3.4909 Z-0.0223
X0.5958 Y3.4905 Z-0.0203
X0.5944 Y3.4901 Z-0.0179
X0.5935 Y3.4899 Z-0.0153
X0.5932 Z-0.0125
X0.5987 Y3.4655
Z-0.0153
X0.599 Y3.4656 Z-0.018
X0.5999 Y3.4658 Z-0.0207
X0.6014 Y3.4661 Z-0.023
X0.6033 Y3.4665 Z-0.025
X0.6056 Y3.4671 Z-0.0265
X0.6082 Y3.4676 Z-0.0274
X0.6109 Y3.4683 Z-0.0278
X0.6231 Y3.4711
G3 X0.6324 Y3.486 I-0.0028 J0.0121
X0.5136 Y3.4589 I-0.0594 J-0.0136
X0.6324 Y3.486 I0.0594 J0.0135
X0.6176 Y3.4953 I-0.0121 J-0.0028
G1 X0.6054 Y3.4926
X0.6027 Y3.492 Z-0.0274
X0.6001 Y3.4914 Z-0.0265
X0.5978 Y3.4909 Z-0.025
X0.5958 Y3.4905 Z-0.023
X0.5944 Y3.4901 Z-0.0207
X0.5935 Y3.4899 Z-0.018
X0.5932 Z-0.0153
X0.5987 Y3.4655
Z-0.018
X0.599 Y3.4656 Z-0.0208
X0.5999 Y3.4658 Z-0.0234
X0.6014 Y3.4661 Z-0.0258
X0.6033 Y3.4665 Z-0.0278
X0.6056 Y3.4671 Z-0.0293
X0.6082 Y3.4676 Z-0.0302
X0.6109 Y3.4683 Z-0.0305
X0.6231 Y3.4711
G3 X0.6324 Y3.486 I-0.0028 J0.0121
X0.5136 Y3.4589 I-0.0594 J-0.0136
X0.6324 Y3.486 I0.0594 J0.0135
X0.6176 Y3.4953 I-0.0121 J-0.0028
G1 X0.6054 Y3.4926
X0.6027 Y3.492 Z-0.0302
X0.6001 Y3.4914 Z-0.0293
X0.5978 Y3.4909 Z-0.0278
X0.5958 Y3.4905 Z-0.0258
X0.5944 Y3.4901 Z-0.0234
X0.5935 Y3.4899 Z-0.0208
X0.5932 Z-0.018
G0 Z1.5
X0.5965 Y2.4757
G1 Z0.0075 F30
G18 G2 X0.609 Z-0.005 I0.0125 K0
G1 X0.6215
G17 G3 X0.634 Y2.4882 I0 J0.0125
X0.512 I-0.061 J0
X0.634 I0.061 J0
X0.6215 Y2.5007 I-0.0125 J0
G1 X0.609
G18 G3 X0.5965 Z0.0075 I0 K0.0125
G1 Y2.4757
Z0.0025
G2 X0.609 Z-0.01 I0.0125 K0
G1 X0.6215
G17 G3 X0.634 Y2.4882 I0 J0.0125
X0.512 I-0.061 J0
X0.634 I0.061 J0
X0.6215 Y2.5007 I-0.0125 J0
G1 X0.609
G18 G3 X0.5965 Z0.0025 I0 K0.0125
G1 Y2.4757
Z-0.0025
G2 X0.609 Z-0.015 I0.0125 K0
G1 X0.6215
G17 G3 X0.634 Y2.4882 I0 J0.0125
X0.512 I-0.061 J0
X0.634 I0.061 J0
X0.6215 Y2.5007 I-0.0125 J0
G1 X0.609
G18 G3 X0.5965 Z-0.0025 I0 K0.0125
G1 Y2.4757
Z-0.0075
G2 X0.609 Z-0.02 I0.0125 K0
G1 X0.6215
G17 G3 X0.634 Y2.4882 I0 J0.0125
X0.512 I-0.061 J0
X0.634 I0.061 J0
X0.6215 Y2.5007 I-0.0125 J0
G1 X0.609
G18 G3 X0.5965 Z-0.0075 I0 K0.0125
G1 Y2.4757
Z-0.0125
G2 X0.609 Z-0.025 I0.0125 K0
G1 X0.6215
G17 G3 X0.634 Y2.4882 I0 J0.0125
X0.512 I-0.061 J0
X0.634 I0.061 J0
X0.6215 Y2.5007 I-0.0125 J0
G1 X0.609
G18 G3 X0.5965 Z-0.0125 I0 K0.0125
G1 Y2.4757
Z-0.0153
G2 X0.609 Z-0.0277 I0.0125 K0.0001
G1 X0.6215 Z-0.0278
G17 G3 X0.634 Y2.4882 I0 J0.0125
X0.512 I-0.061 J0
X0.634 I0.061 J0
X0.6215 Y2.5007 I-0.0125 J0
G1 X0.609
G18 G3 X0.5964 Z-0.0153 I0 K0.0126
G1 X0.5965 Y2.4757
Z-0.018
G2 X0.609 Z-0.0305 I0.0125 K0
G1 X0.6215
G17 G3 X0.634 Y2.4882 I0 J0.0125
X0.512 I-0.061 J0
X0.634 I0.061 J0
X0.6215 Y2.5007 I-0.0125 J0
G1 X0.609
G18 G3 X0.5965 Z-0.018 I0 K0.0125
G0 Z1.5
X0.5987 Y1.497
G1 Z0.0075 F30
X0.599 Y1.4971 Z0.0047
X0.5999 Y1.4973 Z0.0021
X0.6014 Y1.4976 Z-0.0003
X0.6033 Y1.498 Z-0.0023
X0.6056 Y1.4986 Z-0.0038
X0.6082 Y1.4991 Z-0.0047
X0.6109 Y1.4998 Z-0.005
X0.6231 Y1.5025
G17 G3 X0.6325 Y1.5175 I-0.0028 J0.0122
X0.5135 Y1.4903 I-0.0595 J-0.0136
X0.6325 Y1.5175 I0.0595 J0.0136
X0.6176 Y1.5269 I-0.0122 J-0.0028
G1 X0.6054 Y1.5241
X0.6027 Y1.5235 Z-0.0047
X0.6001 Y1.5229 Z-0.0038
X0.5978 Y1.5224 Z-0.0023
X0.5958 Y1.522 Z-0.0003
X0.5944 Y1.5216 Z0.0021
X0.5935 Y1.5214 Z0.0047
X0.5932 Z0.0075
X0.5987 Y1.497
Z0.0025
X0.599 Y1.4971 Z-0.0003
X0.5999 Y1.4973 Z-0.0029
X0.6014 Y1.4976 Z-0.0053
X0.6033 Y1.498 Z-0.0073
X0.6056 Y1.4986 Z-0.0088
X0.6082 Y1.4991 Z-0.0097
X0.6109 Y1.4998 Z-0.01
X0.6231 Y1.5025
G3 X0.6325 Y1.5175 I-0.0028 J0.0122
X0.5135 Y1.4903 I-0.0595 J-0.0136
X0.6325 Y1.5175 I0.0595 J0.0136
X0.6176 Y1.5269 I-0.0122 J-0.0028
G1 X0.6054 Y1.5241
X0.6027 Y1.5235 Z-0.0097
X0.6001 Y1.5229 Z-0.0088
X0.5978 Y1.5224 Z-0.0073
X0.5958 Y1.522 Z-0.0053
X0.5944 Y1.5216 Z-0.0029
X0.5935 Y1.5214 Z-0.0003
X0.5932 Z0.0025
X0.5987 Y1.497
Z-0.0025
X0.599 Y1.4971 Z-0.0053
X0.5999 Y1.4973 Z-0.0079
X0.6014 Y1.4976 Z-0.0103
X0.6033 Y1.498 Z-0.0123
X0.6056 Y1.4986 Z-0.0138
X0.6082 Y1.4991 Z-0.0147
X0.6109 Y1.4998 Z-0.015
X0.6231 Y1.5025
G3 X0.6325 Y1.5175 I-0.0028 J0.0122
X0.5135 Y1.4903 I-0.0595 J-0.0136
X0.6325 Y1.5175 I0.0595 J0.0136
X0.6176 Y1.5269 I-0.0122 J-0.0028
G1 X0.6054 Y1.5241
X0.6027 Y1.5235 Z-0.0147
X0.6001 Y1.5229 Z-0.0138
X0.5978 Y1.5224 Z-0.0123
X0.5958 Y1.522 Z-0.0103
X0.5944 Y1.5216 Z-0.0079
X0.5935 Y1.5214 Z-0.0053
X0.5932 Z-0.0025
X0.5987 Y1.497
Z-0.0075
X0.599 Y1.4971 Z-0.0103
X0.5999 Y1.4973 Z-0.0129
X0.6014 Y1.4976 Z-0.0153
X0.6033 Y1.498 Z-0.0173
X0.6056 Y1.4986 Z-0.0188
X0.6082 Y1.4991 Z-0.0197
X0.6109 Y1.4998 Z-0.02
X0.6231 Y1.5025
G3 X0.6325 Y1.5175 I-0.0028 J0.0122
X0.5135 Y1.4903 I-0.0595 J-0.0136
X0.6325 Y1.5175 I0.0595 J0.0136
X0.6176 Y1.5269 I-0.0122 J-0.0028
G1 X0.6054 Y1.5241
X0.6027 Y1.5235 Z-0.0197
X0.6001 Y1.5229 Z-0.0188
X0.5978 Y1.5224 Z-0.0173
X0.5958 Y1.522 Z-0.0153
X0.5944 Y1.5216 Z-0.0129
X0.5935 Y1.5214 Z-0.0103
X0.5932 Z-0.0075
X0.5987 Y1.497
Z-0.0125
X0.599 Y1.4971 Z-0.0153
X0.5999 Y1.4973 Z-0.0179
X0.6014 Y1.4976 Z-0.0203
X0.6033 Y1.498 Z-0.0223
X0.6056 Y1.4986 Z-0.0238
X0.6082 Y1.4991 Z-0.0247
X0.6109 Y1.4998 Z-0.025
X0.6231 Y1.5025
G3 X0.6325 Y1.5175 I-0.0028 J0.0122
X0.5135 Y1.4903 I-0.0595 J-0.0136
X0.6325 Y1.5175 I0.0595 J0.0136
X0.6176 Y1.5269 I-0.0122 J-0.0028
G1 X0.6054 Y1.5241
X0.6027 Y1.5235 Z-0.0247
X0.6001 Y1.5229 Z-0.0238
X0.5978 Y1.5224 Z-0.0223
X0.5958 Y1.522 Z-0.0203
X0.5944 Y1.5216 Z-0.0179
X0.5935 Y1.5214 Z-0.0153
X0.5932 Z-0.0125
X0.5987 Y1.497
Z-0.0153
X0.599 Y1.4971 Z-0.018
X0.5999 Y1.4973 Z-0.0207
X0.6014 Y1.4976 Z-0.023
X0.6033 Y1.498 Z-0.025
X0.6056 Y1.4986 Z-0.0265
X0.6082 Y1.4991 Z-0.0274
X0.6109 Y1.4998 Z-0.0278
X0.6231 Y1.5025
G3 X0.6325 Y1.5175 I-0.0028 J0.0122
X0.5135 Y1.4903 I-0.0595 J-0.0136
X0.6325 Y1.5175 I0.0595 J0.0136
X0.6176 Y1.5269 I-0.0122 J-0.0028
G1 X0.6054 Y1.5241
X0.6027 Y1.5235 Z-0.0274
X0.6001 Y1.5229 Z-0.0265
X0.5978 Y1.5224 Z-0.025
X0.5958 Y1.522 Z-0.023
X0.5944 Y1.5216 Z-0.0207
X0.5935 Y1.5214 Z-0.018
X0.5932 Z-0.0153
X0.5987 Y1.497
Z-0.018
X0.599 Y1.4971 Z-0.0208
X0.5999 Y1.4973 Z-0.0234
X0.6014 Y1.4976 Z-0.0258
X0.6033 Y1.498 Z-0.0278
X0.6056 Y1.4986 Z-0.0293
X0.6082 Y1.4991 Z-0.0302
X0.6109 Y1.4998 Z-0.0305
X0.6231 Y1.5025
G3 X0.6325 Y1.5175 I-0.0028 J0.0122
X0.5135 Y1.4903 I-0.0595 J-0.0136
X0.6325 Y1.5175 I0.0595 J0.0136
X0.6176 Y1.5269 I-0.0122 J-0.0028
G1 X0.6054 Y1.5241
X0.6027 Y1.5235 Z-0.0302
X0.6001 Y1.5229 Z-0.0293
X0.5978 Y1.5224 Z-0.0278
X0.5958 Y1.522 Z-0.0258
X0.5944 Y1.5216 Z-0.0234
X0.5935 Y1.5214 Z-0.0208
X0.5932 Z-0.018
G0 Z1.5
X7.2027 Y1.497
G1 Z0.0075 F30
X7.203 Y1.4971 Z0.0047
X7.2039 Y1.4973 Z0.0021
X7.2053 Y1.4976 Z-0.0003
X7.2073 Y1.498 Z-0.0023
X7.2096 Y1.4986 Z-0.0038
X7.2122 Y1.4991 Z-0.0047
X7.2149 Y1.4998 Z-0.005
X7.227 Y1.5025
G3 X7.2365 Y1.5175 I-0.0027 J0.0122
X7.1175 Y1.4904 I-0.0595 J-0.0136
X7.2365 Y1.5175 I0.0595 J0.0135
X7.2215 Y1.5269 I-0.0122 J-0.0028
G1 X7.2093 Y1.5241
X7.2066 Y1.5235 Z-0.0047
X7.204 Y1.5229 Z-0.0038
X7.2017 Y1.5224 Z-0.0023
X7.1998 Y1.522 Z-0.0003
X7.1983 Y1.5216 Z0.0021
X7.1974 Y1.5214 Z0.0047
X7.1971 Z0.0075
X7.2027 Y1.497
Z0.0025
X7.203 Y1.4971 Z-0.0003
X7.2039 Y1.4973 Z-0.0029
X7.2053 Y1.4976 Z-0.0053
X7.2073 Y1.498 Z-0.0073
X7.2096 Y1.4986 Z-0.0088
X7.2122 Y1.4991 Z-0.0097
X7.2149 Y1.4998 Z-0.01
X7.227 Y1.5025
G3 X7.2365 Y1.5175 I-0.0027 J0.0122
X7.1175 Y1.4904 I-0.0595 J-0.0136
X7.2365 Y1.5175 I0.0595 J0.0135
X7.2215 Y1.5269 I-0.0122 J-0.0028
G1 X7.2093 Y1.5241
X7.2066 Y1.5235 Z-0.0097
X7.204 Y1.5229 Z-0.0088
X7.2017 Y1.5224 Z-0.0073
X7.1998 Y1.522 Z-0.0053
X7.1983 Y1.5216 Z-0.0029
X7.1974 Y1.5214 Z-0.0003
X7.1971 Z0.0025
X7.2027 Y1.497
Z-0.0025
X7.203 Y1.4971 Z-0.0053
X7.2039 Y1.4973 Z-0.0079
X7.2053 Y1.4976 Z-0.0103
X7.2073 Y1.498 Z-0.0123
X7.2096 Y1.4986 Z-0.0138
X7.2122 Y1.4991 Z-0.0147
X7.2149 Y1.4998 Z-0.015
X7.227 Y1.5025
G3 X7.2365 Y1.5175 I-0.0027 J0.0122
X7.1175 Y1.4904 I-0.0595 J-0.0136
X7.2365 Y1.5175 I0.0595 J0.0135
X7.2215 Y1.5269 I-0.0122 J-0.0028
G1 X7.2093 Y1.5241
X7.2066 Y1.5235 Z-0.0147
X7.204 Y1.5229 Z-0.0138
X7.2017 Y1.5224 Z-0.0123
X7.1998 Y1.522 Z-0.0103
X7.1983 Y1.5216 Z-0.0079
X7.1974 Y1.5214 Z-0.0053
X7.1971 Z-0.0025
X7.2027 Y1.497
Z-0.0075
X7.203 Y1.4971 Z-0.0103
X7.2039 Y1.4973 Z-0.0129
X7.2053 Y1.4976 Z-0.0153
X7.2073 Y1.498 Z-0.0173
X7.2096 Y1.4986 Z-0.0188
X7.2122 Y1.4991 Z-0.0197
X7.2149 Y1.4998 Z-0.02
X7.227 Y1.5025
G3 X7.2365 Y1.5175 I-0.0027 J0.0122
X7.1175 Y1.4904 I-0.0595 J-0.0136
X7.2365 Y1.5175 I0.0595 J0.0135
X7.2215 Y1.5269 I-0.0122 J-0.0028
G1 X7.2093 Y1.5241
X7.2066 Y1.5235 Z-0.0197
X7.204 Y1.5229 Z-0.0188
X7.2017 Y1.5224 Z-0.0173
X7.1998 Y1.522 Z-0.0153
X7.1983 Y1.5216 Z-0.0129
X7.1974 Y1.5214 Z-0.0103
X7.1971 Z-0.0075
X7.2027 Y1.497
Z-0.0125
X7.203 Y1.4971 Z-0.0153
X7.2039 Y1.4973 Z-0.0179
X7.2053 Y1.4976 Z-0.0203
X7.2073 Y1.498 Z-0.0223
X7.2096 Y1.4986 Z-0.0238
X7.2122 Y1.4991 Z-0.0247
X7.2149 Y1.4998 Z-0.025
X7.227 Y1.5025
G3 X7.2365 Y1.5175 I-0.0027 J0.0122
X7.1175 Y1.4904 I-0.0595 J-0.0136
X7.2365 Y1.5175 I0.0595 J0.0135
X7.2215 Y1.5269 I-0.0122 J-0.0028
G1 X7.2093 Y1.5241
X7.2066 Y1.5235 Z-0.0247
X7.204 Y1.5229 Z-0.0238
X7.2017 Y1.5224 Z-0.0223
X7.1998 Y1.522 Z-0.0203
X7.1983 Y1.5216 Z-0.0179
X7.1974 Y1.5214 Z-0.0153
X7.1971 Z-0.0125
X7.2027 Y1.497
Z-0.0153
X7.203 Y1.4971 Z-0.018
X7.2039 Y1.4973 Z-0.0207
X7.2053 Y1.4976 Z-0.023
X7.2073 Y1.498 Z-0.025
X7.2096 Y1.4986 Z-0.0265
X7.2122 Y1.4991 Z-0.0274
X7.2149 Y1.4998 Z-0.0278
X7.227 Y1.5025
G3 X7.2365 Y1.5175 I-0.0027 J0.0122
X7.1175 Y1.4904 I-0.0595 J-0.0136
X7.2365 Y1.5175 I0.0595 J0.0135
X7.2215 Y1.5269 I-0.0122 J-0.0028
G1 X7.2093 Y1.5241
X7.2066 Y1.5235 Z-0.0274
X7.204 Y1.5229 Z-0.0265
X7.2017 Y1.5224 Z-0.025
X7.1998 Y1.522 Z-0.023
X7.1983 Y1.5216 Z-0.0207
X7.1974 Y1.5214 Z-0.018
X7.1971 Z-0.0153
X7.2027 Y1.497
Z-0.018
X7.203 Y1.4971 Z-0.0208
X7.2039 Y1.4973 Z-0.0234
X7.2053 Y1.4976 Z-0.0258
X7.2073 Y1.498 Z-0.0278
X7.2096 Y1.4986 Z-0.0293
X7.2122 Y1.4991 Z-0.0302
X7.2149 Y1.4998 Z-0.0305
X7.227 Y1.5025
G3 X7.2365 Y1.5175 I-0.0027 J0.0122
X7.1175 Y1.4904 I-0.0595 J-0.0136
X7.2365 Y1.5175 I0.0595 J0.0135
X7.2215 Y1.5269 I-0.0122 J-0.0028
G1 X7.2093 Y1.5241
X7.2066 Y1.5235 Z-0.0302
X7.204 Y1.5229 Z-0.0293
X7.2017 Y1.5224 Z-0.0278
X7.1998 Y1.522 Z-0.0258
X7.1983 Y1.5216 Z-0.0234
X7.1974 Y1.5214 Z-0.0208
X7.1971 Z-0.018
G0 Z1.5
X7.2005 Y2.4757
G1 Z0.0075 F30
G18 G2 X7.213 Z-0.005 I0.0125 K0
G1 X7.2255
G17 G3 X7.238 Y2.4882 I0 J0.0125
X7.116 I-0.061 J0
X7.238 I0.061 J0
X7.2255 Y2.5007 I-0.0125 J0
G1 X7.213
G18 G3 X7.2005 Z0.0075 I0 K0.0125
G1 Y2.4757
Z0.0025
G2 X7.213 Z-0.01 I0.0125 K0
G1 X7.2255
G17 G3 X7.238 Y2.4882 I0 J0.0125
X7.116 I-0.061 J0
X7.238 I0.061 J0
X7.2255 Y2.5007 I-0.0125 J0
G1 X7.213
G18 G3 X7.2005 Z0.0025 I0 K0.0125
G1 Y2.4757
Z-0.0025
G2 X7.213 Z-0.015 I0.0125 K0
G1 X7.2255
G17 G3 X7.238 Y2.4882 I0 J0.0125
X7.116 I-0.061 J0
X7.238 I0.061 J0
X7.2255 Y2.5007 I-0.0125 J0
G1 X7.213
G18 G3 X7.2005 Z-0.0025 I0 K0.0125
G1 Y2.4757
Z-0.0075
G2 X7.213 Z-0.02 I0.0125 K0
G1 X7.2255
G17 G3 X7.238 Y2.4882 I0 J0.0125
X7.116 I-0.061 J0
X7.238 I0.061 J0
X7.2255 Y2.5007 I-0.0125 J0
G1 X7.213
G18 G3 X7.2005 Z-0.0075 I0 K0.0125
G1 Y2.4757
Z-0.0125
G2 X7.213 Z-0.025 I0.0125 K0
G1 X7.2255
G17 G3 X7.238 Y2.4882 I0 J0.0125
X7.116 I-0.061 J0
X7.238 I0.061 J0
X7.2255 Y2.5007 I-0.0125 J0
G1 X7.213
G18 G3 X7.2005 Z-0.0125 I0 K0.0125
G1 Y2.4757
Z-0.0153
G2 X7.213 Z-0.0277 I0.0125 K0.0001
G1 X7.2255 Z-0.0278
G17 G3 X7.238 Y2.4882 I0 J0.0125
X7.116 I-0.061 J0
X7.238 I0.061 J0
X7.2255 Y2.5007 I-0.0125 J0
G1 X7.213
G18 G3 X7.2004 Z-0.0153 I0 K0.0126
G1 X7.2005 Y2.4757
Z-0.018
G2 X7.213 Z-0.0305 I0.0125 K0
G1 X7.2255
G17 G3 X7.238 Y2.4882 I0 J0.0125
X7.116 I-0.061 J0
X7.238 I0.061 J0
X7.2255 Y2.5007 I-0.0125 J0
G1 X7.213
G18 G3 X7.2005 Z-0.018 I0 K0.0125
G0 Z1.5
X7.2027 Y3.4655
G1 Z0.0075 F30
X7.203 Y3.4656 Z0.0047
X7.2039 Y3.4658 Z0.0021
X7.2053 Y3.4661 Z-0.0003
X7.2073 Y3.4665 Z-0.0023
X7.2096 Y3.4671 Z-0.0038
X7.2122 Y3.4676 Z-0.0047
X7.2149 Y3.4683 Z-0.005
X7.227 Y3.4711
G17 G3 X7.2364 Y3.486 I-0.0027 J0.0121
X7.1176 Y3.4589 I-0.0594 J-0.0136
X7.2364 Y3.486 I0.0594 J0.0135
X7.2215 Y3.4953 I-0.0121 J-0.0028
G1 X7.2093 Y3.4926
X7.2066 Y3.492 Z-0.0047
X7.204 Y3.4914 Z-0.0038
X7.2017 Y3.4909 Z-0.0023
X7.1998 Y3.4905 Z-0.0003
X7.1983 Y3.4901 Z0.0021
X7.1974 Y3.4899 Z0.0047
X7.1971 Z0.0075
X7.2027 Y3.4655
Z0.0025
X7.203 Y3.4656 Z-0.0003
X7.2039 Y3.4658 Z-0.0029
X7.2053 Y3.4661 Z-0.0053
X7.2073 Y3.4665 Z-0.0073
X7.2096 Y3.4671 Z-0.0088
X7.2122 Y3.4676 Z-0.0097
X7.2149 Y3.4683 Z-0.01
X7.227 Y3.4711
G3 X7.2364 Y3.486 I-0.0027 J0.0121
X7.1176 Y3.4589 I-0.0594 J-0.0136
X7.2364 Y3.486 I0.0594 J0.0135
X7.2215 Y3.4953 I-0.0121 J-0.0028
G1 X7.2093 Y3.4926
X7.2066 Y3.492 Z-0.0097
X7.204 Y3.4914 Z-0.0088
X7.2017 Y3.4909 Z-0.0073
X7.1998 Y3.4905 Z-0.0053
X7.1983 Y3.4901 Z-0.0029
X7.1974 Y3.4899 Z-0.0003
X7.1971 Z0.0025
X7.2027 Y3.4655
Z-0.0025
X7.203 Y3.4656 Z-0.0053
X7.2039 Y3.4658 Z-0.0079
X7.2053 Y3.4661 Z-0.0103
X7.2073 Y3.4665 Z-0.0123
X7.2096 Y3.4671 Z-0.0138
X7.2122 Y3.4676 Z-0.0147
X7.2149 Y3.4683 Z-0.015
X7.227 Y3.4711
G3 X7.2364 Y3.486 I-0.0027 J0.0121
X7.1176 Y3.4589 I-0.0594 J-0.0136
X7.2364 Y3.486 I0.0594 J0.0135
X7.2215 Y3.4953 I-0.0121 J-0.0028
G1 X7.2093 Y3.4926
X7.2066 Y3.492 Z-0.0147
X7.204 Y3.4914 Z-0.0138
X7.2017 Y3.4909 Z-0.0123
X7.1998 Y3.4905 Z-0.0103
X7.1983 Y3.4901 Z-0.0079
X7.1974 Y3.4899 Z-0.0053
X7.1971 Z-0.0025
X7.2027 Y3.4655
Z-0.0075
X7.203 Y3.4656 Z-0.0103
X7.2039 Y3.4658 Z-0.0129
X7.2053 Y3.4661 Z-0.0153
X7.2073 Y3.4665 Z-0.0173
X7.2096 Y3.4671 Z-0.0188
X7.2122 Y3.4676 Z-0.0197
X7.2149 Y3.4683 Z-0.02
X7.227 Y3.4711
G3 X7.2364 Y3.486 I-0.0027 J0.0121
X7.1176 Y3.4589 I-0.0594 J-0.0136
X7.2364 Y3.486 I0.0594 J0.0135
X7.2215 Y3.4953 I-0.0121 J-0.0028
G1 X7.2093 Y3.4926
X7.2066 Y3.492 Z-0.0197
X7.204 Y3.4914 Z-0.0188
X7.2017 Y3.4909 Z-0.0173
X7.1998 Y3.4905 Z-0.0153
X7.1983 Y3.4901 Z-0.0129
X7.1974 Y3.4899 Z-0.0103
X7.1971 Z-0.0075
X7.2027 Y3.4655
Z-0.0125
X7.203 Y3.4656 Z-0.0153
X7.2039 Y3.4658 Z-0.0179
X7.2053 Y3.4661 Z-0.0203
X7.2073 Y3.4665 Z-0.0223
X7.2096 Y3.4671 Z-0.0238
X7.2122 Y3.4676 Z-0.0247
X7.2149 Y3.4683 Z-0.025
X7.227 Y3.4711
G3 X7.2364 Y3.486 I-0.0027 J0.0121
X7.1176 Y3.4589 I-0.0594 J-0.0136
X7.2364 Y3.486 I0.0594 J0.0135
X7.2215 Y3.4953 I-0.0121 J-0.0028
G1 X7.2093 Y3.4926
X7.2066 Y3.492 Z-0.0247
X7.204 Y3.4914 Z-0.0238
X7.2017 Y3.4909 Z-0.0223
X7.1998 Y3.4905 Z-0.0203
X7.1983 Y3.4901 Z-0.0179
X7.1974 Y3.4899 Z-0.0153
X7.1971 Z-0.0125
X7.2027 Y3.4655
Z-0.0153
X7.203 Y3.4656 Z-0.018
X7.2039 Y3.4658 Z-0.0207
X7.2053 Y3.4661 Z-0.023
X7.2073 Y3.4665 Z-0.025
X7.2096 Y3.4671 Z-0.0265
X7.2122 Y3.4676 Z-0.0274
X7.2149 Y3.4683 Z-0.0278
X7.227 Y3.4711
G3 X7.2364 Y3.486 I-0.0027 J0.0121
X7.1176 Y3.4589 I-0.0594 J-0.0136
X7.2364 Y3.486 I0.0594 J0.0135
X7.2215 Y3.4953 I-0.0121 J-0.0028
G1 X7.2093 Y3.4926
X7.2066 Y3.492 Z-0.0274
X7.204 Y3.4914 Z-0.0265
X7.2017 Y3.4909 Z-0.025
X7.1998 Y3.4905 Z-0.023
X7.1983 Y3.4901 Z-0.0207
X7.1974 Y3.4899 Z-0.018
X7.1971 Z-0.0153
X7.2027 Y3.4655
Z-0.018
X7.203 Y3.4656 Z-0.0208
X7.2039 Y3.4658 Z-0.0234
X7.2053 Y3.4661 Z-0.0258
X7.2073 Y3.4665 Z-0.0278
X7.2096 Y3.4671 Z-0.0293
X7.2122 Y3.4676 Z-0.0302
X7.2149 Y3.4683 Z-0.0305
X7.227 Y3.4711
G3 X7.2364 Y3.486 I-0.0027 J0.0121
X7.1176 Y3.4589 I-0.0594 J-0.0136
X7.2364 Y3.486 I0.0594 J0.0135
X7.2215 Y3.4953 I-0.0121 J-0.0028
G1 X7.2093 Y3.4926
X7.2066 Y3.492 Z-0.0302
X7.204 Y3.4914 Z-0.0293
X7.2017 Y3.4909 Z-0.0278
X7.1998 Y3.4905 Z-0.0258
X7.1983 Y3.4901 Z-0.0234
X7.1974 Y3.4899 Z-0.0208
X7.1971 Z-0.018
G0 Z1.5
X7.2005 Y4.4442
G1 Z0.0075 F30
G18 G2 X7.213 Z-0.005 I0.0125 K0
G1 X7.2255
G17 G3 X7.238 Y4.4567 I0 J0.0125
X7.116 I-0.061 J0
X7.238 I0.061 J0
X7.2255 Y4.4692 I-0.0125 J0
G1 X7.213
G18 G3 X7.2005 Z0.0075 I0 K0.0125
G1 Y4.4442
Z0.0025
G2 X7.213 Z-0.01 I0.0125 K0
G1 X7.2255
G17 G3 X7.238 Y4.4567 I0 J0.0125
X7.116 I-0.061 J0
X7.238 I0.061 J0
X7.2255 Y4.4692 I-0.0125 J0
G1 X7.213
G18 G3 X7.2005 Z0.0025 I0 K0.0125
G1 Y4.4442
Z-0.0025
G2 X7.213 Z-0.015 I0.0125 K0
G1 X7.2255
G17 G3 X7.238 Y4.4567 I0 J0.0125
X7.116 I-0.061 J0
X7.238 I0.061 J0
X7.2255 Y4.4692 I-0.0125 J0
G1 X7.213
G18 G3 X7.2005 Z-0.0025 I0 K0.0125
G1 Y4.4442
Z-0.0075
G2 X7.213 Z-0.02 I0.0125 K0
G1 X7.2255
G17 G3 X7.238 Y4.4567 I0 J0.0125
X7.116 I-0.061 J0
X7.238 I0.061 J0
X7.2255 Y4.4692 I-0.0125 J0
G1 X7.213
G18 G3 X7.2005 Z-0.0075 I0 K0.0125
G1 Y4.4442
Z-0.0125
G2 X7.213 Z-0.025 I0.0125 K0
G1 X7.2255
G17 G3 X7.238 Y4.4567 I0 J0.0125
X7.116 I-0.061 J0
X7.238 I0.061 J0
X7.2255 Y4.4692 I-0.0125 J0
G1 X7.213
G18 G3 X7.2005 Z-0.0125 I0 K0.0125
G1 Y4.4442
Z-0.0153
G2 X7.213 Z-0.0277 I0.0125 K0.0001
G1 X7.2255 Z-0.0278
G17 G3 X7.238 Y4.4567 I0 J0.0125
X7.116 I-0.061 J0
X7.238 I0.061 J0
X7.2255 Y4.4692 I-0.0125 J0
G1 X7.213
G18 G3 X7.2004 Z-0.0153 I0 K0.0126
G1 X7.2005 Y4.4442
Z-0.018
G2 X7.213 Z-0.0305 I0.0125 K0
G1 X7.2255
G17 G3 X7.238 Y4.4567 I0 J0.0125
X7.116 I-0.061 J0
X7.238 I0.061 J0
X7.2255 Y4.4692 I-0.0125 J0
G1 X7.213
G18 G3 X7.2005 Z-0.018 I0 K0.0125
G0 Z1.5
X7.2027 Y5.434
G1 Z0.0075 F30
X7.203 Y5.4341 Z0.0047
X7.2039 Y5.4343 Z0.0021
X7.2053 Y5.4346 Z-0.0003
X7.2073 Y5.435 Z-0.0023
X7.2096 Y5.4356 Z-0.0038
X7.2122 Y5.4362 Z-0.0047
X7.2149 Y5.4368 Z-0.005
X7.227 Y5.4396
G17 G3 X7.2364 Y5.4545 I-0.0027 J0.0121
X7.1176 Y5.4274 I-0.0594 J-0.0136
X7.2364 Y5.4545 I0.0594 J0.0135
X7.2215 Y5.4638 I-0.0121 J-0.0028
G1 X7.2093 Y5.4611
X7.2066 Y5.4605 Z-0.0047
X7.204 Y5.4599 Z-0.0038
X7.2017 Y5.4594 Z-0.0023
X7.1998 Y5.459 Z-0.0003
X7.1983 Y5.4586 Z0.0021
X7.1974 Y5.4584 Z0.0047
X7.1971 Z0.0075
X7.2027 Y5.434
Z0.0025
X7.203 Y5.4341 Z-0.0003
X7.2039 Y5.4343 Z-0.0029
X7.2053 Y5.4346 Z-0.0053
X7.2073 Y5.435 Z-0.0073
X7.2096 Y5.4356 Z-0.0088
X7.2122 Y5.4362 Z-0.0097
X7.2149 Y5.4368 Z-0.01
X7.227 Y5.4396
G3 X7.2364 Y5.4545 I-0.0027 J0.0121
X7.1176 Y5.4274 I-0.0594 J-0.0136
X7.2364 Y5.4545 I0.0594 J0.0135
X7.2215 Y5.4638 I-0.0121 J-0.0028
G1 X7.2093 Y5.4611
X7.2066 Y5.4605 Z-0.0097
X7.204 Y5.4599 Z-0.0088
X7.2017 Y5.4594 Z-0.0073
X7.1998 Y5.459 Z-0.0053
X7.1983 Y5.4586 Z-0.0029
X7.1974 Y5.4584 Z-0.0003
X7.1971 Z0.0025
X7.2027 Y5.434
Z-0.0025
X7.203 Y5.4341 Z-0.0053
X7.2039 Y5.4343 Z-0.0079
X7.2053 Y5.4346 Z-0.0103
X7.2073 Y5.435 Z-0.0123
X7.2096 Y5.4356 Z-0.0138
X7.2122 Y5.4362 Z-0.0147
X7.2149 Y5.4368 Z-0.015
X7.227 Y5.4396
G3 X7.2364 Y5.4545 I-0.0027 J0.0121
X7.1176 Y5.4274 I-0.0594 J-0.0136
X7.2364 Y5.4545 I0.0594 J0.0135
X7.2215 Y5.4638 I-0.0121 J-0.0028
G1 X7.2093 Y5.4611
X7.2066 Y5.4605 Z-0.0147
X7.204 Y5.4599 Z-0.0138
X7.2017 Y5.4594 Z-0.0123
X7.1998 Y5.459 Z-0.0103
X7.1983 Y5.4586 Z-0.0079
X7.1974 Y5.4584 Z-0.0053
X7.1971 Z-0.0025
X7.2027 Y5.434
Z-0.0075
X7.203 Y5.4341 Z-0.0103
X7.2039 Y5.4343 Z-0.0129
X7.2053 Y5.4346 Z-0.0153
X7.2073 Y5.435 Z-0.0173
X7.2096 Y5.4356 Z-0.0188
X7.2122 Y5.4362 Z-0.0197
X7.2149 Y5.4368 Z-0.02
X7.227 Y5.4396
G3 X7.2364 Y5.4545 I-0.0027 J0.0121
X7.1176 Y5.4274 I-0.0594 J-0.0136
X7.2364 Y5.4545 I0.0594 J0.0135
X7.2215 Y5.4638 I-0.0121 J-0.0028
G1 X7.2093 Y5.4611
X7.2066 Y5.4605 Z-0.0197
X7.204 Y5.4599 Z-0.0188
X7.2017 Y5.4594 Z-0.0173
X7.1998 Y5.459 Z-0.0153
X7.1983 Y5.4586 Z-0.0129
X7.1974 Y5.4584 Z-0.0103
X7.1971 Z-0.0075
X7.2027 Y5.434
Z-0.0125
X7.203 Y5.4341 Z-0.0153
X7.2039 Y5.4343 Z-0.0179
X7.2053 Y5.4346 Z-0.0203
X7.2073 Y5.435 Z-0.0223
X7.2096 Y5.4356 Z-0.0238
X7.2122 Y5.4362 Z-0.0247
X7.2149 Y5.4368 Z-0.025
X7.227 Y5.4396
G3 X7.2364 Y5.4545 I-0.0027 J0.0121
X7.1176 Y5.4274 I-0.0594 J-0.0136
X7.2364 Y5.4545 I0.0594 J0.0135
X7.2215 Y5.4638 I-0.0121 J-0.0028
G1 X7.2093 Y5.4611
X7.2066 Y5.4605 Z-0.0247
X7.204 Y5.4599 Z-0.0238
X7.2017 Y5.4594 Z-0.0223
X7.1998 Y5.459 Z-0.0203
X7.1983 Y5.4586 Z-0.0179
X7.1974 Y5.4584 Z-0.0153
X7.1971 Z-0.0125
X7.2027 Y5.434
Z-0.0153
X7.203 Y5.4341 Z-0.018
X7.2039 Y5.4343 Z-0.0207
X7.2053 Y5.4346 Z-0.023
X7.2073 Y5.435 Z-0.025
X7.2096 Y5.4356 Z-0.0265
X7.2122 Y5.4362 Z-0.0274
X7.2149 Y5.4368 Z-0.0278
X7.227 Y5.4396
G3 X7.2364 Y5.4545 I-0.0027 J0.0121
X7.1176 Y5.4274 I-0.0594 J-0.0136
X7.2364 Y5.4545 I0.0594 J0.0135
X7.2215 Y5.4638 I-0.0121 J-0.0028
G1 X7.2093 Y5.4611
X7.2066 Y5.4605 Z-0.0274
X7.204 Y5.4599 Z-0.0265
X7.2017 Y5.4594 Z-0.025
X7.1998 Y5.459 Z-0.023
X7.1983 Y5.4586 Z-0.0207
X7.1974 Y5.4584 Z-0.018
X7.1971 Z-0.0153
X7.2027 Y5.434
Z-0.018
X7.203 Y5.4341 Z-0.0208
X7.2039 Y5.4343 Z-0.0234
X7.2053 Y5.4346 Z-0.0258
X7.2073 Y5.435 Z-0.0278
X7.2096 Y5.4356 Z-0.0293
X7.2122 Y5.4362 Z-0.0302
X7.2149 Y5.4368 Z-0.0305
X7.227 Y5.4396
G3 X7.2364 Y5.4545 I-0.0027 J0.0121
X7.1176 Y5.4274 I-0.0594 J-0.0136
X7.2364 Y5.4545 I0.0594 J0.0135
X7.2215 Y5.4638 I-0.0121 J-0.0028
G1 X7.2093 Y5.4611
X7.2066 Y5.4605 Z-0.0302
X7.204 Y5.4599 Z-0.0293
X7.2017 Y5.4594 Z-0.0278
X7.1998 Y5.459 Z-0.0258
X7.1983 Y5.4586 Z-0.0234
X7.1974 Y5.4584 Z-0.0208
X7.1971 Z-0.018
G0 Z1.5
X7.2027 Y6.4182
G1 Z0.0075 F30
X7.203 Y6.4183 Z0.0047
X7.2039 Y6.4185 Z0.0021
X7.2053 Y6.4188 Z-0.0003
X7.2073 Y6.4193 Z-0.0023
X7.2096 Y6.4198 Z-0.0038
X7.2122 Y6.4204 Z-0.0047
X7.2149 Y6.421 Z-0.005
X7.227 Y6.4238
G3 X7.2365 Y6.4388 I-0.0027 J0.0122
X7.1175 Y6.4116 I-0.0595 J-0.0136
X7.2365 Y6.4388 I0.0595 J0.0136
X7.2215 Y6.4482 I-0.0122 J-0.0028
G1 X7.2093 Y6.4454
X7.2066 Y6.4448 Z-0.0047
X7.204 Y6.4442 Z-0.0038
X7.2017 Y6.4437 Z-0.0023
X7.1998 Y6.4432 Z-0.0003
X7.1983 Y6.4429 Z0.0021
X7.1974 Y6.4427 Z0.0047
X7.1971 Y6.4426 Z0.0075
X7.2027 Y6.4182
Z0.0025
X7.203 Y6.4183 Z-0.0003
X7.2039 Y6.4185 Z-0.0029
X7.2053 Y6.4188 Z-0.0053
X7.2073 Y6.4193 Z-0.0073
X7.2096 Y6.4198 Z-0.0088
X7.2122 Y6.4204 Z-0.0097
X7.2149 Y6.421 Z-0.01
X7.227 Y6.4238
G3 X7.2365 Y6.4388 I-0.0027 J0.0122
X7.1175 Y6.4116 I-0.0595 J-0.0136
X7.2365 Y6.4388 I0.0595 J0.0136
X7.2215 Y6.4482 I-0.0122 J-0.0028
G1 X7.2093 Y6.4454
X7.2066 Y6.4448 Z-0.0097
X7.204 Y6.4442 Z-0.0088
X7.2017 Y6.4437 Z-0.0073
X7.1998 Y6.4432 Z-0.0053
X7.1983 Y6.4429 Z-0.0029
X7.1974 Y6.4427 Z-0.0003
X7.1971 Y6.4426 Z0.0025
X7.2027 Y6.4182
Z-0.0025
X7.203 Y6.4183 Z-0.0053
X7.2039 Y6.4185 Z-0.0079
X7.2053 Y6.4188 Z-0.0103
X7.2073 Y6.4193 Z-0.0123
X7.2096 Y6.4198 Z-0.0138
X7.2122 Y6.4204 Z-0.0147
X7.2149 Y6.421 Z-0.015
X7.227 Y6.4238
G3 X7.2365 Y6.4388 I-0.0027 J0.0122
X7.1175 Y6.4116 I-0.0595 J-0.0136
X7.2365 Y6.4388 I0.0595 J0.0136
X7.2215 Y6.4482 I-0.0122 J-0.0028
G1 X7.2093 Y6.4454
X7.2066 Y6.4448 Z-0.0147
X7.204 Y6.4442 Z-0.0138
X7.2017 Y6.4437 Z-0.0123
X7.1998 Y6.4432 Z-0.0103
X7.1983 Y6.4429 Z-0.0079
X7.1974 Y6.4427 Z-0.0053
X7.1971 Y6.4426 Z-0.0025
X7.2027 Y6.4182
Z-0.0075
X7.203 Y6.4183 Z-0.0103
X7.2039 Y6.4185 Z-0.0129
X7.2053 Y6.4188 Z-0.0153
X7.2073 Y6.4193 Z-0.0173
X7.2096 Y6.4198 Z-0.0188
X7.2122 Y6.4204 Z-0.0197
X7.2149 Y6.421 Z-0.02
X7.227 Y6.4238
G3 X7.2365 Y6.4388 I-0.0027 J0.0122
X7.1175 Y6.4116 I-0.0595 J-0.0136
X7.2365 Y6.4388 I0.0595 J0.0136
X7.2215 Y6.4482 I-0.0122 J-0.0028
G1 X7.2093 Y6.4454
X7.2066 Y6.4448 Z-0.0197
X7.204 Y6.4442 Z-0.0188
X7.2017 Y6.4437 Z-0.0173
X7.1998 Y6.4432 Z-0.0153
X7.1983 Y6.4429 Z-0.0129
X7.1974 Y6.4427 Z-0.0103
X7.1971 Y6.4426 Z-0.0075
X7.2027 Y6.4182
Z-0.0125
X7.203 Y6.4183 Z-0.0153
X7.2039 Y6.4185 Z-0.0179
X7.2053 Y6.4188 Z-0.0203
X7.2073 Y6.4193 Z-0.0223
X7.2096 Y6.4198 Z-0.0238
X7.2122 Y6.4204 Z-0.0247
X7.2149 Y6.421 Z-0.025
X7.227 Y6.4238
G3 X7.2365 Y6.4388 I-0.0027 J0.0122
X7.1175 Y6.4116 I-0.0595 J-0.0136
X7.2365 Y6.4388 I0.0595 J0.0136
X7.2215 Y6.4482 I-0.0122 J-0.0028
G1 X7.2093 Y6.4454
X7.2066 Y6.4448 Z-0.0247
X7.204 Y6.4442 Z-0.0238
X7.2017 Y6.4437 Z-0.0223
X7.1998 Y6.4432 Z-0.0203
X7.1983 Y6.4429 Z-0.0179
X7.1974 Y6.4427 Z-0.0153
X7.1971 Y6.4426 Z-0.0125
X7.2027 Y6.4182
Z-0.0153
X7.203 Y6.4183 Z-0.018
X7.2039 Y6.4185 Z-0.0207
X7.2053 Y6.4188 Z-0.023
X7.2073 Y6.4193 Z-0.025
X7.2096 Y6.4198 Z-0.0265
X7.2122 Y6.4204 Z-0.0274
X7.2149 Y6.421 Z-0.0278
X7.227 Y6.4238
G3 X7.2365 Y6.4388 I-0.0027 J0.0122
X7.1175 Y6.4116 I-0.0595 J-0.0136
X7.2365 Y6.4388 I0.0595 J0.0136
X7.2215 Y6.4482 I-0.0122 J-0.0028
G1 X7.2093 Y6.4454
X7.2066 Y6.4448 Z-0.0274
X7.204 Y6.4442 Z-0.0265
X7.2017 Y6.4437 Z-0.025
X7.1998 Y6.4432 Z-0.023
X7.1983 Y6.4429 Z-0.0207
X7.1974 Y6.4427 Z-0.018
X7.1971 Y6.4426 Z-0.0153
X7.2027 Y6.4182
Z-0.018
X7.203 Y6.4183 Z-0.0208
X7.2039 Y6.4185 Z-0.0234
X7.2053 Y6.4188 Z-0.0258
X7.2073 Y6.4193 Z-0.0278
X7.2096 Y6.4198 Z-0.0293
X7.2122 Y6.4204 Z-0.0302
X7.2149 Y6.421 Z-0.0305
X7.227 Y6.4238
G3 X7.2365 Y6.4388 I-0.0027 J0.0122
X7.1175 Y6.4116 I-0.0595 J-0.0136
X7.2365 Y6.4388 I0.0595 J0.0136
X7.2215 Y6.4482 I-0.0122 J-0.0028
G1 X7.2093 Y6.4454
X7.2066 Y6.4448 Z-0.0302
X7.204 Y6.4442 Z-0.0293
X7.2017 Y6.4437 Z-0.0278
X7.1998 Y6.4432 Z-0.0258
X7.1983 Y6.4429 Z-0.0234
X7.1974 Y6.4427 Z-0.0208
X7.1971 Y6.4426 Z-0.018
G0 Z1.5
X7.2005 Y7.3969
G1 Z0.0075 F30
G18 G2 X7.213 Z-0.005 I0.0125 K0
G1 X7.2255
G17 G3 X7.238 Y7.4094 I0 J0.0125
X7.116 I-0.061 J0
X7.238 I0.061 J0
X7.2255 Y7.4219 I-0.0125 J0
G1 X7.213
G18 G3 X7.2005 Z0.0075 I0 K0.0125
G1 Y7.3969
Z0.0025
G2 X7.213 Z-0.01 I0.0125 K0
G1 X7.2255
G17 G3 X7.238 Y7.4094 I0 J0.0125
X7.116 I-0.061 J0
X7.238 I0.061 J0
X7.2255 Y7.4219 I-0.0125 J0
G1 X7.213
G18 G3 X7.2005 Z0.0025 I0 K0.0125
G1 Y7.3969
Z-0.0025
G2 X7.213 Z-0.015 I0.0125 K0
G1 X7.2255
G17 G3 X7.238 Y7.4094 I0 J0.0125
X7.116 I-0.061 J0
X7.238 I0.061 J0
X7.2255 Y7.4219 I-0.0125 J0
G1 X7.213
G18 G3 X7.2005 Z-0.0025 I0 K0.0125
G1 Y7.3969
Z-0.0075
G2 X7.213 Z-0.02 I0.0125 K0
G1 X7.2255
G17 G3 X7.238 Y7.4094 I0 J0.0125
X7.116 I-0.061 J0
X7.238 I0.061 J0
X7.2255 Y7.4219 I-0.0125 J0
G1 X7.213
G18 G3 X7.2005 Z-0.0075 I0 K0.0125
G1 Y7.3969
Z-0.0125
G2 X7.213 Z-0.025 I0.0125 K0
G1 X7.2255
G17 G3 X7.238 Y7.4094 I0 J0.0125
X7.116 I-0.061 J0
X7.238 I0.061 J0
X7.2255 Y7.4219 I-0.0125 J0
G1 X7.213
G18 G3 X7.2005 Z-0.0125 I0 K0.0125
G1 Y7.3969
Z-0.0153
G2 X7.213 Z-0.0277 I0.0125 K0.0001
G1 X7.2255 Z-0.0278
G17 G3 X7.238 Y7.4094 I0 J0.0125
X7.116 I-0.061 J0
X7.238 I0.061 J0
X7.2255 Y7.4219 I-0.0125 J0
G1 X7.213
G18 G3 X7.2004 Z-0.0153 I0 K0.0126
G1 X7.2005 Y7.3969
Z-0.018
G2 X7.213 Z-0.0305 I0.0125 K0
G1 X7.2255
G17 G3 X7.238 Y7.4094 I0 J0.0125
X7.116 I-0.061 J0
X7.238 I0.061 J0
X7.2255 Y7.4219 I-0.0125 J0
G1 X7.213
G18 G3 X7.2005 Z-0.018 I0 K0.0125
G0 Z1.5
G17
G28 G91 Z0
G90
G28 G91 X0 Y0
G90
M30
%
