%
(Faceplate_Holes_FinalCorner)
(T2  D=0.125 CR=0 - ZMIN=-0.0305 - flat end mill)
G90
G17
G20
G28 G91 Z0
G90

(2D Contour3)
T2 M6
S10000 M3
G54
G0 X-0.0125 Y8.1
Z1.5
G1 Z0.0075 F30
G19 G2 Y8.0875 Z-0.005 J-0.0125 K0
G1 Y8.075
G17 G3 X0 Y8.0625 I0.0125 J0
G1 X7.75
G3 X7.7625 Y8.075 I0 J0.0125
G1 Y8.0875
G19 G3 Y8.1 Z0.0075 J0 K0.0125
G0 Z1.5
X-0.0125
Z1.495
G1 Z0.0025 F30
G2 Y8.0875 Z-0.01 J-0.0125 K0
G1 Y8.075
G17 G3 X0 Y8.0625 I0.0125 J0
G1 X7.75
G3 X7.7625 Y8.075 I0 J0.0125
G1 Y8.0875
G19 G3 Y8.1 Z0.0025 J0 K0.0125
G0 Z1.5
X-0.0125
Z1.49
G1 Z-0.0025 F30
G2 Y8.0875 Z-0.015 J-0.0125 K0
G1 Y8.075
G17 G3 X0 Y8.0625 I0.0125 J0
G1 X7.75
G3 X7.7625 Y8.075 I0 J0.0125
G1 Y8.0875
G19 G3 Y8.1 Z-0.0025 J0 K0.0125
G0 Z1.5
X-0.0125
Z1.485
G1 Z-0.0075 F30
G2 Y8.0875 Z-0.02 J-0.0125 K0
G1 Y8.075
G17 G3 X0 Y8.0625 I0.0125 J0
G1 X7.75
G3 X7.7625 Y8.075 I0 J0.0125
G1 Y8.0875
G19 G3 Y8.1 Z-0.0075 J0 K0.0125
G0 Z1.5
X-0.0125
Z1.48
G1 Z-0.0125 F30
G2 Y8.0875 Z-0.025 J-0.0125 K0
G1 Y8.075
G17 G3 X0 Y8.0625 I0.0125 J0
G1 X7.75
G3 X7.7625 Y8.075 I0 J0.0125
G1 Y8.0875
G19 G3 Y8.1 Z-0.0125 J0 K0.0125
G0 Z1.5
X-0.0125
Z1.475
G1 Z-0.0153 F30
G2 Y8.0875 Z-0.0277 J-0.0125 K0.0001
G1 Y8.075 Z-0.0278
G17 G3 X0 Y8.0625 I0.0125 J0
G1 X7.75
G3 X7.7625 Y8.075 I0 J0.0125
G1 Y8.0875
G19 G3 Y8.1001 Z-0.0153 J0 K0.0126
G0 Y8.1 Z1.5
X-0.0125
Z1.4722
G1 Z-0.018 F30
G2 Y8.0875 Z-0.0305 J-0.0125 K0
G1 Y8.075
G17 G3 X0 Y8.0625 I0.0125 J0
G1 X7.75
G3 X7.7625 Y8.075 I0 J0.0125
G1 Y8.0875
G19 G3 Y8.1 Z-0.018 J0 K0.0125
G0 Z1.5
G17
G28 G91 Z0
G90
G28 G91 X0 Y0
G90
M30
%
