%
(faceTheDelrin)
(T1  D=0.25 CR=0 - ZMIN=-0.4253 - flat end mill)
G90
G17
G20
G28 G91 Z0
G90

(Face2)
T1 M6
S10000 M3
G54
G0 X2.1625 Y0.0738
Z0.6
Z0.2
G1 Z-0.0003 F30
G18 G3 X2.1375 Z-0.0253 I-0.025 K0 F60
G1 X2
X0
G17 G2 Y0.2706 I0 J0.0984
G1 X2
G3 Y0.4674 I0 J0.0984
G1 X0
G2 Y0.6642 I0 J0.0984
G1 X2
G3 Y0.861 I0 J0.0984
G1 X0
G2 Y1.0578 I0 J0.0984
G1 X2
G3 Y1.2546 I0 J0.0984
G1 X0 Y1.2547
G2 Y1.4515 I0 J0.0984
G1 X2
G3 Y1.6483 I0 J0.0984
G1 X0
G2 Y1.8451 I0 J0.0984
G1 X2
G3 Y2.0419 I0 J0.0984
G1 X0
G2 Y2.2387 I0 J0.0984
G1 X2
G3 Y2.4355 I0 J0.0984
G1 X0
G2 Y2.6323 I0 J0.0984
G1 X2
G3 Y2.8291 I0 J0.0984
G1 X0
G2 Y3.0261 I0 J0.0985
G1 X2 Y3.026
G3 Y3.2228 I0 J0.0984
G1 X0
G2 Y3.4196 I0 J0.0984
G1 X2
G3 Y3.6164 I0 J0.0984
G1 X0
G2 Y3.8132 I0 J0.0984
G1 X2
G3 Y4.01 I0 J0.0984
G1 X0
G2 Y4.2068 I0 J0.0984
G1 X2
G3 Y4.4036 I0 J0.0984
G1 X0
G2 Y4.6004 I0 J0.0984
G1 X2
G3 Y4.7974 I0 J0.0985
G1 X0 Y4.7973
G2 Y4.9941 I0 J0.0984
G1 X2
G3 Y5.1909 I0 J0.0984
G1 X0
G2 Y5.3877 I0 J0.0984
G1 X2
G3 Y5.5845 I0 J0.0984
G1 X0
G2 Y5.7813 I0 J0.0984
G1 X2
G3 Y5.9781 I0 J0.0984
G1 X0
G2 Y6.1749 I0 J0.0984
G1 X2
G3 Y6.3717 I0 J0.0984
G1 X0
G2 Y6.5687 I0 J0.0985
G1 X2 Y6.5686
G3 Y6.7654 I0 J0.0984
G1 X0
G2 Y6.9622 I0 J0.0984
G1 X2
G3 Y7.159 I0 J0.0984
G1 X0
G2 Y7.3558 I0 J0.0984
G1 X2
G3 Y7.5526 I0 J0.0984
G1 X0
G2 Y7.7494 I0 J0.0984
G1 X2
G3 Y7.9462 I0 J0.0984
G1 X0
G2 Y8.143 I0 J0.0984
G1 X2
G3 Y8.34 I0 J0.0985
G1 X0 Y8.3399
G2 Y8.5367 I0 J0.0984
G1 X2
G3 Y8.7335 I0 J0.0984
G1 X0
G2 Y8.9303 I0 J0.0984
G1 X2
G3 Y9.1271 I0 J0.0984
G1 X0
G2 Y9.3239 I0 J0.0984
G1 X2
G3 Y9.5207 I0 J0.0984
G1 X0
G2 Y9.7175 I0 J0.0984
G1 X2
G3 Y9.9143 I0 J0.0984
G1 X0 Y9.9144
G2 Y10.1112 I0 J0.0984
G1 X2
G3 Y10.308 I0 J0.0984
G1 X0
G2 Y10.5048 I0 J0.0984
G1 X2
G3 Y10.7016 I0 J0.0984
G1 X0
G2 Y10.8984 I0 J0.0984
G1 X2
G3 Y11.0952 I0 J0.0984
G1 X0
G2 Y11.292 I0 J0.0984
G1 X2
G3 Y11.4888 I0 J0.0984
G1 X0
G2 Y11.6856 I0 J0.0984
G1 X2 Y11.6857
G3 Y11.8825 I0 J0.0984
G1 X0
G2 Y12.0793 I0 J0.0984
G1 X2
G18 G2 X2.025 Z-0.0003 I0 K0.025
G0 Z0.2
X2.1625 Y0.0738
G1 Z-0.0803 F30
G3 X2.1375 Z-0.1053 I-0.025 K0 F60
G1 X2
X0
G17 G2 Y0.2706 I0 J0.0984
G1 X2
G3 Y0.4674 I0 J0.0984
G1 X0
G2 Y0.6642 I0 J0.0984
G1 X2
G3 Y0.861 I0 J0.0984
G1 X0
G2 Y1.0578 I0 J0.0984
G1 X2
G3 Y1.2546 I0 J0.0984
G1 X0 Y1.2547
G2 Y1.4515 I0 J0.0984
G1 X2
G3 Y1.6483 I0 J0.0984
G1 X0
G2 Y1.8451 I0 J0.0984
G1 X2
G3 Y2.0419 I0 J0.0984
G1 X0
G2 Y2.2387 I0 J0.0984
G1 X2
G3 Y2.4355 I0 J0.0984
G1 X0
G2 Y2.6323 I0 J0.0984
G1 X2
G3 Y2.8291 I0 J0.0984
G1 X0
G2 Y3.0261 I0 J0.0985
G1 X2 Y3.026
G3 Y3.2228 I0 J0.0984
G1 X0
G2 Y3.4196 I0 J0.0984
G1 X2
G3 Y3.6164 I0 J0.0984
G1 X0
G2 Y3.8132 I0 J0.0984
G1 X2
G3 Y4.01 I0 J0.0984
G1 X0
G2 Y4.2068 I0 J0.0984
G1 X2
G3 Y4.4036 I0 J0.0984
G1 X0
G2 Y4.6004 I0 J0.0984
G1 X2
G3 Y4.7974 I0 J0.0985
G1 X0 Y4.7973
G2 Y4.9941 I0 J0.0984
G1 X2
G3 Y5.1909 I0 J0.0984
G1 X0
G2 Y5.3877 I0 J0.0984
G1 X2
G3 Y5.5845 I0 J0.0984
G1 X0
G2 Y5.7813 I0 J0.0984
G1 X2
G3 Y5.9781 I0 J0.0984
G1 X0
G2 Y6.1749 I0 J0.0984
G1 X2
G3 Y6.3717 I0 J0.0984
G1 X0
G2 Y6.5687 I0 J0.0985
G1 X2 Y6.5686
G3 Y6.7654 I0 J0.0984
G1 X0
G2 Y6.9622 I0 J0.0984
G1 X2
G3 Y7.159 I0 J0.0984
G1 X0
G2 Y7.3558 I0 J0.0984
G1 X2
G3 Y7.5526 I0 J0.0984
G1 X0
G2 Y7.7494 I0 J0.0984
G1 X2
G3 Y7.9462 I0 J0.0984
G1 X0
G2 Y8.143 I0 J0.0984
G1 X2
G3 Y8.34 I0 J0.0985
G1 X0 Y8.3399
G2 Y8.5367 I0 J0.0984
G1 X2
G3 Y8.7335 I0 J0.0984
G1 X0
G2 Y8.9303 I0 J0.0984
G1 X2
G3 Y9.1271 I0 J0.0984
G1 X0
G2 Y9.3239 I0 J0.0984
G1 X2
G3 Y9.5207 I0 J0.0984
G1 X0
G2 Y9.7175 I0 J0.0984
G1 X2
G3 Y9.9143 I0 J0.0984
G1 X0 Y9.9144
G2 Y10.1112 I0 J0.0984
G1 X2
G3 Y10.308 I0 J0.0984
G1 X0
G2 Y10.5048 I0 J0.0984
G1 X2
G3 Y10.7016 I0 J0.0984
G1 X0
G2 Y10.8984 I0 J0.0984
G1 X2
G3 Y11.0952 I0 J0.0984
G1 X0
G2 Y11.292 I0 J0.0984
G1 X2
G3 Y11.4888 I0 J0.0984
G1 X0
G2 Y11.6856 I0 J0.0984
G1 X2 Y11.6857
G3 Y11.8825 I0 J0.0984
G1 X0
G2 Y12.0793 I0 J0.0984
G1 X2
G18 G2 X2.025 Z-0.0803 I0 K0.025
G0 Z0.2
X2.1625 Y0.0738
G1 Z-0.1603 F30
G3 X2.1375 Z-0.1853 I-0.025 K0 F60
G1 X2
X0
G17 G2 Y0.2706 I0 J0.0984
G1 X2
G3 Y0.4674 I0 J0.0984
G1 X0
G2 Y0.6642 I0 J0.0984
G1 X2
G3 Y0.861 I0 J0.0984
G1 X0
G2 Y1.0578 I0 J0.0984
G1 X2
G3 Y1.2546 I0 J0.0984
G1 X0 Y1.2547
G2 Y1.4515 I0 J0.0984
G1 X2
G3 Y1.6483 I0 J0.0984
G1 X0
G2 Y1.8451 I0 J0.0984
G1 X2
G3 Y2.0419 I0 J0.0984
G1 X0
G2 Y2.2387 I0 J0.0984
G1 X2
G3 Y2.4355 I0 J0.0984
G1 X0
G2 Y2.6323 I0 J0.0984
G1 X2
G3 Y2.8291 I0 J0.0984
G1 X0
G2 Y3.0261 I0 J0.0985
G1 X2 Y3.026
G3 Y3.2228 I0 J0.0984
G1 X0
G2 Y3.4196 I0 J0.0984
G1 X2
G3 Y3.6164 I0 J0.0984
G1 X0
G2 Y3.8132 I0 J0.0984
G1 X2
G3 Y4.01 I0 J0.0984
G1 X0
G2 Y4.2068 I0 J0.0984
G1 X2
G3 Y4.4036 I0 J0.0984
G1 X0
G2 Y4.6004 I0 J0.0984
G1 X2
G3 Y4.7974 I0 J0.0985
G1 X0 Y4.7973
G2 Y4.9941 I0 J0.0984
G1 X2
G3 Y5.1909 I0 J0.0984
G1 X0
G2 Y5.3877 I0 J0.0984
G1 X2
G3 Y5.5845 I0 J0.0984
G1 X0
G2 Y5.7813 I0 J0.0984
G1 X2
G3 Y5.9781 I0 J0.0984
G1 X0
G2 Y6.1749 I0 J0.0984
G1 X2
G3 Y6.3717 I0 J0.0984
G1 X0
G2 Y6.5687 I0 J0.0985
G1 X2 Y6.5686
G3 Y6.7654 I0 J0.0984
G1 X0
G2 Y6.9622 I0 J0.0984
G1 X2
G3 Y7.159 I0 J0.0984
G1 X0
G2 Y7.3558 I0 J0.0984
G1 X2
G3 Y7.5526 I0 J0.0984
G1 X0
G2 Y7.7494 I0 J0.0984
G1 X2
G3 Y7.9462 I0 J0.0984
G1 X0
G2 Y8.143 I0 J0.0984
G1 X2
G3 Y8.34 I0 J0.0985
G1 X0 Y8.3399
G2 Y8.5367 I0 J0.0984
G1 X2
G3 Y8.7335 I0 J0.0984
G1 X0
G2 Y8.9303 I0 J0.0984
G1 X2
G3 Y9.1271 I0 J0.0984
G1 X0
G2 Y9.3239 I0 J0.0984
G1 X2
G3 Y9.5207 I0 J0.0984
G1 X0
G2 Y9.7175 I0 J0.0984
G1 X2
G3 Y9.9143 I0 J0.0984
G1 X0 Y9.9144
G2 Y10.1112 I0 J0.0984
G1 X2
G3 Y10.308 I0 J0.0984
G1 X0
G2 Y10.5048 I0 J0.0984
G1 X2
G3 Y10.7016 I0 J0.0984
G1 X0
G2 Y10.8984 I0 J0.0984
G1 X2
G3 Y11.0952 I0 J0.0984
G1 X0
G2 Y11.292 I0 J0.0984
G1 X2
G3 Y11.4888 I0 J0.0984
G1 X0
G2 Y11.6856 I0 J0.0984
G1 X2 Y11.6857
G3 Y11.8825 I0 J0.0984
G1 X0
G2 Y12.0793 I0 J0.0984
G1 X2
G18 G2 X2.025 Z-0.1603 I0 K0.025
G0 Z0.2
X2.1625 Y0.0738
G1 Z-0.2403 F30
G3 X2.1375 Z-0.2653 I-0.025 K0 F60
G1 X2
X0
G17 G2 Y0.2706 I0 J0.0984
G1 X2
G3 Y0.4674 I0 J0.0984
G1 X0
G2 Y0.6642 I0 J0.0984
G1 X2
G3 Y0.861 I0 J0.0984
G1 X0
G2 Y1.0578 I0 J0.0984
G1 X2
G3 Y1.2546 I0 J0.0984
G1 X0 Y1.2547
G2 Y1.4515 I0 J0.0984
G1 X2
G3 Y1.6483 I0 J0.0984
G1 X0
G2 Y1.8451 I0 J0.0984
G1 X2
G3 Y2.0419 I0 J0.0984
G1 X0
G2 Y2.2387 I0 J0.0984
G1 X2
G3 Y2.4355 I0 J0.0984
G1 X0
G2 Y2.6323 I0 J0.0984
G1 X2
G3 Y2.8291 I0 J0.0984
G1 X0
G2 Y3.0261 I0 J0.0985
G1 X2 Y3.026
G3 Y3.2228 I0 J0.0984
G1 X0
G2 Y3.4196 I0 J0.0984
G1 X2
G3 Y3.6164 I0 J0.0984
G1 X0
G2 Y3.8132 I0 J0.0984
G1 X2
G3 Y4.01 I0 J0.0984
G1 X0
G2 Y4.2068 I0 J0.0984
G1 X2
G3 Y4.4036 I0 J0.0984
G1 X0
G2 Y4.6004 I0 J0.0984
G1 X2
G3 Y4.7974 I0 J0.0985
G1 X0 Y4.7973
G2 Y4.9941 I0 J0.0984
G1 X2
G3 Y5.1909 I0 J0.0984
G1 X0
G2 Y5.3877 I0 J0.0984
G1 X2
G3 Y5.5845 I0 J0.0984
G1 X0
G2 Y5.7813 I0 J0.0984
G1 X2
G3 Y5.9781 I0 J0.0984
G1 X0
G2 Y6.1749 I0 J0.0984
G1 X2
G3 Y6.3717 I0 J0.0984
G1 X0
G2 Y6.5687 I0 J0.0985
G1 X2 Y6.5686
G3 Y6.7654 I0 J0.0984
G1 X0
G2 Y6.9622 I0 J0.0984
G1 X2
G3 Y7.159 I0 J0.0984
G1 X0
G2 Y7.3558 I0 J0.0984
G1 X2
G3 Y7.5526 I0 J0.0984
G1 X0
G2 Y7.7494 I0 J0.0984
G1 X2
G3 Y7.9462 I0 J0.0984
G1 X0
G2 Y8.143 I0 J0.0984
G1 X2
G3 Y8.34 I0 J0.0985
G1 X0 Y8.3399
G2 Y8.5367 I0 J0.0984
G1 X2
G3 Y8.7335 I0 J0.0984
G1 X0
G2 Y8.9303 I0 J0.0984
G1 X2
G3 Y9.1271 I0 J0.0984
G1 X0
G2 Y9.3239 I0 J0.0984
G1 X2
G3 Y9.5207 I0 J0.0984
G1 X0
G2 Y9.7175 I0 J0.0984
G1 X2
G3 Y9.9143 I0 J0.0984
G1 X0 Y9.9144
G2 Y10.1112 I0 J0.0984
G1 X2
G3 Y10.308 I0 J0.0984
G1 X0
G2 Y10.5048 I0 J0.0984
G1 X2
G3 Y10.7016 I0 J0.0984
G1 X0
G2 Y10.8984 I0 J0.0984
G1 X2
G3 Y11.0952 I0 J0.0984
G1 X0
G2 Y11.292 I0 J0.0984
G1 X2
G3 Y11.4888 I0 J0.0984
G1 X0
G2 Y11.6856 I0 J0.0984
G1 X2 Y11.6857
G3 Y11.8825 I0 J0.0984
G1 X0
G2 Y12.0793 I0 J0.0984
G1 X2
G18 G2 X2.025 Z-0.2403 I0 K0.025
G0 Z0.2
X2.1625 Y0.0738
G1 Z-0.3203 F30
G3 X2.1375 Z-0.3453 I-0.025 K0 F60
G1 X2
X0
G17 G2 Y0.2706 I0 J0.0984
G1 X2
G3 Y0.4674 I0 J0.0984
G1 X0
G2 Y0.6642 I0 J0.0984
G1 X2
G3 Y0.861 I0 J0.0984
G1 X0
G2 Y1.0578 I0 J0.0984
G1 X2
G3 Y1.2546 I0 J0.0984
G1 X0 Y1.2547
G2 Y1.4515 I0 J0.0984
G1 X2
G3 Y1.6483 I0 J0.0984
G1 X0
G2 Y1.8451 I0 J0.0984
G1 X2
G3 Y2.0419 I0 J0.0984
G1 X0
G2 Y2.2387 I0 J0.0984
G1 X2
G3 Y2.4355 I0 J0.0984
G1 X0
G2 Y2.6323 I0 J0.0984
G1 X2
G3 Y2.8291 I0 J0.0984
G1 X0
G2 Y3.0261 I0 J0.0985
G1 X2 Y3.026
G3 Y3.2228 I0 J0.0984
G1 X0
G2 Y3.4196 I0 J0.0984
G1 X2
G3 Y3.6164 I0 J0.0984
G1 X0
G2 Y3.8132 I0 J0.0984
G1 X2
G3 Y4.01 I0 J0.0984
G1 X0
G2 Y4.2068 I0 J0.0984
G1 X2
G3 Y4.4036 I0 J0.0984
G1 X0
G2 Y4.6004 I0 J0.0984
G1 X2
G3 Y4.7974 I0 J0.0985
G1 X0 Y4.7973
G2 Y4.9941 I0 J0.0984
G1 X2
G3 Y5.1909 I0 J0.0984
G1 X0
G2 Y5.3877 I0 J0.0984
G1 X2
G3 Y5.5845 I0 J0.0984
G1 X0
G2 Y5.7813 I0 J0.0984
G1 X2
G3 Y5.9781 I0 J0.0984
G1 X0
G2 Y6.1749 I0 J0.0984
G1 X2
G3 Y6.3717 I0 J0.0984
G1 X0
G2 Y6.5687 I0 J0.0985
G1 X2 Y6.5686
G3 Y6.7654 I0 J0.0984
G1 X0
G2 Y6.9622 I0 J0.0984
G1 X2
G3 Y7.159 I0 J0.0984
G1 X0
G2 Y7.3558 I0 J0.0984
G1 X2
G3 Y7.5526 I0 J0.0984
G1 X0
G2 Y7.7494 I0 J0.0984
G1 X2
G3 Y7.9462 I0 J0.0984
G1 X0
G2 Y8.143 I0 J0.0984
G1 X2
G3 Y8.34 I0 J0.0985
G1 X0 Y8.3399
G2 Y8.5367 I0 J0.0984
G1 X2
G3 Y8.7335 I0 J0.0984
G1 X0
G2 Y8.9303 I0 J0.0984
G1 X2
G3 Y9.1271 I0 J0.0984
G1 X0
G2 Y9.3239 I0 J0.0984
G1 X2
G3 Y9.5207 I0 J0.0984
G1 X0
G2 Y9.7175 I0 J0.0984
G1 X2
G3 Y9.9143 I0 J0.0984
G1 X0 Y9.9144
G2 Y10.1112 I0 J0.0984
G1 X2
G3 Y10.308 I0 J0.0984
G1 X0
G2 Y10.5048 I0 J0.0984
G1 X2
G3 Y10.7016 I0 J0.0984
G1 X0
G2 Y10.8984 I0 J0.0984
G1 X2
G3 Y11.0952 I0 J0.0984
G1 X0
G2 Y11.292 I0 J0.0984
G1 X2
G3 Y11.4888 I0 J0.0984
G1 X0
G2 Y11.6856 I0 J0.0984
G1 X2 Y11.6857
G3 Y11.8825 I0 J0.0984
G1 X0
G2 Y12.0793 I0 J0.0984
G1 X2
G18 G2 X2.025 Z-0.3203 I0 K0.025
G0 Z0.2
X2.1625 Y0.0738
G1 Z-0.4003 F30
G3 X2.1375 Z-0.4253 I-0.025 K0 F60
G1 X2
X0
G17 G2 Y0.2706 I0 J0.0984
G1 X2
G3 Y0.4674 I0 J0.0984
G1 X0
G2 Y0.6642 I0 J0.0984
G1 X2
G3 Y0.861 I0 J0.0984
G1 X0
G2 Y1.0578 I0 J0.0984
G1 X2
G3 Y1.2546 I0 J0.0984
G1 X0 Y1.2547
G2 Y1.4515 I0 J0.0984
G1 X2
G3 Y1.6483 I0 J0.0984
G1 X0
G2 Y1.8451 I0 J0.0984
G1 X2
G3 Y2.0419 I0 J0.0984
G1 X0
G2 Y2.2387 I0 J0.0984
G1 X2
G3 Y2.4355 I0 J0.0984
G1 X0
G2 Y2.6323 I0 J0.0984
G1 X2
G3 Y2.8291 I0 J0.0984
G1 X0
G2 Y3.0261 I0 J0.0985
G1 X2 Y3.026
G3 Y3.2228 I0 J0.0984
G1 X0
G2 Y3.4196 I0 J0.0984
G1 X2
G3 Y3.6164 I0 J0.0984
G1 X0
G2 Y3.8132 I0 J0.0984
G1 X2
G3 Y4.01 I0 J0.0984
G1 X0
G2 Y4.2068 I0 J0.0984
G1 X2
G3 Y4.4036 I0 J0.0984
G1 X0
G2 Y4.6004 I0 J0.0984
G1 X2
G3 Y4.7974 I0 J0.0985
G1 X0 Y4.7973
G2 Y4.9941 I0 J0.0984
G1 X2
G3 Y5.1909 I0 J0.0984
G1 X0
G2 Y5.3877 I0 J0.0984
G1 X2
G3 Y5.5845 I0 J0.0984
G1 X0
G2 Y5.7813 I0 J0.0984
G1 X2
G3 Y5.9781 I0 J0.0984
G1 X0
G2 Y6.1749 I0 J0.0984
G1 X2
G3 Y6.3717 I0 J0.0984
G1 X0
G2 Y6.5687 I0 J0.0985
G1 X2 Y6.5686
G3 Y6.7654 I0 J0.0984
G1 X0
G2 Y6.9622 I0 J0.0984
G1 X2
G3 Y7.159 I0 J0.0984
G1 X0
G2 Y7.3558 I0 J0.0984
G1 X2
G3 Y7.5526 I0 J0.0984
G1 X0
G2 Y7.7494 I0 J0.0984
G1 X2
G3 Y7.9462 I0 J0.0984
G1 X0
G2 Y8.143 I0 J0.0984
G1 X2
G3 Y8.34 I0 J0.0985
G1 X0 Y8.3399
G2 Y8.5367 I0 J0.0984
G1 X2
G3 Y8.7335 I0 J0.0984
G1 X0
G2 Y8.9303 I0 J0.0984
G1 X2
G3 Y9.1271 I0 J0.0984
G1 X0
G2 Y9.3239 I0 J0.0984
G1 X2
G3 Y9.5207 I0 J0.0984
G1 X0
G2 Y9.7175 I0 J0.0984
G1 X2
G3 Y9.9143 I0 J0.0984
G1 X0 Y9.9144
G2 Y10.1112 I0 J0.0984
G1 X2
G3 Y10.308 I0 J0.0984
G1 X0
G2 Y10.5048 I0 J0.0984
G1 X2
G3 Y10.7016 I0 J0.0984
G1 X0
G2 Y10.8984 I0 J0.0984
G1 X2
G3 Y11.0952 I0 J0.0984
G1 X0
G2 Y11.292 I0 J0.0984
G1 X2
G3 Y11.4888 I0 J0.0984
G1 X0
G2 Y11.6856 I0 J0.0984
G1 X2 Y11.6857
G3 Y11.8825 I0 J0.0984
G1 X0
G2 Y12.0793 I0 J0.0984
G1 X2
G18 G2 X2.025 Z-0.4003 I0 K0.025
G0 Z0.6
G17
G28 G91 Z0
G90
G28 G91 X0 Y0
G90
M30
%
