%
(faceTheDelrin)
(T1  D=0.25 CR=0 - ZMIN=-1.4033 - flat end mill)
(T20  D=0.25 CR=0 TAPER=90deg - ZMIN=-0.1494 - countersink)
G90
G17
G20
G28 G91 Z0
G90

(2D Contour2)
T1 M6
S10000 M3
G54
G0 X1.178 Y2.1108
Z0.6
Z0.2
G1 Z0.08 F30
Z-0.015
G18 G2 X1.203 Z-0.04 I0.025 K0 F60
G1 X1.228
G17 G3 X1.253 Y2.1358 I0 J0.025
G1 Y2.7982
X0.3219
Y1.6703
X1.253
Y2.1358
G3 X1.228 Y2.1608 I-0.025 J0
G1 X1.203
G18 G3 X1.178 Z-0.015 I0 K0.025
G1 Y2.1108
Z-0.055 F30
G2 X1.203 Z-0.08 I0.025 K0 F60
G1 X1.228
G17 G3 X1.253 Y2.1358 I0 J0.025
G1 Y2.7982
X0.3219
Y1.6703
X1.253
Y2.1358
G3 X1.228 Y2.1608 I-0.025 J0
G1 X1.203
G18 G3 X1.178 Z-0.055 I0 K0.025
G1 Y2.1108
Z-0.095 F30
G2 X1.203 Z-0.12 I0.025 K0 F60
G1 X1.228
G17 G3 X1.253 Y2.1358 I0 J0.025
G1 Y2.7982
X0.3219
Y1.6703
X1.253
Y2.1358
G3 X1.228 Y2.1608 I-0.025 J0
G1 X1.203
G18 G3 X1.178 Z-0.095 I0 K0.025
G1 Y2.1108
Z-0.135 F30
G2 X1.203 Z-0.16 I0.025 K0 F60
G1 X1.228
G17 G3 X1.253 Y2.1358 I0 J0.025
G1 Y2.7982
X0.3219
Y1.6703
X1.253
Y2.1358
G3 X1.228 Y2.1608 I-0.025 J0
G1 X1.203
G18 G3 X1.178 Z-0.135 I0 K0.025
G1 Y2.1108
Z-0.175 F30
G2 X1.203 Z-0.2 I0.025 K0 F60
G1 X1.228
G17 G3 X1.253 Y2.1358 I0 J0.025
G1 Y2.7982
X0.3219
Y1.6703
X1.253
Y2.1358
G3 X1.228 Y2.1608 I-0.025 J0
G1 X1.203
G18 G3 X1.178 Z-0.175 I0 K0.025
G1 Y2.1108
Z-0.215 F30
G2 X1.203 Z-0.24 I0.025 K0 F60
G1 X1.228
G17 G3 X1.253 Y2.1358 I0 J0.025
G1 Y2.7982
X0.3219
Y1.6703
X1.253
Y2.1358
G3 X1.228 Y2.1608 I-0.025 J0
G1 X1.203
G18 G3 X1.178 Z-0.215 I0 K0.025
G1 Y2.1108
Z-0.255 F30
G2 X1.203 Z-0.28 I0.025 K0 F60
G1 X1.228
G17 G3 X1.253 Y2.1358 I0 J0.025
G1 Y2.7982
X0.3219
Y1.6703
X1.253
Y2.1358
G3 X1.228 Y2.1608 I-0.025 J0
G1 X1.203
G18 G3 X1.178 Z-0.255 I0 K0.025
G1 Y2.1108
Z-0.295 F30
G2 X1.203 Z-0.32 I0.025 K0 F60
G1 X1.228
G17 G3 X1.253 Y2.1358 I0 J0.025
G1 Y2.7982
X0.3219
Y1.6703
X1.253
Y2.1358
G3 X1.228 Y2.1608 I-0.025 J0
G1 X1.203
G18 G3 X1.178 Z-0.295 I0 K0.025
G1 Y2.1108
Z-0.335 F30
G2 X1.203 Z-0.36 I0.025 K0 F60
G1 X1.228
G17 G3 X1.253 Y2.1358 I0 J0.025
G1 Y2.7982
X0.3219
Y1.6703
X1.253
Y2.1358
G3 X1.228 Y2.1608 I-0.025 J0
G1 X1.203
G18 G3 X1.178 Z-0.335 I0 K0.025
G1 Y2.1108
Z-0.375 F30
G2 X1.203 Z-0.4 I0.025 K0 F60
G1 X1.228
G17 G3 X1.253 Y2.1358 I0 J0.025
G1 Y2.7982
X0.3219
Y1.6703
X1.253
Y2.1358
G3 X1.228 Y2.1608 I-0.025 J0
G1 X1.203
G18 G3 X1.178 Z-0.375 I0 K0.025
G1 Y2.1108
Z-0.415 F30
G2 X1.203 Z-0.44 I0.025 K0 F60
G1 X1.228
G17 G3 X1.253 Y2.1358 I0 J0.025
G1 Y2.7982
X0.3219
Y1.6703
X1.253
Y2.1358
G3 X1.228 Y2.1608 I-0.025 J0
G1 X1.203
G18 G3 X1.178 Z-0.415 I0 K0.025
G1 Y2.1108
Z-0.455 F30
G2 X1.203 Z-0.48 I0.025 K0 F60
G1 X1.228
G17 G3 X1.253 Y2.1358 I0 J0.025
G1 Y2.7982
X0.3219
Y1.6703
X1.253
Y2.1358
G3 X1.228 Y2.1608 I-0.025 J0
G1 X1.203
G18 G3 X1.178 Z-0.455 I0 K0.025
G1 Y2.1108
Z-0.495 F30
G2 X1.203 Z-0.52 I0.025 K0 F60
G1 X1.228
G17 G3 X1.253 Y2.1358 I0 J0.025
G1 Y2.7982
X0.3219
Y1.6703
X1.253
Y2.1358
G3 X1.228 Y2.1608 I-0.025 J0
G1 X1.203
G18 G3 X1.178 Z-0.495 I0 K0.025
G1 Y2.1108
Z-0.535 F30
G2 X1.203 Z-0.56 I0.025 K0 F60
G1 X1.228
G17 G3 X1.253 Y2.1358 I0 J0.025
G1 Y2.7982
X0.3219
Y1.6703
X1.253
Y2.1358
G3 X1.228 Y2.1608 I-0.025 J0
G1 X1.203
G18 G3 X1.178 Z-0.535 I0 K0.025
G1 Y2.1108
Z-0.575 F30
G2 X1.203 Z-0.6 I0.025 K0 F60
G1 X1.228
G17 G3 X1.253 Y2.1358 I0 J0.025
G1 Y2.7982
X0.3219
Y1.6703
X1.253
Y2.1358
G3 X1.228 Y2.1608 I-0.025 J0
G1 X1.203
G18 G3 X1.178 Z-0.575 I0 K0.025
G1 Y2.1108
Z-0.615 F30
G2 X1.203 Z-0.64 I0.025 K0 F60
G1 X1.228
G17 G3 X1.253 Y2.1358 I0 J0.025
G1 Y2.7982
X0.3219
Y1.6703
X1.253
Y2.1358
G3 X1.228 Y2.1608 I-0.025 J0
G1 X1.203
G18 G3 X1.178 Z-0.615 I0 K0.025
G1 Y2.1108
Z-0.655 F30
G2 X1.203 Z-0.68 I0.025 K0 F60
G1 X1.228
G17 G3 X1.253 Y2.1358 I0 J0.025
G1 Y2.7982
X0.3219
Y1.6703
X1.253
Y2.1358
G3 X1.228 Y2.1608 I-0.025 J0
G1 X1.203
G18 G3 X1.178 Z-0.655 I0 K0.025
G1 Y2.1108
Z-0.695 F30
G2 X1.203 Z-0.72 I0.025 K0 F60
G1 X1.228
G17 G3 X1.253 Y2.1358 I0 J0.025
G1 Y2.7982
X0.3219
Y1.6703
X1.253
Y2.1358
G3 X1.228 Y2.1608 I-0.025 J0
G1 X1.203
G18 G3 X1.178 Z-0.695 I0 K0.025
G1 Y2.1108
Z-0.735 F30
G2 X1.203 Z-0.76 I0.025 K0 F60
G1 X1.228
G17 G3 X1.253 Y2.1358 I0 J0.025
G1 Y2.7982
X0.3219
Y1.6703
X1.253
Y2.1358
G3 X1.228 Y2.1608 I-0.025 J0
G1 X1.203
G18 G3 X1.178 Z-0.735 I0 K0.025
G1 Y2.1108
Z-0.775 F30
G2 X1.203 Z-0.8 I0.025 K0 F60
G1 X1.228
G17 G3 X1.253 Y2.1358 I0 J0.025
G1 Y2.7982
X0.3219
Y1.6703
X1.253
Y2.1358
G3 X1.228 Y2.1608 I-0.025 J0
G1 X1.203
G18 G3 X1.178 Z-0.775 I0 K0.025
G1 Y2.1108
Z-0.815 F30
G2 X1.203 Z-0.84 I0.025 K0 F60
G1 X1.228
G17 G3 X1.253 Y2.1358 I0 J0.025
G1 Y2.7982
X0.3219
Y1.6703
X1.253
Y2.1358
G3 X1.228 Y2.1608 I-0.025 J0
G1 X1.203
G18 G3 X1.178 Z-0.815 I0 K0.025
G1 Y2.1108
Z-0.855 F30
G2 X1.203 Z-0.88 I0.025 K0 F60
G1 X1.228
G17 G3 X1.253 Y2.1358 I0 J0.025
G1 Y2.7982
X0.3219
Y1.6703
X1.253
Y2.1358
G3 X1.228 Y2.1608 I-0.025 J0
G1 X1.203
G18 G3 X1.178 Z-0.855 I0 K0.025
G1 Y2.1108
Z-0.895 F30
G2 X1.203 Z-0.92 I0.025 K0 F60
G1 X1.228
G17 G3 X1.253 Y2.1358 I0 J0.025
G1 Y2.7982
X0.3219
Y1.6703
X1.253
Y2.1358
G3 X1.228 Y2.1608 I-0.025 J0
G1 X1.203
G18 G3 X1.178 Z-0.895 I0 K0.025
G1 Y2.1108
Z-0.935 F30
G2 X1.203 Z-0.96 I0.025 K0 F60
G1 X1.228
G17 G3 X1.253 Y2.1358 I0 J0.025
G1 Y2.7982
X0.3219
Y1.6703
X1.253
Y2.1358
G3 X1.228 Y2.1608 I-0.025 J0
G1 X1.203
G18 G3 X1.178 Z-0.935 I0 K0.025
G1 Y2.1108
Z-0.975 F30
G2 X1.203 Z-1 I0.025 K0 F60
G1 X1.228
G17 G3 X1.253 Y2.1358 I0 J0.025
G1 Y2.7982
X0.3219
Y1.6703
X1.253
Y2.1358
G3 X1.228 Y2.1608 I-0.025 J0
G1 X1.203
G18 G3 X1.178 Z-0.975 I0 K0.025
G1 Y2.1108
Z-1.015 F30
G2 X1.203 Z-1.04 I0.025 K0 F60
G1 X1.228
G17 G3 X1.253 Y2.1358 I0 J0.025
G1 Y2.7982
X0.3219
Y1.6703
X1.253
Y2.1358
G3 X1.228 Y2.1608 I-0.025 J0
G1 X1.203
G18 G3 X1.178 Z-1.015 I0 K0.025
G1 Y2.1108
Z-1.055 F30
G2 X1.203 Z-1.08 I0.025 K0 F60
G1 X1.228
G17 G3 X1.253 Y2.1358 I0 J0.025
G1 Y2.7982
X0.3219
Y1.6703
X1.253
Y2.1358
G3 X1.228 Y2.1608 I-0.025 J0
G1 X1.203
G18 G3 X1.178 Z-1.055 I0 K0.025
G1 Y2.1108
Z-1.095 F30
G2 X1.203 Z-1.12 I0.025 K0 F60
G1 X1.228
G17 G3 X1.253 Y2.1358 I0 J0.025
G1 Y2.7982
X0.3219
Y1.6703
X1.253
Y2.1358
G3 X1.228 Y2.1608 I-0.025 J0
G1 X1.203
G18 G3 X1.178 Z-1.095 I0 K0.025
G1 Y2.1108
Z-1.135 F30
G2 X1.203 Z-1.16 I0.025 K0 F60
G1 X1.228
G17 G3 X1.253 Y2.1358 I0 J0.025
G1 Y2.7982
X0.3219
Y1.6703
X1.253
Y2.1358
G3 X1.228 Y2.1608 I-0.025 J0
G1 X1.203
G18 G3 X1.178 Z-1.135 I0 K0.025
G1 Y2.1108
Z-1.175 F30
G2 X1.203 Z-1.2 I0.025 K0 F60
G1 X1.228
G17 G3 X1.253 Y2.1358 I0 J0.025
G1 Y2.7982
X0.3219
Y1.6703
X1.253
Y2.1358
G3 X1.228 Y2.1608 I-0.025 J0
G1 X1.203
G18 G3 X1.178 Z-1.175 I0 K0.025
G1 Y2.1108
Z-1.215 F30
G2 X1.203 Z-1.24 I0.025 K0 F60
G1 X1.228
G17 G3 X1.253 Y2.1358 I0 J0.025
G1 Y2.7982
X0.3219
Y1.6703
X1.253
Y2.1358
G3 X1.228 Y2.1608 I-0.025 J0
G1 X1.203
G18 G3 X1.178 Z-1.215 I0 K0.025
G1 Y2.1108
Z-1.255 F30
G2 X1.203 Z-1.28 I0.025 K0 F60
G1 X1.228
G17 G3 X1.253 Y2.1358 I0 J0.025
G1 Y2.7982
X0.3219
Y1.6703
X1.253
Y2.1358
G3 X1.228 Y2.1608 I-0.025 J0
G1 X1.203
G18 G3 X1.178 Z-1.255 I0 K0.025
G1 Y2.1108
Z-1.295 F30
G2 X1.203 Z-1.32 I0.025 K0 F60
G1 X1.228
G17 G3 X1.253 Y2.1358 I0 J0.025
G1 Y2.7982
X0.3219
Y1.6703
X1.253
Y2.1358
G3 X1.228 Y2.1608 I-0.025 J0
G1 X1.203
G18 G3 X1.178 Z-1.295 I0 K0.025
G1 Y2.1108
Z-1.335 F30
G2 X1.203 Z-1.36 I0.025 K0 F60
G1 X1.228
G17 G3 X1.253 Y2.1358 I0 J0.025
G1 Y2.7982
X0.3219
Y1.6703
X1.253
Y2.1358
G3 X1.228 Y2.1608 I-0.025 J0
G1 X1.203
G18 G3 X1.178 Z-1.335 I0 K0.025
G1 Y2.1108
Z-1.3566 F30
G2 X1.203 Z-1.3816 I0.025 K0 F60
G1 X1.228
G17 G3 X1.253 Y2.1358 I0 J0.025
G1 Y2.7982
X0.3219
Y1.6703
X1.253
Y2.1358
G3 X1.228 Y2.1608 I-0.025 J0
G1 X1.203
G18 G3 X1.178 Z-1.3566 I0 K0.025
G1 Y2.1108
Z-1.3783 F30
G2 X1.203 Z-1.4033 I0.025 K0 F60
G1 X1.228
G17 G3 X1.253 Y2.1358 I0 J0.025
G1 Y2.7982
X0.3219
Y1.6703
X1.253
Y2.1358
G3 X1.228 Y2.1608 I-0.025 J0
G1 X1.203
G18 G3 X1.178 Z-1.3783 I0 K0.025
G0 Z0.6
G17
M5
G28 G91 Z0
G90

(Drill1)
T20 M6
S5000 M3
G54
G0 X1.386 Y3.067
Z0.6
Z0.2
Z0.1747
G1 Z-0.1494 F20
G0 Z0.2
X0.1967 Y3.064
Z0.1747
G1 Z-0.1494 F20
G0 Z0.2
X0.1969 Y1.4045
Z0.1747
G1 Z-0.1494 F20
G0 Z0.2
X1.3749 Y1.4046
Z0.1747
G1 Z-0.1494 F20
G0 Z0.2
Z0.6
G28 G91 Z0
G90
G28 G91 X0 Y0
G90
M30
%
