%
(faceplate_middle)
(T1  D=0.25 CR=0 - ZMIN=-0.248 - flat end mill)
G90
G17
G20
G28 G91 Z0
G90

(2D Contour1)
T1 M6
S10000 M3
G54
G0 X2.7528 Y1.7467
Z0.6
Z0.2
G1 Z0.08 F30
Z-0.015
G18 G2 X2.7778 Z-0.04 I0.025 K0 F60
G1 X2.8028
G17 G3 X2.8278 Y1.7717 I0 J0.025
G1 Y6.253
X1.503
Y1.4908
G2 X1.4913 Y1.438 I-0.125 J0
G1 X1.3379 Y1.1093
X2.9928
X2.8395 Y1.438
G2 X2.8278 Y1.4908 I0.1133 J0.0528
G1 Y1.7717
G3 X2.8028 Y1.7967 I-0.025 J0
G1 X2.7778
G18 G3 X2.7528 Z-0.015 I0 K0.025
G1 Y1.7467
Z-0.055 F30
G2 X2.7778 Z-0.08 I0.025 K0 F60
G1 X2.8028
G17 G3 X2.8278 Y1.7717 I0 J0.025
G1 Y6.253
X1.503
Y1.4908
G2 X1.4913 Y1.438 I-0.125 J0
G1 X1.3379 Y1.1093
X2.9928
X2.8395 Y1.438
G2 X2.8278 Y1.4908 I0.1133 J0.0528
G1 Y1.7717
G3 X2.8028 Y1.7967 I-0.025 J0
G1 X2.7778
G18 G3 X2.7528 Z-0.055 I0 K0.025
G1 Y1.7467
Z-0.095 F30
G2 X2.7778 Z-0.12 I0.025 K0 F60
G1 X2.8028
G17 G3 X2.8278 Y1.7717 I0 J0.025
G1 Y6.253
X1.503
Y1.4908
G2 X1.4913 Y1.438 I-0.125 J0
G1 X1.3379 Y1.1093
X2.9928
X2.8395 Y1.438
G2 X2.8278 Y1.4908 I0.1133 J0.0528
G1 Y1.7717
G3 X2.8028 Y1.7967 I-0.025 J0
G1 X2.7778
G18 G3 X2.7528 Z-0.095 I0 K0.025
G1 Y1.7467
Z-0.135 F30
G2 X2.7778 Z-0.16 I0.025 K0 F60
G1 X2.8028
G17 G3 X2.8278 Y1.7717 I0 J0.025
G1 Y6.253
X1.503
Y1.4908
G2 X1.4913 Y1.438 I-0.125 J0
G1 X1.3379 Y1.1093
X2.9928
X2.8395 Y1.438
G2 X2.8278 Y1.4908 I0.1133 J0.0528
G1 Y1.7717
G3 X2.8028 Y1.7967 I-0.025 J0
G1 X2.7778
G18 G3 X2.7528 Z-0.135 I0 K0.025
G1 Y1.7467
Z-0.175 F30
G2 X2.7778 Z-0.2 I0.025 K0 F60
G1 X2.8028
G17 G3 X2.8278 Y1.7717 I0 J0.025
G1 Y6.253
X1.503
Y1.4908
G2 X1.4913 Y1.438 I-0.125 J0
G1 X1.3379 Y1.1093
X2.9928
X2.8395 Y1.438
G2 X2.8278 Y1.4908 I0.1133 J0.0528
G1 Y1.7717
G3 X2.8028 Y1.7967 I-0.025 J0
G1 X2.7778
G18 G3 X2.7528 Z-0.175 I0 K0.025
G1 Y1.7467
Z-0.199 F30
G2 X2.7778 Z-0.224 I0.025 K0 F60
G1 X2.8028
G17 G3 X2.8278 Y1.7717 I0 J0.025
G1 Y6.253
X1.503
Y1.4908
G2 X1.4913 Y1.438 I-0.125 J0
G1 X1.3379 Y1.1093
X2.9928
X2.8395 Y1.438
G2 X2.8278 Y1.4908 I0.1133 J0.0528
G1 Y1.7717
G3 X2.8028 Y1.7967 I-0.025 J0
G1 X2.7778
G18 G3 X2.7528 Z-0.199 I0 K0.025
G1 Y1.7467
Z-0.223 F30
G2 X2.7778 Z-0.248 I0.025 K0 F60
G1 X2.8028
G17 G3 X2.8278 Y1.7717 I0 J0.025
G1 Y6.253
X1.503
Y1.4908
G2 X1.4913 Y1.438 I-0.125 J0
G1 X1.3379 Y1.1093
X2.9928
X2.8395 Y1.438
G2 X2.8278 Y1.4908 I0.1133 J0.0528
G1 Y1.7717
G3 X2.8028 Y1.7967 I-0.025 J0
G1 X2.7778
G18 G3 X2.7528 Z-0.223 I0 K0.025
G0 Z0.6
G17
G28 G91 Z0
G90
G28 G91 X0 Y0
G90
M30
%
