%
(faceTheDelrin)
(T1  D=0.25 CR=0 - ZMIN=-0.4253 - flat end mill)
G90
G17
G20
G28 G91 Z0
G90

(Face2)
T1 M6
S10000 M3
G54
G0 X2.1625 Y0.0737
Z0.6
Z0.2
G1 Z-0.1003 F30
G18 G3 X2.1375 Z-0.1253 I-0.025 K0 F60
G1 X2
X0
G17 G2 Y0.2705 I0 J0.0984
G1 X2
G3 Y0.4673 I0 J0.0984
G1 X0
G2 Y0.6639 I0 J0.0983
G1 X2 Y0.664
G3 Y0.8608 I0 J0.0984
G1 X0
G2 Y1.0574 I0 J0.0983
G1 X2 Y1.0575
G3 Y1.2543 I0 J0.0984
G1 X0
G2 Y1.4511 I0 J0.0984
G1 X2 Y1.451
G3 Y1.6478 I0 J0.0984
G1 X0
G2 Y1.8446 I0 J0.0984
G1 X2
G3 Y2.0412 I0 J0.0983
G1 X0 Y2.0413
G2 Y2.2381 I0 J0.0984
G1 X2
G3 Y2.4349 I0 J0.0984
G1 X0 Y2.4348
G2 Y2.6316 I0 J0.0984
G1 X2
G3 Y2.8284 I0 J0.0984
G1 X0
G2 Y3.025 I0 J0.0983
G1 X2 Y3.0251
G3 Y3.2219 I0 J0.0984
G1 X0
G2 Y3.4187 I0 J0.0984
G1 X2 Y3.4186
G3 Y3.6154 I0 J0.0984
G1 X0
G2 Y3.8122 I0 J0.0984
G1 X2
G3 Y4.0088 I0 J0.0983
G1 X0 Y4.0089
G2 Y4.2057 I0 J0.0984
G1 X2
G3 Y4.4025 I0 J0.0984
G1 X0 Y4.4024
G2 Y4.5992 I0 J0.0984
G1 X2
G3 Y4.796 I0 J0.0984
G1 X0
G2 Y4.9926 I0 J0.0983
G1 X2 Y4.9927
G3 Y5.1895 I0 J0.0984
G1 X0
G2 Y5.3861 I0 J0.0983
G1 X2 Y5.3862
G3 Y5.583 I0 J0.0984
G1 X0
G2 Y5.7798 I0 J0.0984
G1 X2 Y5.7797
G3 Y5.9765 I0 J0.0984
G1 X0
G2 Y6.1733 I0 J0.0984
G1 X2
G3 Y6.3699 I0 J0.0983
G1 X0 Y6.37
G2 Y6.5668 I0 J0.0984
G1 X2
G3 Y6.7636 I0 J0.0984
G1 X0 Y6.7635
G2 Y6.9603 I0 J0.0984
G1 X2
G3 Y7.1571 I0 J0.0984
G1 X0
G2 Y7.3537 I0 J0.0983
G1 X2 Y7.3538
G3 Y7.5506 I0 J0.0984
G1 X0
G2 Y7.7474 I0 J0.0984
G1 X2 Y7.7473
G3 Y7.9441 I0 J0.0984
G1 X0
G2 Y8.1409 I0 J0.0984
G1 X2
G3 Y8.3375 I0 J0.0983
G1 X0 Y8.3376
G2 Y8.5344 I0 J0.0984
G1 X2
G3 Y8.7312 I0 J0.0984
G1 X0 Y8.7311
G2 Y8.9279 I0 J0.0984
G1 X2
G3 Y9.1247 I0 J0.0984
G1 X0 Y9.1246
G2 Y9.3214 I0 J0.0984
G1 X2
G3 Y9.5182 I0 J0.0984
G1 X0
G2 Y9.7148 I0 J0.0983
G1 X2 Y9.7149
G3 Y9.9117 I0 J0.0984
G1 X0
G2 Y10.1085 I0 J0.0984
G1 X2 Y10.1084
G3 Y10.3052 I0 J0.0984
G1 X0
G2 Y10.502 I0 J0.0984
G1 X2
G3 Y10.6986 I0 J0.0983
G1 X0 Y10.6987
G2 Y10.8955 I0 J0.0984
G1 X2
G3 Y11.0923 I0 J0.0984
G1 X0 Y11.0922
G2 Y11.289 I0 J0.0984
G1 X2
G3 Y11.4858 I0 J0.0984
G1 X0
G2 Y11.6824 I0 J0.0983
G1 X2 Y11.6825
G3 Y11.8793 I0 J0.0984
G1 X0
G18 G3 X-0.025 Z-0.1003 I0 K0.025
G0 Z0.2
X-0.1625 Y0.0737
G1 Z-0.2503 F30
G2 X-0.1375 Z-0.2753 I0.025 K0 F60
G1 X0
X2
G17 G3 Y0.2705 I0 J0.0984
G1 X0
G2 Y0.4673 I0 J0.0984
G1 X2
G3 Y0.6639 I0 J0.0983
G1 X0 Y0.664
G2 Y0.8608 I0 J0.0984
G1 X2
G3 Y1.0574 I0 J0.0983
G1 X0 Y1.0575
G2 Y1.2543 I0 J0.0984
G1 X2
G3 Y1.4511 I0 J0.0984
G1 X0 Y1.451
G2 Y1.6478 I0 J0.0984
G1 X2
G3 Y1.8446 I0 J0.0984
G1 X0
G2 Y2.0412 I0 J0.0983
G1 X2 Y2.0413
G3 Y2.2381 I0 J0.0984
G1 X0
G2 Y2.4349 I0 J0.0984
G1 X2 Y2.4348
G3 Y2.6316 I0 J0.0984
G1 X0
G2 Y2.8284 I0 J0.0984
G1 X2
G3 Y3.025 I0 J0.0983
G1 X0 Y3.0251
G2 Y3.2219 I0 J0.0984
G1 X2
G3 Y3.4187 I0 J0.0984
G1 X0 Y3.4186
G2 Y3.6154 I0 J0.0984
G1 X2
G3 Y3.8122 I0 J0.0984
G1 X0
G2 Y4.0088 I0 J0.0983
G1 X2 Y4.0089
G3 Y4.2057 I0 J0.0984
G1 X0
G2 Y4.4025 I0 J0.0984
G1 X2 Y4.4024
G3 Y4.5992 I0 J0.0984
G1 X0
G2 Y4.796 I0 J0.0984
G1 X2
G3 Y4.9926 I0 J0.0983
G1 X0 Y4.9927
G2 Y5.1895 I0 J0.0984
G1 X2
G3 Y5.3861 I0 J0.0983
G1 X0 Y5.3862
G2 Y5.583 I0 J0.0984
G1 X2
G3 Y5.7798 I0 J0.0984
G1 X0 Y5.7797
G2 Y5.9765 I0 J0.0984
G1 X2
G3 Y6.1733 I0 J0.0984
G1 X0
G2 Y6.3699 I0 J0.0983
G1 X2 Y6.37
G3 Y6.5668 I0 J0.0984
G1 X0
G2 Y6.7636 I0 J0.0984
G1 X2 Y6.7635
G3 Y6.9603 I0 J0.0984
G1 X0
G2 Y7.1571 I0 J0.0984
G1 X2
G3 Y7.3537 I0 J0.0983
G1 X0 Y7.3538
G2 Y7.5506 I0 J0.0984
G1 X2
G3 Y7.7474 I0 J0.0984
G1 X0 Y7.7473
G2 Y7.9441 I0 J0.0984
G1 X2
G3 Y8.1409 I0 J0.0984
G1 X0
G2 Y8.3375 I0 J0.0983
G1 X2 Y8.3376
G3 Y8.5344 I0 J0.0984
G1 X0
G2 Y8.7312 I0 J0.0984
G1 X2 Y8.7311
G3 Y8.9279 I0 J0.0984
G1 X0
G2 Y9.1247 I0 J0.0984
G1 X2 Y9.1246
G3 Y9.3214 I0 J0.0984
G1 X0
G2 Y9.5182 I0 J0.0984
G1 X2
G3 Y9.7148 I0 J0.0983
G1 X0 Y9.7149
G2 Y9.9117 I0 J0.0984
G1 X2
G3 Y10.1085 I0 J0.0984
G1 X0 Y10.1084
G2 Y10.3052 I0 J0.0984
G1 X2
G3 Y10.502 I0 J0.0984
G1 X0
G2 Y10.6986 I0 J0.0983
G1 X2 Y10.6987
G3 Y10.8955 I0 J0.0984
G1 X0
G2 Y11.0923 I0 J0.0984
G1 X2 Y11.0922
G3 Y11.289 I0 J0.0984
G1 X0
G2 Y11.4858 I0 J0.0984
G1 X2
G3 Y11.6824 I0 J0.0983
G1 X0 Y11.6825
G2 Y11.8793 I0 J0.0984
G1 X2
G18 G2 X2.025 Z-0.2503 I0 K0.025
G0 Z0.2
X2.1625 Y0.0737
G1 Z-0.4003 F30
G3 X2.1375 Z-0.4253 I-0.025 K0 F60
G1 X2
X0
G17 G2 Y0.2705 I0 J0.0984
G1 X2
G3 Y0.4673 I0 J0.0984
G1 X0
G2 Y0.6639 I0 J0.0983
G1 X2 Y0.664
G3 Y0.8608 I0 J0.0984
G1 X0
G2 Y1.0574 I0 J0.0983
G1 X2 Y1.0575
G3 Y1.2543 I0 J0.0984
G1 X0
G2 Y1.4511 I0 J0.0984
G1 X2 Y1.451
G3 Y1.6478 I0 J0.0984
G1 X0
G2 Y1.8446 I0 J0.0984
G1 X2
G3 Y2.0412 I0 J0.0983
G1 X0 Y2.0413
G2 Y2.2381 I0 J0.0984
G1 X2
G3 Y2.4349 I0 J0.0984
G1 X0 Y2.4348
G2 Y2.6316 I0 J0.0984
G1 X2
G3 Y2.8284 I0 J0.0984
G1 X0
G2 Y3.025 I0 J0.0983
G1 X2 Y3.0251
G3 Y3.2219 I0 J0.0984
G1 X0
G2 Y3.4187 I0 J0.0984
G1 X2 Y3.4186
G3 Y3.6154 I0 J0.0984
G1 X0
G2 Y3.8122 I0 J0.0984
G1 X2
G3 Y4.0088 I0 J0.0983
G1 X0 Y4.0089
G2 Y4.2057 I0 J0.0984
G1 X2
G3 Y4.4025 I0 J0.0984
G1 X0 Y4.4024
G2 Y4.5992 I0 J0.0984
G1 X2
G3 Y4.796 I0 J0.0984
G1 X0
G2 Y4.9926 I0 J0.0983
G1 X2 Y4.9927
G3 Y5.1895 I0 J0.0984
G1 X0
G2 Y5.3861 I0 J0.0983
G1 X2 Y5.3862
G3 Y5.583 I0 J0.0984
G1 X0
G2 Y5.7798 I0 J0.0984
G1 X2 Y5.7797
G3 Y5.9765 I0 J0.0984
G1 X0
G2 Y6.1733 I0 J0.0984
G1 X2
G3 Y6.3699 I0 J0.0983
G1 X0 Y6.37
G2 Y6.5668 I0 J0.0984
G1 X2
G3 Y6.7636 I0 J0.0984
G1 X0 Y6.7635
G2 Y6.9603 I0 J0.0984
G1 X2
G3 Y7.1571 I0 J0.0984
G1 X0
G2 Y7.3537 I0 J0.0983
G1 X2 Y7.3538
G3 Y7.5506 I0 J0.0984
G1 X0
G2 Y7.7474 I0 J0.0984
G1 X2 Y7.7473
G3 Y7.9441 I0 J0.0984
G1 X0
G2 Y8.1409 I0 J0.0984
G1 X2
G3 Y8.3375 I0 J0.0983
G1 X0 Y8.3376
G2 Y8.5344 I0 J0.0984
G1 X2
G3 Y8.7312 I0 J0.0984
G1 X0 Y8.7311
G2 Y8.9279 I0 J0.0984
G1 X2
G3 Y9.1247 I0 J0.0984
G1 X0 Y9.1246
G2 Y9.3214 I0 J0.0984
G1 X2
G3 Y9.5182 I0 J0.0984
G1 X0
G2 Y9.7148 I0 J0.0983
G1 X2 Y9.7149
G3 Y9.9117 I0 J0.0984
G1 X0
G2 Y10.1085 I0 J0.0984
G1 X2 Y10.1084
G3 Y10.3052 I0 J0.0984
G1 X0
G2 Y10.502 I0 J0.0984
G1 X2
G3 Y10.6986 I0 J0.0983
G1 X0 Y10.6987
G2 Y10.8955 I0 J0.0984
G1 X2
G3 Y11.0923 I0 J0.0984
G1 X0 Y11.0922
G2 Y11.289 I0 J0.0984
G1 X2
G3 Y11.4858 I0 J0.0984
G1 X0
G2 Y11.6824 I0 J0.0983
G1 X2 Y11.6825
G3 Y11.8793 I0 J0.0984
G1 X0
G18 G3 X-0.025 Z-0.4003 I0 K0.025
G0 Z0.6
G17
G28 G91 Z0
G90
G28 G91 X0 Y0
G90
M30
%
