%
(faceTheDelrin)
(T1  D=0.25 CR=0 - ZMIN=-0.4253 - flat end mill)
G90
G17
G20
G28 G91 Z0
G90

(Face2)
T1 M6
S10000 M3
G54
G0 X2.1625 Y0.1127
Z0.6
Z0.2
G1 Z-0.0003 F30
G18 G3 X2.1375 Z-0.0253 I-0.025 K0 F60
G1 X2
X0
G17 G2 Y0.3481 I0 J0.1177
G1 X2 Y0.348
G3 Y0.5834 I0 J0.1177
G1 X0 Y0.5833
G2 Y0.8187 I0 J0.1177
G1 X2
G3 Y1.0539 I0 J0.1176
G1 X0 Y1.054
G2 Y1.2894 I0 J0.1177
G1 X2 Y1.2893
G3 Y1.5247 I0 J0.1177
G1 X0 Y1.5246
G2 Y1.76 I0 J0.1177
G1 X2
G3 Y1.9952 I0 J0.1176
G1 X0 Y1.9953
G2 Y2.2305 I0 J0.1176
G1 X2 Y2.2306
G3 Y2.466 I0 J0.1177
G1 X0 Y2.4659
G2 Y2.7013 I0 J0.1177
G1 X2
G3 Y2.9365 I0 J0.1176
G1 X0 Y2.9366
G2 Y3.1718 I0 J0.1176
G1 X2 Y3.1719
G3 Y3.4073 I0 J0.1177
G1 X0 Y3.4072
G2 Y3.6426 I0 J0.1177
G1 X2
G3 Y3.8778 I0 J0.1176
G1 X0 Y3.8779
G2 Y4.1131 I0 J0.1176
G1 X2 Y4.1132
G3 Y4.3486 I0 J0.1177
G1 X0 Y4.3485
G2 Y4.5839 I0 J0.1177
G1 X2 Y4.5838
G3 Y4.8192 I0 J0.1177
G1 X0
G2 Y5.0544 I0 J0.1176
G1 X2 Y5.0545
G3 Y5.2899 I0 J0.1177
G1 X0 Y5.2898
G2 Y5.5252 I0 J0.1177
G1 X2 Y5.5251
G3 Y5.7605 I0 J0.1177
G1 X0
G2 Y5.9957 I0 J0.1176
G1 X2 Y5.9958
G3 Y6.231 I0 J0.1176
G1 X0 Y6.2311
G2 Y6.4665 I0 J0.1177
G1 X2 Y6.4664
G3 Y6.7018 I0 J0.1177
G1 X0
G2 Y6.937 I0 J0.1176
G1 X2 Y6.9371
G3 Y7.1723 I0 J0.1176
G1 X0 Y7.1724
G2 Y7.4078 I0 J0.1177
G1 X2 Y7.4077
G3 Y7.6431 I0 J0.1177
G1 X0
G2 Y7.8783 I0 J0.1176
G1 X2 Y7.8784
G3 Y8.1136 I0 J0.1176
G1 X0 Y8.1137
G2 Y8.3491 I0 J0.1177
G1 X2 Y8.349
G3 Y8.5844 I0 J0.1177
G1 X0 Y8.5843
G2 Y8.8197 I0 J0.1177
G1 X2
G3 Y9.0549 I0 J0.1176
G1 X0 Y9.055
G2 Y9.2904 I0 J0.1177
G1 X2 Y9.2903
G3 Y9.5257 I0 J0.1177
G1 X0 Y9.5256
G2 Y9.761 I0 J0.1177
G1 X2
G3 Y9.9962 I0 J0.1176
G1 X0 Y9.9963
G2 Y10.2315 I0 J0.1176
G1 X2 Y10.2316
G3 Y10.467 I0 J0.1177
G1 X0 Y10.4669
G2 Y10.7023 I0 J0.1177
G1 X2
G3 Y10.9375 I0 J0.1176
G1 X0 Y10.9376
G2 Y11.1728 I0 J0.1176
G1 X2 Y11.1729
G3 Y11.4083 I0 J0.1177
G1 X0 Y11.4082
G2 Y11.6436 I0 J0.1177
G1 X2
G3 Y11.8788 I0 J0.1176
G1 X0 Y11.8789
G18 G3 X-0.025 Z-0.0003 I0 K0.025
G0 Z0.2
X-0.1625 Y0.1127
G1 Z-0.0403 F30
G2 X-0.1375 Z-0.0653 I0.025 K0 F60
G1 X0
X2
G17 G3 Y0.3481 I0 J0.1177
G1 X0 Y0.348
G2 Y0.5834 I0 J0.1177
G1 X2 Y0.5833
G3 Y0.8187 I0 J0.1177
G1 X0
G2 Y1.0539 I0 J0.1176
G1 X2 Y1.054
G3 Y1.2894 I0 J0.1177
G1 X0 Y1.2893
G2 Y1.5247 I0 J0.1177
G1 X2 Y1.5246
G3 Y1.76 I0 J0.1177
G1 X0
G2 Y1.9952 I0 J0.1176
G1 X2 Y1.9953
G3 Y2.2305 I0 J0.1176
G1 X0 Y2.2306
G2 Y2.466 I0 J0.1177
G1 X2 Y2.4659
G3 Y2.7013 I0 J0.1177
G1 X0
G2 Y2.9365 I0 J0.1176
G1 X2 Y2.9366
G3 Y3.1718 I0 J0.1176
G1 X0 Y3.1719
G2 Y3.4073 I0 J0.1177
G1 X2 Y3.4072
G3 Y3.6426 I0 J0.1177
G1 X0
G2 Y3.8778 I0 J0.1176
G1 X2 Y3.8779
G3 Y4.1131 I0 J0.1176
G1 X0 Y4.1132
G2 Y4.3486 I0 J0.1177
G1 X2 Y4.3485
G3 Y4.5839 I0 J0.1177
G1 X0 Y4.5838
G2 Y4.8192 I0 J0.1177
G1 X2
G3 Y5.0544 I0 J0.1176
G1 X0 Y5.0545
G2 Y5.2899 I0 J0.1177
G1 X2 Y5.2898
G3 Y5.5252 I0 J0.1177
G1 X0 Y5.5251
G2 Y5.7605 I0 J0.1177
G1 X2
G3 Y5.9957 I0 J0.1176
G1 X0 Y5.9958
G2 Y6.231 I0 J0.1176
G1 X2 Y6.2311
G3 Y6.4665 I0 J0.1177
G1 X0 Y6.4664
G2 Y6.7018 I0 J0.1177
G1 X2
G3 Y6.937 I0 J0.1176
G1 X0 Y6.9371
G2 Y7.1723 I0 J0.1176
G1 X2 Y7.1724
G3 Y7.4078 I0 J0.1177
G1 X0 Y7.4077
G2 Y7.6431 I0 J0.1177
G1 X2
G3 Y7.8783 I0 J0.1176
G1 X0 Y7.8784
G2 Y8.1136 I0 J0.1176
G1 X2 Y8.1137
G3 Y8.3491 I0 J0.1177
G1 X0 Y8.349
G2 Y8.5844 I0 J0.1177
G1 X2 Y8.5843
G3 Y8.8197 I0 J0.1177
G1 X0
G2 Y9.0549 I0 J0.1176
G1 X2 Y9.055
G3 Y9.2904 I0 J0.1177
G1 X0 Y9.2903
G2 Y9.5257 I0 J0.1177
G1 X2 Y9.5256
G3 Y9.761 I0 J0.1177
G1 X0
G2 Y9.9962 I0 J0.1176
G1 X2 Y9.9963
G3 Y10.2315 I0 J0.1176
G1 X0 Y10.2316
G2 Y10.467 I0 J0.1177
G1 X2 Y10.4669
G3 Y10.7023 I0 J0.1177
G1 X0
G2 Y10.9375 I0 J0.1176
G1 X2 Y10.9376
G3 Y11.1728 I0 J0.1176
G1 X0 Y11.1729
G2 Y11.4083 I0 J0.1177
G1 X2 Y11.4082
G3 Y11.6436 I0 J0.1177
G1 X0
G2 Y11.8788 I0 J0.1176
G1 X2 Y11.8789
G18 G2 X2.025 Z-0.0403 I0 K0.025
G0 Z0.2
X2.1625 Y0.1127
G1 Z-0.0803 F30
G3 X2.1375 Z-0.1053 I-0.025 K0 F60
G1 X2
X0
G17 G2 Y0.3481 I0 J0.1177
G1 X2 Y0.348
G3 Y0.5834 I0 J0.1177
G1 X0 Y0.5833
G2 Y0.8187 I0 J0.1177
G1 X2
G3 Y1.0539 I0 J0.1176
G1 X0 Y1.054
G2 Y1.2894 I0 J0.1177
G1 X2 Y1.2893
G3 Y1.5247 I0 J0.1177
G1 X0 Y1.5246
G2 Y1.76 I0 J0.1177
G1 X2
G3 Y1.9952 I0 J0.1176
G1 X0 Y1.9953
G2 Y2.2305 I0 J0.1176
G1 X2 Y2.2306
G3 Y2.466 I0 J0.1177
G1 X0 Y2.4659
G2 Y2.7013 I0 J0.1177
G1 X2
G3 Y2.9365 I0 J0.1176
G1 X0 Y2.9366
G2 Y3.1718 I0 J0.1176
G1 X2 Y3.1719
G3 Y3.4073 I0 J0.1177
G1 X0 Y3.4072
G2 Y3.6426 I0 J0.1177
G1 X2
G3 Y3.8778 I0 J0.1176
G1 X0 Y3.8779
G2 Y4.1131 I0 J0.1176
G1 X2 Y4.1132
G3 Y4.3486 I0 J0.1177
G1 X0 Y4.3485
G2 Y4.5839 I0 J0.1177
G1 X2 Y4.5838
G3 Y4.8192 I0 J0.1177
G1 X0
G2 Y5.0544 I0 J0.1176
G1 X2 Y5.0545
G3 Y5.2899 I0 J0.1177
G1 X0 Y5.2898
G2 Y5.5252 I0 J0.1177
G1 X2 Y5.5251
G3 Y5.7605 I0 J0.1177
G1 X0
G2 Y5.9957 I0 J0.1176
G1 X2 Y5.9958
G3 Y6.231 I0 J0.1176
G1 X0 Y6.2311
G2 Y6.4665 I0 J0.1177
G1 X2 Y6.4664
G3 Y6.7018 I0 J0.1177
G1 X0
G2 Y6.937 I0 J0.1176
G1 X2 Y6.9371
G3 Y7.1723 I0 J0.1176
G1 X0 Y7.1724
G2 Y7.4078 I0 J0.1177
G1 X2 Y7.4077
G3 Y7.6431 I0 J0.1177
G1 X0
G2 Y7.8783 I0 J0.1176
G1 X2 Y7.8784
G3 Y8.1136 I0 J0.1176
G1 X0 Y8.1137
G2 Y8.3491 I0 J0.1177
G1 X2 Y8.349
G3 Y8.5844 I0 J0.1177
G1 X0 Y8.5843
G2 Y8.8197 I0 J0.1177
G1 X2
G3 Y9.0549 I0 J0.1176
G1 X0 Y9.055
G2 Y9.2904 I0 J0.1177
G1 X2 Y9.2903
G3 Y9.5257 I0 J0.1177
G1 X0 Y9.5256
G2 Y9.761 I0 J0.1177
G1 X2
G3 Y9.9962 I0 J0.1176
G1 X0 Y9.9963
G2 Y10.2315 I0 J0.1176
G1 X2 Y10.2316
G3 Y10.467 I0 J0.1177
G1 X0 Y10.4669
G2 Y10.7023 I0 J0.1177
G1 X2
G3 Y10.9375 I0 J0.1176
G1 X0 Y10.9376
G2 Y11.1728 I0 J0.1176
G1 X2 Y11.1729
G3 Y11.4083 I0 J0.1177
G1 X0 Y11.4082
G2 Y11.6436 I0 J0.1177
G1 X2
G3 Y11.8788 I0 J0.1176
G1 X0 Y11.8789
G18 G3 X-0.025 Z-0.0803 I0 K0.025
G0 Z0.2
X-0.1625 Y0.1127
G1 Z-0.1203 F30
G2 X-0.1375 Z-0.1453 I0.025 K0 F60
G1 X0
X2
G17 G3 Y0.3481 I0 J0.1177
G1 X0 Y0.348
G2 Y0.5834 I0 J0.1177
G1 X2 Y0.5833
G3 Y0.8187 I0 J0.1177
G1 X0
G2 Y1.0539 I0 J0.1176
G1 X2 Y1.054
G3 Y1.2894 I0 J0.1177
G1 X0 Y1.2893
G2 Y1.5247 I0 J0.1177
G1 X2 Y1.5246
G3 Y1.76 I0 J0.1177
G1 X0
G2 Y1.9952 I0 J0.1176
G1 X2 Y1.9953
G3 Y2.2305 I0 J0.1176
G1 X0 Y2.2306
G2 Y2.466 I0 J0.1177
G1 X2 Y2.4659
G3 Y2.7013 I0 J0.1177
G1 X0
G2 Y2.9365 I0 J0.1176
G1 X2 Y2.9366
G3 Y3.1718 I0 J0.1176
G1 X0 Y3.1719
G2 Y3.4073 I0 J0.1177
G1 X2 Y3.4072
G3 Y3.6426 I0 J0.1177
G1 X0
G2 Y3.8778 I0 J0.1176
G1 X2 Y3.8779
G3 Y4.1131 I0 J0.1176
G1 X0 Y4.1132
G2 Y4.3486 I0 J0.1177
G1 X2 Y4.3485
G3 Y4.5839 I0 J0.1177
G1 X0 Y4.5838
G2 Y4.8192 I0 J0.1177
G1 X2
G3 Y5.0544 I0 J0.1176
G1 X0 Y5.0545
G2 Y5.2899 I0 J0.1177
G1 X2 Y5.2898
G3 Y5.5252 I0 J0.1177
G1 X0 Y5.5251
G2 Y5.7605 I0 J0.1177
G1 X2
G3 Y5.9957 I0 J0.1176
G1 X0 Y5.9958
G2 Y6.231 I0 J0.1176
G1 X2 Y6.2311
G3 Y6.4665 I0 J0.1177
G1 X0 Y6.4664
G2 Y6.7018 I0 J0.1177
G1 X2
G3 Y6.937 I0 J0.1176
G1 X0 Y6.9371
G2 Y7.1723 I0 J0.1176
G1 X2 Y7.1724
G3 Y7.4078 I0 J0.1177
G1 X0 Y7.4077
G2 Y7.6431 I0 J0.1177
G1 X2
G3 Y7.8783 I0 J0.1176
G1 X0 Y7.8784
G2 Y8.1136 I0 J0.1176
G1 X2 Y8.1137
G3 Y8.3491 I0 J0.1177
G1 X0 Y8.349
G2 Y8.5844 I0 J0.1177
G1 X2 Y8.5843
G3 Y8.8197 I0 J0.1177
G1 X0
G2 Y9.0549 I0 J0.1176
G1 X2 Y9.055
G3 Y9.2904 I0 J0.1177
G1 X0 Y9.2903
G2 Y9.5257 I0 J0.1177
G1 X2 Y9.5256
G3 Y9.761 I0 J0.1177
G1 X0
G2 Y9.9962 I0 J0.1176
G1 X2 Y9.9963
G3 Y10.2315 I0 J0.1176
G1 X0 Y10.2316
G2 Y10.467 I0 J0.1177
G1 X2 Y10.4669
G3 Y10.7023 I0 J0.1177
G1 X0
G2 Y10.9375 I0 J0.1176
G1 X2 Y10.9376
G3 Y11.1728 I0 J0.1176
G1 X0 Y11.1729
G2 Y11.4083 I0 J0.1177
G1 X2 Y11.4082
G3 Y11.6436 I0 J0.1177
G1 X0
G2 Y11.8788 I0 J0.1176
G1 X2 Y11.8789
G18 G2 X2.025 Z-0.1203 I0 K0.025
G0 Z0.2
X2.1625 Y0.1127
G1 Z-0.1603 F30
G3 X2.1375 Z-0.1853 I-0.025 K0 F60
G1 X2
X0
G17 G2 Y0.3481 I0 J0.1177
G1 X2 Y0.348
G3 Y0.5834 I0 J0.1177
G1 X0 Y0.5833
G2 Y0.8187 I0 J0.1177
G1 X2
G3 Y1.0539 I0 J0.1176
G1 X0 Y1.054
G2 Y1.2894 I0 J0.1177
G1 X2 Y1.2893
G3 Y1.5247 I0 J0.1177
G1 X0 Y1.5246
G2 Y1.76 I0 J0.1177
G1 X2
G3 Y1.9952 I0 J0.1176
G1 X0 Y1.9953
G2 Y2.2305 I0 J0.1176
G1 X2 Y2.2306
G3 Y2.466 I0 J0.1177
G1 X0 Y2.4659
G2 Y2.7013 I0 J0.1177
G1 X2
G3 Y2.9365 I0 J0.1176
G1 X0 Y2.9366
G2 Y3.1718 I0 J0.1176
G1 X2 Y3.1719
G3 Y3.4073 I0 J0.1177
G1 X0 Y3.4072
G2 Y3.6426 I0 J0.1177
G1 X2
G3 Y3.8778 I0 J0.1176
G1 X0 Y3.8779
G2 Y4.1131 I0 J0.1176
G1 X2 Y4.1132
G3 Y4.3486 I0 J0.1177
G1 X0 Y4.3485
G2 Y4.5839 I0 J0.1177
G1 X2 Y4.5838
G3 Y4.8192 I0 J0.1177
G1 X0
G2 Y5.0544 I0 J0.1176
G1 X2 Y5.0545
G3 Y5.2899 I0 J0.1177
G1 X0 Y5.2898
G2 Y5.5252 I0 J0.1177
G1 X2 Y5.5251
G3 Y5.7605 I0 J0.1177
G1 X0
G2 Y5.9957 I0 J0.1176
G1 X2 Y5.9958
G3 Y6.231 I0 J0.1176
G1 X0 Y6.2311
G2 Y6.4665 I0 J0.1177
G1 X2 Y6.4664
G3 Y6.7018 I0 J0.1177
G1 X0
G2 Y6.937 I0 J0.1176
G1 X2 Y6.9371
G3 Y7.1723 I0 J0.1176
G1 X0 Y7.1724
G2 Y7.4078 I0 J0.1177
G1 X2 Y7.4077
G3 Y7.6431 I0 J0.1177
G1 X0
G2 Y7.8783 I0 J0.1176
G1 X2 Y7.8784
G3 Y8.1136 I0 J0.1176
G1 X0 Y8.1137
G2 Y8.3491 I0 J0.1177
G1 X2 Y8.349
G3 Y8.5844 I0 J0.1177
G1 X0 Y8.5843
G2 Y8.8197 I0 J0.1177
G1 X2
G3 Y9.0549 I0 J0.1176
G1 X0 Y9.055
G2 Y9.2904 I0 J0.1177
G1 X2 Y9.2903
G3 Y9.5257 I0 J0.1177
G1 X0 Y9.5256
G2 Y9.761 I0 J0.1177
G1 X2
G3 Y9.9962 I0 J0.1176
G1 X0 Y9.9963
G2 Y10.2315 I0 J0.1176
G1 X2 Y10.2316
G3 Y10.467 I0 J0.1177
G1 X0 Y10.4669
G2 Y10.7023 I0 J0.1177
G1 X2
G3 Y10.9375 I0 J0.1176
G1 X0 Y10.9376
G2 Y11.1728 I0 J0.1176
G1 X2 Y11.1729
G3 Y11.4083 I0 J0.1177
G1 X0 Y11.4082
G2 Y11.6436 I0 J0.1177
G1 X2
G3 Y11.8788 I0 J0.1176
G1 X0 Y11.8789
G18 G3 X-0.025 Z-0.1603 I0 K0.025
G0 Z0.2
X-0.1625 Y0.1127
G1 Z-0.2003 F30
G2 X-0.1375 Z-0.2253 I0.025 K0 F60
G1 X0
X2
G17 G3 Y0.3481 I0 J0.1177
G1 X0 Y0.348
G2 Y0.5834 I0 J0.1177
G1 X2 Y0.5833
G3 Y0.8187 I0 J0.1177
G1 X0
G2 Y1.0539 I0 J0.1176
G1 X2 Y1.054
G3 Y1.2894 I0 J0.1177
G1 X0 Y1.2893
G2 Y1.5247 I0 J0.1177
G1 X2 Y1.5246
G3 Y1.76 I0 J0.1177
G1 X0
G2 Y1.9952 I0 J0.1176
G1 X2 Y1.9953
G3 Y2.2305 I0 J0.1176
G1 X0 Y2.2306
G2 Y2.466 I0 J0.1177
G1 X2 Y2.4659
G3 Y2.7013 I0 J0.1177
G1 X0
G2 Y2.9365 I0 J0.1176
G1 X2 Y2.9366
G3 Y3.1718 I0 J0.1176
G1 X0 Y3.1719
G2 Y3.4073 I0 J0.1177
G1 X2 Y3.4072
G3 Y3.6426 I0 J0.1177
G1 X0
G2 Y3.8778 I0 J0.1176
G1 X2 Y3.8779
G3 Y4.1131 I0 J0.1176
G1 X0 Y4.1132
G2 Y4.3486 I0 J0.1177
G1 X2 Y4.3485
G3 Y4.5839 I0 J0.1177
G1 X0 Y4.5838
G2 Y4.8192 I0 J0.1177
G1 X2
G3 Y5.0544 I0 J0.1176
G1 X0 Y5.0545
G2 Y5.2899 I0 J0.1177
G1 X2 Y5.2898
G3 Y5.5252 I0 J0.1177
G1 X0 Y5.5251
G2 Y5.7605 I0 J0.1177
G1 X2
G3 Y5.9957 I0 J0.1176
G1 X0 Y5.9958
G2 Y6.231 I0 J0.1176
G1 X2 Y6.2311
G3 Y6.4665 I0 J0.1177
G1 X0 Y6.4664
G2 Y6.7018 I0 J0.1177
G1 X2
G3 Y6.937 I0 J0.1176
G1 X0 Y6.9371
G2 Y7.1723 I0 J0.1176
G1 X2 Y7.1724
G3 Y7.4078 I0 J0.1177
G1 X0 Y7.4077
G2 Y7.6431 I0 J0.1177
G1 X2
G3 Y7.8783 I0 J0.1176
G1 X0 Y7.8784
G2 Y8.1136 I0 J0.1176
G1 X2 Y8.1137
G3 Y8.3491 I0 J0.1177
G1 X0 Y8.349
G2 Y8.5844 I0 J0.1177
G1 X2 Y8.5843
G3 Y8.8197 I0 J0.1177
G1 X0
G2 Y9.0549 I0 J0.1176
G1 X2 Y9.055
G3 Y9.2904 I0 J0.1177
G1 X0 Y9.2903
G2 Y9.5257 I0 J0.1177
G1 X2 Y9.5256
G3 Y9.761 I0 J0.1177
G1 X0
G2 Y9.9962 I0 J0.1176
G1 X2 Y9.9963
G3 Y10.2315 I0 J0.1176
G1 X0 Y10.2316
G2 Y10.467 I0 J0.1177
G1 X2 Y10.4669
G3 Y10.7023 I0 J0.1177
G1 X0
G2 Y10.9375 I0 J0.1176
G1 X2 Y10.9376
G3 Y11.1728 I0 J0.1176
G1 X0 Y11.1729
G2 Y11.4083 I0 J0.1177
G1 X2 Y11.4082
G3 Y11.6436 I0 J0.1177
G1 X0
G2 Y11.8788 I0 J0.1176
G1 X2 Y11.8789
G18 G2 X2.025 Z-0.2003 I0 K0.025
G0 Z0.2
X2.1625 Y0.1127
G1 Z-0.2403 F30
G3 X2.1375 Z-0.2653 I-0.025 K0 F60
G1 X2
X0
G17 G2 Y0.3481 I0 J0.1177
G1 X2 Y0.348
G3 Y0.5834 I0 J0.1177
G1 X0 Y0.5833
G2 Y0.8187 I0 J0.1177
G1 X2
G3 Y1.0539 I0 J0.1176
G1 X0 Y1.054
G2 Y1.2894 I0 J0.1177
G1 X2 Y1.2893
G3 Y1.5247 I0 J0.1177
G1 X0 Y1.5246
G2 Y1.76 I0 J0.1177
G1 X2
G3 Y1.9952 I0 J0.1176
G1 X0 Y1.9953
G2 Y2.2305 I0 J0.1176
G1 X2 Y2.2306
G3 Y2.466 I0 J0.1177
G1 X0 Y2.4659
G2 Y2.7013 I0 J0.1177
G1 X2
G3 Y2.9365 I0 J0.1176
G1 X0 Y2.9366
G2 Y3.1718 I0 J0.1176
G1 X2 Y3.1719
G3 Y3.4073 I0 J0.1177
G1 X0 Y3.4072
G2 Y3.6426 I0 J0.1177
G1 X2
G3 Y3.8778 I0 J0.1176
G1 X0 Y3.8779
G2 Y4.1131 I0 J0.1176
G1 X2 Y4.1132
G3 Y4.3486 I0 J0.1177
G1 X0 Y4.3485
G2 Y4.5839 I0 J0.1177
G1 X2 Y4.5838
G3 Y4.8192 I0 J0.1177
G1 X0
G2 Y5.0544 I0 J0.1176
G1 X2 Y5.0545
G3 Y5.2899 I0 J0.1177
G1 X0 Y5.2898
G2 Y5.5252 I0 J0.1177
G1 X2 Y5.5251
G3 Y5.7605 I0 J0.1177
G1 X0
G2 Y5.9957 I0 J0.1176
G1 X2 Y5.9958
G3 Y6.231 I0 J0.1176
G1 X0 Y6.2311
G2 Y6.4665 I0 J0.1177
G1 X2 Y6.4664
G3 Y6.7018 I0 J0.1177
G1 X0
G2 Y6.937 I0 J0.1176
G1 X2 Y6.9371
G3 Y7.1723 I0 J0.1176
G1 X0 Y7.1724
G2 Y7.4078 I0 J0.1177
G1 X2 Y7.4077
G3 Y7.6431 I0 J0.1177
G1 X0
G2 Y7.8783 I0 J0.1176
G1 X2 Y7.8784
G3 Y8.1136 I0 J0.1176
G1 X0 Y8.1137
G2 Y8.3491 I0 J0.1177
G1 X2 Y8.349
G3 Y8.5844 I0 J0.1177
G1 X0 Y8.5843
G2 Y8.8197 I0 J0.1177
G1 X2
G3 Y9.0549 I0 J0.1176
G1 X0 Y9.055
G2 Y9.2904 I0 J0.1177
G1 X2 Y9.2903
G3 Y9.5257 I0 J0.1177
G1 X0 Y9.5256
G2 Y9.761 I0 J0.1177
G1 X2
G3 Y9.9962 I0 J0.1176
G1 X0 Y9.9963
G2 Y10.2315 I0 J0.1176
G1 X2 Y10.2316
G3 Y10.467 I0 J0.1177
G1 X0 Y10.4669
G2 Y10.7023 I0 J0.1177
G1 X2
G3 Y10.9375 I0 J0.1176
G1 X0 Y10.9376
G2 Y11.1728 I0 J0.1176
G1 X2 Y11.1729
G3 Y11.4083 I0 J0.1177
G1 X0 Y11.4082
G2 Y11.6436 I0 J0.1177
G1 X2
G3 Y11.8788 I0 J0.1176
G1 X0 Y11.8789
G18 G3 X-0.025 Z-0.2403 I0 K0.025
G0 Z0.2
X-0.1625 Y0.1127
G1 Z-0.2803 F30
G2 X-0.1375 Z-0.3053 I0.025 K0 F60
G1 X0
X2
G17 G3 Y0.3481 I0 J0.1177
G1 X0 Y0.348
G2 Y0.5834 I0 J0.1177
G1 X2 Y0.5833
G3 Y0.8187 I0 J0.1177
G1 X0
G2 Y1.0539 I0 J0.1176
G1 X2 Y1.054
G3 Y1.2894 I0 J0.1177
G1 X0 Y1.2893
G2 Y1.5247 I0 J0.1177
G1 X2 Y1.5246
G3 Y1.76 I0 J0.1177
G1 X0
G2 Y1.9952 I0 J0.1176
G1 X2 Y1.9953
G3 Y2.2305 I0 J0.1176
G1 X0 Y2.2306
G2 Y2.466 I0 J0.1177
G1 X2 Y2.4659
G3 Y2.7013 I0 J0.1177
G1 X0
G2 Y2.9365 I0 J0.1176
G1 X2 Y2.9366
G3 Y3.1718 I0 J0.1176
G1 X0 Y3.1719
G2 Y3.4073 I0 J0.1177
G1 X2 Y3.4072
G3 Y3.6426 I0 J0.1177
G1 X0
G2 Y3.8778 I0 J0.1176
G1 X2 Y3.8779
G3 Y4.1131 I0 J0.1176
G1 X0 Y4.1132
G2 Y4.3486 I0 J0.1177
G1 X2 Y4.3485
G3 Y4.5839 I0 J0.1177
G1 X0 Y4.5838
G2 Y4.8192 I0 J0.1177
G1 X2
G3 Y5.0544 I0 J0.1176
G1 X0 Y5.0545
G2 Y5.2899 I0 J0.1177
G1 X2 Y5.2898
G3 Y5.5252 I0 J0.1177
G1 X0 Y5.5251
G2 Y5.7605 I0 J0.1177
G1 X2
G3 Y5.9957 I0 J0.1176
G1 X0 Y5.9958
G2 Y6.231 I0 J0.1176
G1 X2 Y6.2311
G3 Y6.4665 I0 J0.1177
G1 X0 Y6.4664
G2 Y6.7018 I0 J0.1177
G1 X2
G3 Y6.937 I0 J0.1176
G1 X0 Y6.9371
G2 Y7.1723 I0 J0.1176
G1 X2 Y7.1724
G3 Y7.4078 I0 J0.1177
G1 X0 Y7.4077
G2 Y7.6431 I0 J0.1177
G1 X2
G3 Y7.8783 I0 J0.1176
G1 X0 Y7.8784
G2 Y8.1136 I0 J0.1176
G1 X2 Y8.1137
G3 Y8.3491 I0 J0.1177
G1 X0 Y8.349
G2 Y8.5844 I0 J0.1177
G1 X2 Y8.5843
G3 Y8.8197 I0 J0.1177
G1 X0
G2 Y9.0549 I0 J0.1176
G1 X2 Y9.055
G3 Y9.2904 I0 J0.1177
G1 X0 Y9.2903
G2 Y9.5257 I0 J0.1177
G1 X2 Y9.5256
G3 Y9.761 I0 J0.1177
G1 X0
G2 Y9.9962 I0 J0.1176
G1 X2 Y9.9963
G3 Y10.2315 I0 J0.1176
G1 X0 Y10.2316
G2 Y10.467 I0 J0.1177
G1 X2 Y10.4669
G3 Y10.7023 I0 J0.1177
G1 X0
G2 Y10.9375 I0 J0.1176
G1 X2 Y10.9376
G3 Y11.1728 I0 J0.1176
G1 X0 Y11.1729
G2 Y11.4083 I0 J0.1177
G1 X2 Y11.4082
G3 Y11.6436 I0 J0.1177
G1 X0
G2 Y11.8788 I0 J0.1176
G1 X2 Y11.8789
G18 G2 X2.025 Z-0.2803 I0 K0.025
G0 Z0.2
X2.1625 Y0.1127
G1 Z-0.3203 F30
G3 X2.1375 Z-0.3453 I-0.025 K0 F60
G1 X2
X0
G17 G2 Y0.3481 I0 J0.1177
G1 X2 Y0.348
G3 Y0.5834 I0 J0.1177
G1 X0 Y0.5833
G2 Y0.8187 I0 J0.1177
G1 X2
G3 Y1.0539 I0 J0.1176
G1 X0 Y1.054
G2 Y1.2894 I0 J0.1177
G1 X2 Y1.2893
G3 Y1.5247 I0 J0.1177
G1 X0 Y1.5246
G2 Y1.76 I0 J0.1177
G1 X2
G3 Y1.9952 I0 J0.1176
G1 X0 Y1.9953
G2 Y2.2305 I0 J0.1176
G1 X2 Y2.2306
G3 Y2.466 I0 J0.1177
G1 X0 Y2.4659
G2 Y2.7013 I0 J0.1177
G1 X2
G3 Y2.9365 I0 J0.1176
G1 X0 Y2.9366
G2 Y3.1718 I0 J0.1176
G1 X2 Y3.1719
G3 Y3.4073 I0 J0.1177
G1 X0 Y3.4072
G2 Y3.6426 I0 J0.1177
G1 X2
G3 Y3.8778 I0 J0.1176
G1 X0 Y3.8779
G2 Y4.1131 I0 J0.1176
G1 X2 Y4.1132
G3 Y4.3486 I0 J0.1177
G1 X0 Y4.3485
G2 Y4.5839 I0 J0.1177
G1 X2 Y4.5838
G3 Y4.8192 I0 J0.1177
G1 X0
G2 Y5.0544 I0 J0.1176
G1 X2 Y5.0545
G3 Y5.2899 I0 J0.1177
G1 X0 Y5.2898
G2 Y5.5252 I0 J0.1177
G1 X2 Y5.5251
G3 Y5.7605 I0 J0.1177
G1 X0
G2 Y5.9957 I0 J0.1176
G1 X2 Y5.9958
G3 Y6.231 I0 J0.1176
G1 X0 Y6.2311
G2 Y6.4665 I0 J0.1177
G1 X2 Y6.4664
G3 Y6.7018 I0 J0.1177
G1 X0
G2 Y6.937 I0 J0.1176
G1 X2 Y6.9371
G3 Y7.1723 I0 J0.1176
G1 X0 Y7.1724
G2 Y7.4078 I0 J0.1177
G1 X2 Y7.4077
G3 Y7.6431 I0 J0.1177
G1 X0
G2 Y7.8783 I0 J0.1176
G1 X2 Y7.8784
G3 Y8.1136 I0 J0.1176
G1 X0 Y8.1137
G2 Y8.3491 I0 J0.1177
G1 X2 Y8.349
G3 Y8.5844 I0 J0.1177
G1 X0 Y8.5843
G2 Y8.8197 I0 J0.1177
G1 X2
G3 Y9.0549 I0 J0.1176
G1 X0 Y9.055
G2 Y9.2904 I0 J0.1177
G1 X2 Y9.2903
G3 Y9.5257 I0 J0.1177
G1 X0 Y9.5256
G2 Y9.761 I0 J0.1177
G1 X2
G3 Y9.9962 I0 J0.1176
G1 X0 Y9.9963
G2 Y10.2315 I0 J0.1176
G1 X2 Y10.2316
G3 Y10.467 I0 J0.1177
G1 X0 Y10.4669
G2 Y10.7023 I0 J0.1177
G1 X2
G3 Y10.9375 I0 J0.1176
G1 X0 Y10.9376
G2 Y11.1728 I0 J0.1176
G1 X2 Y11.1729
G3 Y11.4083 I0 J0.1177
G1 X0 Y11.4082
G2 Y11.6436 I0 J0.1177
G1 X2
G3 Y11.8788 I0 J0.1176
G1 X0 Y11.8789
G18 G3 X-0.025 Z-0.3203 I0 K0.025
G0 Z0.2
X-0.1625 Y0.1127
G1 Z-0.3603 F30
G2 X-0.1375 Z-0.3853 I0.025 K0 F60
G1 X0
X2
G17 G3 Y0.3481 I0 J0.1177
G1 X0 Y0.348
G2 Y0.5834 I0 J0.1177
G1 X2 Y0.5833
G3 Y0.8187 I0 J0.1177
G1 X0
G2 Y1.0539 I0 J0.1176
G1 X2 Y1.054
G3 Y1.2894 I0 J0.1177
G1 X0 Y1.2893
G2 Y1.5247 I0 J0.1177
G1 X2 Y1.5246
G3 Y1.76 I0 J0.1177
G1 X0
G2 Y1.9952 I0 J0.1176
G1 X2 Y1.9953
G3 Y2.2305 I0 J0.1176
G1 X0 Y2.2306
G2 Y2.466 I0 J0.1177
G1 X2 Y2.4659
G3 Y2.7013 I0 J0.1177
G1 X0
G2 Y2.9365 I0 J0.1176
G1 X2 Y2.9366
G3 Y3.1718 I0 J0.1176
G1 X0 Y3.1719
G2 Y3.4073 I0 J0.1177
G1 X2 Y3.4072
G3 Y3.6426 I0 J0.1177
G1 X0
G2 Y3.8778 I0 J0.1176
G1 X2 Y3.8779
G3 Y4.1131 I0 J0.1176
G1 X0 Y4.1132
G2 Y4.3486 I0 J0.1177
G1 X2 Y4.3485
G3 Y4.5839 I0 J0.1177
G1 X0 Y4.5838
G2 Y4.8192 I0 J0.1177
G1 X2
G3 Y5.0544 I0 J0.1176
G1 X0 Y5.0545
G2 Y5.2899 I0 J0.1177
G1 X2 Y5.2898
G3 Y5.5252 I0 J0.1177
G1 X0 Y5.5251
G2 Y5.7605 I0 J0.1177
G1 X2
G3 Y5.9957 I0 J0.1176
G1 X0 Y5.9958
G2 Y6.231 I0 J0.1176
G1 X2 Y6.2311
G3 Y6.4665 I0 J0.1177
G1 X0 Y6.4664
G2 Y6.7018 I0 J0.1177
G1 X2
G3 Y6.937 I0 J0.1176
G1 X0 Y6.9371
G2 Y7.1723 I0 J0.1176
G1 X2 Y7.1724
G3 Y7.4078 I0 J0.1177
G1 X0 Y7.4077
G2 Y7.6431 I0 J0.1177
G1 X2
G3 Y7.8783 I0 J0.1176
G1 X0 Y7.8784
G2 Y8.1136 I0 J0.1176
G1 X2 Y8.1137
G3 Y8.3491 I0 J0.1177
G1 X0 Y8.349
G2 Y8.5844 I0 J0.1177
G1 X2 Y8.5843
G3 Y8.8197 I0 J0.1177
G1 X0
G2 Y9.0549 I0 J0.1176
G1 X2 Y9.055
G3 Y9.2904 I0 J0.1177
G1 X0 Y9.2903
G2 Y9.5257 I0 J0.1177
G1 X2 Y9.5256
G3 Y9.761 I0 J0.1177
G1 X0
G2 Y9.9962 I0 J0.1176
G1 X2 Y9.9963
G3 Y10.2315 I0 J0.1176
G1 X0 Y10.2316
G2 Y10.467 I0 J0.1177
G1 X2 Y10.4669
G3 Y10.7023 I0 J0.1177
G1 X0
G2 Y10.9375 I0 J0.1176
G1 X2 Y10.9376
G3 Y11.1728 I0 J0.1176
G1 X0 Y11.1729
G2 Y11.4083 I0 J0.1177
G1 X2 Y11.4082
G3 Y11.6436 I0 J0.1177
G1 X0
G2 Y11.8788 I0 J0.1176
G1 X2 Y11.8789
G18 G2 X2.025 Z-0.3603 I0 K0.025
G0 Z0.2
X2.1625 Y0.1127
G1 Z-0.4003 F30
G3 X2.1375 Z-0.4253 I-0.025 K0 F60
G1 X2
X0
G17 G2 Y0.3481 I0 J0.1177
G1 X2 Y0.348
G3 Y0.5834 I0 J0.1177
G1 X0 Y0.5833
G2 Y0.8187 I0 J0.1177
G1 X2
G3 Y1.0539 I0 J0.1176
G1 X0 Y1.054
G2 Y1.2894 I0 J0.1177
G1 X2 Y1.2893
G3 Y1.5247 I0 J0.1177
G1 X0 Y1.5246
G2 Y1.76 I0 J0.1177
G1 X2
G3 Y1.9952 I0 J0.1176
G1 X0 Y1.9953
G2 Y2.2305 I0 J0.1176
G1 X2 Y2.2306
G3 Y2.466 I0 J0.1177
G1 X0 Y2.4659
G2 Y2.7013 I0 J0.1177
G1 X2
G3 Y2.9365 I0 J0.1176
G1 X0 Y2.9366
G2 Y3.1718 I0 J0.1176
G1 X2 Y3.1719
G3 Y3.4073 I0 J0.1177
G1 X0 Y3.4072
G2 Y3.6426 I0 J0.1177
G1 X2
G3 Y3.8778 I0 J0.1176
G1 X0 Y3.8779
G2 Y4.1131 I0 J0.1176
G1 X2 Y4.1132
G3 Y4.3486 I0 J0.1177
G1 X0 Y4.3485
G2 Y4.5839 I0 J0.1177
G1 X2 Y4.5838
G3 Y4.8192 I0 J0.1177
G1 X0
G2 Y5.0544 I0 J0.1176
G1 X2 Y5.0545
G3 Y5.2899 I0 J0.1177
G1 X0 Y5.2898
G2 Y5.5252 I0 J0.1177
G1 X2 Y5.5251
G3 Y5.7605 I0 J0.1177
G1 X0
G2 Y5.9957 I0 J0.1176
G1 X2 Y5.9958
G3 Y6.231 I0 J0.1176
G1 X0 Y6.2311
G2 Y6.4665 I0 J0.1177
G1 X2 Y6.4664
G3 Y6.7018 I0 J0.1177
G1 X0
G2 Y6.937 I0 J0.1176
G1 X2 Y6.9371
G3 Y7.1723 I0 J0.1176
G1 X0 Y7.1724
G2 Y7.4078 I0 J0.1177
G1 X2 Y7.4077
G3 Y7.6431 I0 J0.1177
G1 X0
G2 Y7.8783 I0 J0.1176
G1 X2 Y7.8784
G3 Y8.1136 I0 J0.1176
G1 X0 Y8.1137
G2 Y8.3491 I0 J0.1177
G1 X2 Y8.349
G3 Y8.5844 I0 J0.1177
G1 X0 Y8.5843
G2 Y8.8197 I0 J0.1177
G1 X2
G3 Y9.0549 I0 J0.1176
G1 X0 Y9.055
G2 Y9.2904 I0 J0.1177
G1 X2 Y9.2903
G3 Y9.5257 I0 J0.1177
G1 X0 Y9.5256
G2 Y9.761 I0 J0.1177
G1 X2
G3 Y9.9962 I0 J0.1176
G1 X0 Y9.9963
G2 Y10.2315 I0 J0.1176
G1 X2 Y10.2316
G3 Y10.467 I0 J0.1177
G1 X0 Y10.4669
G2 Y10.7023 I0 J0.1177
G1 X2
G3 Y10.9375 I0 J0.1176
G1 X0 Y10.9376
G2 Y11.1728 I0 J0.1176
G1 X2 Y11.1729
G3 Y11.4083 I0 J0.1177
G1 X0 Y11.4082
G2 Y11.6436 I0 J0.1177
G1 X2
G3 Y11.8788 I0 J0.1176
G1 X0 Y11.8789
G18 G3 X-0.025 Z-0.4003 I0 K0.025
G0 Z0.6
G17
G28 G91 Z0
G90
G28 G91 X0 Y0
G90
M30
%
