%
(Faceplate_left)
(T2  D=0.125 CR=0 - ZMIN=-0.0305 - flat end mill)
G90
G17
G20
G28 G91 Z0
G90

(2D Contour3)
T2 M6
S10000 M3
G54
G0 X-0.1 Y-0.0125
Z1.5
G1 Z0.0075 F30
G18 G2 X-0.0875 Z-0.005 I0.0125 K0
G1 X-0.075
G17 G3 X-0.0625 Y0 I0 J0.0125
G1 Y8
G3 X-0.075 Y8.0125 I-0.0125 J0
G1 X-0.0875
G18 G3 X-0.1 Z0.0075 I0 K0.0125
G0 Z1.5
Y-0.0125
Z1.495
G1 Z0.0025 F30
G2 X-0.0875 Z-0.01 I0.0125 K0
G1 X-0.075
G17 G3 X-0.0625 Y0 I0 J0.0125
G1 Y8
G3 X-0.075 Y8.0125 I-0.0125 J0
G1 X-0.0875
G18 G3 X-0.1 Z0.0025 I0 K0.0125
G0 Z1.5
Y-0.0125
Z1.49
G1 Z-0.0025 F30
G2 X-0.0875 Z-0.015 I0.0125 K0
G1 X-0.075
G17 G3 X-0.0625 Y0 I0 J0.0125
G1 Y8
G3 X-0.075 Y8.0125 I-0.0125 J0
G1 X-0.0875
G18 G3 X-0.1 Z-0.0025 I0 K0.0125
G0 Z1.5
Y-0.0125
Z1.485
G1 Z-0.0075 F30
G2 X-0.0875 Z-0.02 I0.0125 K0
G1 X-0.075
G17 G3 X-0.0625 Y0 I0 J0.0125
G1 Y8
G3 X-0.075 Y8.0125 I-0.0125 J0
G1 X-0.0875
G18 G3 X-0.1 Z-0.0075 I0 K0.0125
G0 Z1.5
Y-0.0125
Z1.48
G1 Z-0.0125 F30
G2 X-0.0875 Z-0.025 I0.0125 K0
G1 X-0.075
G17 G3 X-0.0625 Y0 I0 J0.0125
G1 Y8
G3 X-0.075 Y8.0125 I-0.0125 J0
G1 X-0.0875
G18 G3 X-0.1 Z-0.0125 I0 K0.0125
G0 Z1.5
Y-0.0125
Z1.475
G1 Z-0.0153 F30
G2 X-0.0875 Z-0.0277 I0.0125 K0.0001
G1 X-0.075 Z-0.0278
G17 G3 X-0.0625 Y0 I0 J0.0125
G1 Y8
G3 X-0.075 Y8.0125 I-0.0125 J0
G1 X-0.0875
G18 G3 X-0.1001 Z-0.0153 I0 K0.0126
G0 X-0.1 Z1.5
Y-0.0125
Z1.4722
G1 Z-0.018 F30
G2 X-0.0875 Z-0.0305 I0.0125 K0
G1 X-0.075
G17 G3 X-0.0625 Y0 I0 J0.0125
G1 Y8
G3 X-0.075 Y8.0125 I-0.0125 J0
G1 X-0.0875
G18 G3 X-0.1 Z-0.018 I0 K0.0125
G0 Z1.5
G17
G28 G91 Z0
G90
G28 G91 X0 Y0
G90
M30
%
