%
(Faceplate_Holes_FinalCorner)
(T2  D=0.125 CR=0 - ZMIN=-0.0305 - flat end mill)
G90
G17
G20
G28 G91 Z0
G90

(2D Contour2)
T2 M6
S10000 M3
G54
G0 X0.5954 Y4.406
Z1.5
G1 Z0.0075 F30
X0.5956 Y4.4057 Z0.0047
X0.5962 Y4.405 Z0.0021
X0.5971 Y4.4038 Z-0.0003
X0.5983 Y4.4022 Z-0.0023
X0.5997 Y4.4003 Z-0.0038
X0.6013 Y4.3982 Z-0.0047
X0.6029 Y4.396 Z-0.005
X0.6104 Y4.386
G3 X0.6279 Y4.3835 I0.01 J0.0075
X0.5181 Y4.5299 I-0.0549 J0.0732
X0.6279 Y4.3835 I0.0549 J-0.0732
X0.6304 Y4.401 I-0.0075 J0.01
G1 X0.6229 Y4.411
X0.6213 Y4.4132 Z-0.0047
X0.6197 Y4.4153 Z-0.0038
X0.6183 Y4.4172 Z-0.0023
X0.6171 Y4.4188 Z-0.0003
X0.6162 Y4.42 Z0.0021
X0.6156 Y4.4207 Z0.0047
X0.6154 Y4.421 Z0.0075
X0.5954 Y4.406
Z0.0025
X0.5956 Y4.4057 Z-0.0003
X0.5962 Y4.405 Z-0.0029
X0.5971 Y4.4038 Z-0.0053
X0.5983 Y4.4022 Z-0.0073
X0.5997 Y4.4003 Z-0.0088
X0.6013 Y4.3982 Z-0.0097
X0.6029 Y4.396 Z-0.01
X0.6104 Y4.386
G3 X0.6279 Y4.3835 I0.01 J0.0075
X0.5181 Y4.5299 I-0.0549 J0.0732
X0.6279 Y4.3835 I0.0549 J-0.0732
X0.6304 Y4.401 I-0.0075 J0.01
G1 X0.6229 Y4.411
X0.6213 Y4.4132 Z-0.0097
X0.6197 Y4.4153 Z-0.0088
X0.6183 Y4.4172 Z-0.0073
X0.6171 Y4.4188 Z-0.0053
X0.6162 Y4.42 Z-0.0029
X0.6156 Y4.4207 Z-0.0003
X0.6154 Y4.421 Z0.0025
X0.5954 Y4.406
Z-0.0025
X0.5956 Y4.4057 Z-0.0053
X0.5962 Y4.405 Z-0.0079
X0.5971 Y4.4038 Z-0.0103
X0.5983 Y4.4022 Z-0.0123
X0.5997 Y4.4003 Z-0.0138
X0.6013 Y4.3982 Z-0.0147
X0.6029 Y4.396 Z-0.015
X0.6104 Y4.386
G3 X0.6279 Y4.3835 I0.01 J0.0075
X0.5181 Y4.5299 I-0.0549 J0.0732
X0.6279 Y4.3835 I0.0549 J-0.0732
X0.6304 Y4.401 I-0.0075 J0.01
G1 X0.6229 Y4.411
X0.6213 Y4.4132 Z-0.0147
X0.6197 Y4.4153 Z-0.0138
X0.6183 Y4.4172 Z-0.0123
X0.6171 Y4.4188 Z-0.0103
X0.6162 Y4.42 Z-0.0079
X0.6156 Y4.4207 Z-0.0053
X0.6154 Y4.421 Z-0.0025
X0.5954 Y4.406
Z-0.0075
X0.5956 Y4.4057 Z-0.0103
X0.5962 Y4.405 Z-0.0129
X0.5971 Y4.4038 Z-0.0153
X0.5983 Y4.4022 Z-0.0173
X0.5997 Y4.4003 Z-0.0188
X0.6013 Y4.3982 Z-0.0197
X0.6029 Y4.396 Z-0.02
X0.6104 Y4.386
G3 X0.6279 Y4.3835 I0.01 J0.0075
X0.5181 Y4.5299 I-0.0549 J0.0732
X0.6279 Y4.3835 I0.0549 J-0.0732
X0.6304 Y4.401 I-0.0075 J0.01
G1 X0.6229 Y4.411
X0.6213 Y4.4132 Z-0.0197
X0.6197 Y4.4153 Z-0.0188
X0.6183 Y4.4172 Z-0.0173
X0.6171 Y4.4188 Z-0.0153
X0.6162 Y4.42 Z-0.0129
X0.6156 Y4.4207 Z-0.0103
X0.6154 Y4.421 Z-0.0075
X0.5954 Y4.406
Z-0.0125
X0.5956 Y4.4057 Z-0.0153
X0.5962 Y4.405 Z-0.0179
X0.5971 Y4.4038 Z-0.0203
X0.5983 Y4.4022 Z-0.0223
X0.5997 Y4.4003 Z-0.0238
X0.6013 Y4.3982 Z-0.0247
X0.6029 Y4.396 Z-0.025
X0.6104 Y4.386
G3 X0.6279 Y4.3835 I0.01 J0.0075
X0.5181 Y4.5299 I-0.0549 J0.0732
X0.6279 Y4.3835 I0.0549 J-0.0732
X0.6304 Y4.401 I-0.0075 J0.01
G1 X0.6229 Y4.411
X0.6213 Y4.4132 Z-0.0247
X0.6197 Y4.4153 Z-0.0238
X0.6183 Y4.4172 Z-0.0223
X0.6171 Y4.4188 Z-0.0203
X0.6162 Y4.42 Z-0.0179
X0.6156 Y4.4207 Z-0.0153
X0.6154 Y4.421 Z-0.0125
X0.5954 Y4.406
Z-0.0153
X0.5956 Y4.4057 Z-0.018
X0.5962 Y4.405 Z-0.0207
X0.5971 Y4.4038 Z-0.023
X0.5983 Y4.4022 Z-0.025
X0.5997 Y4.4003 Z-0.0265
X0.6013 Y4.3982 Z-0.0274
X0.6029 Y4.396 Z-0.0278
X0.6104 Y4.386
G3 X0.6279 Y4.3835 I0.01 J0.0075
X0.5181 Y4.5299 I-0.0549 J0.0732
X0.6279 Y4.3835 I0.0549 J-0.0732
X0.6304 Y4.401 I-0.0075 J0.01
G1 X0.6229 Y4.411
X0.6213 Y4.4132 Z-0.0274
X0.6197 Y4.4153 Z-0.0265
X0.6183 Y4.4172 Z-0.025
X0.6171 Y4.4188 Z-0.023
X0.6162 Y4.42 Z-0.0207
X0.6156 Y4.4207 Z-0.018
X0.6154 Y4.421 Z-0.0153
X0.5954 Y4.406
Z-0.018
X0.5956 Y4.4057 Z-0.0208
X0.5962 Y4.405 Z-0.0234
X0.5971 Y4.4038 Z-0.0258
X0.5983 Y4.4022 Z-0.0278
X0.5997 Y4.4003 Z-0.0293
X0.6013 Y4.3982 Z-0.0302
X0.6029 Y4.396 Z-0.0305
X0.6104 Y4.386
G3 X0.6279 Y4.3835 I0.01 J0.0075
X0.5181 Y4.5299 I-0.0549 J0.0732
X0.6279 Y4.3835 I0.0549 J-0.0732
X0.6304 Y4.401 I-0.0075 J0.01
G1 X0.6229 Y4.411
X0.6213 Y4.4132 Z-0.0302
X0.6197 Y4.4153 Z-0.0293
X0.6183 Y4.4172 Z-0.0278
X0.6171 Y4.4188 Z-0.0258
X0.6162 Y4.42 Z-0.0234
X0.6156 Y4.4207 Z-0.0208
X0.6154 Y4.421 Z-0.018
G0 Z1.5
X0.627 Y3.4599
G1 Z0.0075 F30
G18 G2 X0.6395 Z-0.005 I0.0125 K0
G1 X0.652
G17 G3 X0.6645 Y3.4724 I0 J0.0125
X0.4815 I-0.0915 J0
X0.6645 I0.0915 J0
X0.652 Y3.4849 I-0.0125 J0
G1 X0.6395
G18 G3 X0.627 Z0.0075 I0 K0.0125
G1 Y3.4599
Z0.0025
G2 X0.6395 Z-0.01 I0.0125 K0
G1 X0.652
G17 G3 X0.6645 Y3.4724 I0 J0.0125
X0.4815 I-0.0915 J0
X0.6645 I0.0915 J0
X0.652 Y3.4849 I-0.0125 J0
G1 X0.6395
G18 G3 X0.627 Z0.0025 I0 K0.0125
G1 Y3.4599
Z-0.0025
G2 X0.6395 Z-0.015 I0.0125 K0
G1 X0.652
G17 G3 X0.6645 Y3.4724 I0 J0.0125
X0.4815 I-0.0915 J0
X0.6645 I0.0915 J0
X0.652 Y3.4849 I-0.0125 J0
G1 X0.6395
G18 G3 X0.627 Z-0.0025 I0 K0.0125
G1 Y3.4599
Z-0.0075
G2 X0.6395 Z-0.02 I0.0125 K0
G1 X0.652
G17 G3 X0.6645 Y3.4724 I0 J0.0125
X0.4815 I-0.0915 J0
X0.6645 I0.0915 J0
X0.652 Y3.4849 I-0.0125 J0
G1 X0.6395
G18 G3 X0.627 Z-0.0075 I0 K0.0125
G1 Y3.4599
Z-0.0125
G2 X0.6395 Z-0.025 I0.0125 K0
G1 X0.652
G17 G3 X0.6645 Y3.4724 I0 J0.0125
X0.4815 I-0.0915 J0
X0.6645 I0.0915 J0
X0.652 Y3.4849 I-0.0125 J0
G1 X0.6395
G18 G3 X0.627 Z-0.0125 I0 K0.0125
G1 Y3.4599
Z-0.0153
G2 X0.6395 Z-0.0277 I0.0125 K0.0001
G1 X0.652 Z-0.0278
G17 G3 X0.6645 Y3.4724 I0 J0.0125
X0.4815 I-0.0915 J0
X0.6645 I0.0915 J0
X0.652 Y3.4849 I-0.0125 J0
G1 X0.6395
G18 G3 X0.6269 Z-0.0153 I0 K0.0126
G1 X0.627 Y3.4599
Z-0.018
G2 X0.6395 Z-0.0305 I0.0125 K0
G1 X0.652
G17 G3 X0.6645 Y3.4724 I0 J0.0125
X0.4815 I-0.0915 J0
X0.6645 I0.0915 J0
X0.652 Y3.4849 I-0.0125 J0
G1 X0.6395
G18 G3 X0.627 Z-0.018 I0 K0.0125
G0 Z1.5
Y2.4757
G1 Z0.0075 F30
G2 X0.6395 Z-0.005 I0.0125 K0
G1 X0.652
G17 G3 X0.6645 Y2.4882 I0 J0.0125
X0.4815 I-0.0915 J0
X0.6645 I0.0915 J0
X0.652 Y2.5007 I-0.0125 J0
G1 X0.6395
G18 G3 X0.627 Z0.0075 I0 K0.0125
G1 Y2.4757
Z0.0025
G2 X0.6395 Z-0.01 I0.0125 K0
G1 X0.652
G17 G3 X0.6645 Y2.4882 I0 J0.0125
X0.4815 I-0.0915 J0
X0.6645 I0.0915 J0
X0.652 Y2.5007 I-0.0125 J0
G1 X0.6395
G18 G3 X0.627 Z0.0025 I0 K0.0125
G1 Y2.4757
Z-0.0025
G2 X0.6395 Z-0.015 I0.0125 K0
G1 X0.652
G17 G3 X0.6645 Y2.4882 I0 J0.0125
X0.4815 I-0.0915 J0
X0.6645 I0.0915 J0
X0.652 Y2.5007 I-0.0125 J0
G1 X0.6395
G18 G3 X0.627 Z-0.0025 I0 K0.0125
G1 Y2.4757
Z-0.0075
G2 X0.6395 Z-0.02 I0.0125 K0
G1 X0.652
G17 G3 X0.6645 Y2.4882 I0 J0.0125
X0.4815 I-0.0915 J0
X0.6645 I0.0915 J0
X0.652 Y2.5007 I-0.0125 J0
G1 X0.6395
G18 G3 X0.627 Z-0.0075 I0 K0.0125
G1 Y2.4757
Z-0.0125
G2 X0.6395 Z-0.025 I0.0125 K0
G1 X0.652
G17 G3 X0.6645 Y2.4882 I0 J0.0125
X0.4815 I-0.0915 J0
X0.6645 I0.0915 J0
X0.652 Y2.5007 I-0.0125 J0
G1 X0.6395
G18 G3 X0.627 Z-0.0125 I0 K0.0125
G1 Y2.4757
Z-0.0153
G2 X0.6395 Z-0.0277 I0.0125 K0.0001
G1 X0.652 Z-0.0278
G17 G3 X0.6645 Y2.4882 I0 J0.0125
X0.4815 I-0.0915 J0
X0.6645 I0.0915 J0
X0.652 Y2.5007 I-0.0125 J0
G1 X0.6395
G18 G3 X0.6269 Z-0.0153 I0 K0.0126
G1 X0.627 Y2.4757
Z-0.018
G2 X0.6395 Z-0.0305 I0.0125 K0
G1 X0.652
G17 G3 X0.6645 Y2.4882 I0 J0.0125
X0.4815 I-0.0915 J0
X0.6645 I0.0915 J0
X0.652 Y2.5007 I-0.0125 J0
G1 X0.6395
G18 G3 X0.627 Z-0.018 I0 K0.0125
G0 Z1.5
X0.6154 Y1.5396
G1 Z0.0075 F30
X0.6156 Y1.5399 Z0.0047
X0.6162 Y1.5406 Z0.0021
X0.6171 Y1.5418 Z-0.0003
X0.6183 Y1.5434 Z-0.0023
X0.6197 Y1.5453 Z-0.0038
X0.6213 Y1.5474 Z-0.0047
X0.6229 Y1.5496 Z-0.005
X0.6304 Y1.5596
G17 G3 X0.6279 Y1.5771 I-0.01 J0.0075
X0.5181 Y1.4307 I-0.0549 J-0.0732
X0.6279 Y1.5771 I0.0549 J0.0732
X0.6104 Y1.5747 I-0.0075 J-0.01
G1 X0.6029 Y1.5646
X0.6013 Y1.5624 Z-0.0047
X0.5997 Y1.5603 Z-0.0038
X0.5983 Y1.5584 Z-0.0023
X0.5971 Y1.5568 Z-0.0003
X0.5962 Y1.5556 Z0.0021
X0.5956 Y1.5549 Z0.0047
X0.5954 Y1.5546 Z0.0075
X0.6154 Y1.5396
Z0.0025
X0.6156 Y1.5399 Z-0.0003
X0.6162 Y1.5406 Z-0.0029
X0.6171 Y1.5418 Z-0.0053
X0.6183 Y1.5434 Z-0.0073
X0.6197 Y1.5453 Z-0.0088
X0.6213 Y1.5474 Z-0.0097
X0.6229 Y1.5496 Z-0.01
X0.6304 Y1.5596
G3 X0.6279 Y1.5771 I-0.01 J0.0075
X0.5181 Y1.4307 I-0.0549 J-0.0732
X0.6279 Y1.5771 I0.0549 J0.0732
X0.6104 Y1.5747 I-0.0075 J-0.01
G1 X0.6029 Y1.5646
X0.6013 Y1.5624 Z-0.0097
X0.5997 Y1.5603 Z-0.0088
X0.5983 Y1.5584 Z-0.0073
X0.5971 Y1.5568 Z-0.0053
X0.5962 Y1.5556 Z-0.0029
X0.5956 Y1.5549 Z-0.0003
X0.5954 Y1.5546 Z0.0025
X0.6154 Y1.5396
Z-0.0025
X0.6156 Y1.5399 Z-0.0053
X0.6162 Y1.5406 Z-0.0079
X0.6171 Y1.5418 Z-0.0103
X0.6183 Y1.5434 Z-0.0123
X0.6197 Y1.5453 Z-0.0138
X0.6213 Y1.5474 Z-0.0147
X0.6229 Y1.5496 Z-0.015
X0.6304 Y1.5596
G3 X0.6279 Y1.5771 I-0.01 J0.0075
X0.5181 Y1.4307 I-0.0549 J-0.0732
X0.6279 Y1.5771 I0.0549 J0.0732
X0.6104 Y1.5747 I-0.0075 J-0.01
G1 X0.6029 Y1.5646
X0.6013 Y1.5624 Z-0.0147
X0.5997 Y1.5603 Z-0.0138
X0.5983 Y1.5584 Z-0.0123
X0.5971 Y1.5568 Z-0.0103
X0.5962 Y1.5556 Z-0.0079
X0.5956 Y1.5549 Z-0.0053
X0.5954 Y1.5546 Z-0.0025
X0.6154 Y1.5396
Z-0.0075
X0.6156 Y1.5399 Z-0.0103
X0.6162 Y1.5406 Z-0.0129
X0.6171 Y1.5418 Z-0.0153
X0.6183 Y1.5434 Z-0.0173
X0.6197 Y1.5453 Z-0.0188
X0.6213 Y1.5474 Z-0.0197
X0.6229 Y1.5496 Z-0.02
X0.6304 Y1.5596
G3 X0.6279 Y1.5771 I-0.01 J0.0075
X0.5181 Y1.4307 I-0.0549 J-0.0732
X0.6279 Y1.5771 I0.0549 J0.0732
X0.6104 Y1.5747 I-0.0075 J-0.01
G1 X0.6029 Y1.5646
X0.6013 Y1.5624 Z-0.0197
X0.5997 Y1.5603 Z-0.0188
X0.5983 Y1.5584 Z-0.0173
X0.5971 Y1.5568 Z-0.0153
X0.5962 Y1.5556 Z-0.0129
X0.5956 Y1.5549 Z-0.0103
X0.5954 Y1.5546 Z-0.0075
X0.6154 Y1.5396
Z-0.0125
X0.6156 Y1.5399 Z-0.0153
X0.6162 Y1.5406 Z-0.0179
X0.6171 Y1.5418 Z-0.0203
X0.6183 Y1.5434 Z-0.0223
X0.6197 Y1.5453 Z-0.0238
X0.6213 Y1.5474 Z-0.0247
X0.6229 Y1.5496 Z-0.025
X0.6304 Y1.5596
G3 X0.6279 Y1.5771 I-0.01 J0.0075
X0.5181 Y1.4307 I-0.0549 J-0.0732
X0.6279 Y1.5771 I0.0549 J0.0732
X0.6104 Y1.5747 I-0.0075 J-0.01
G1 X0.6029 Y1.5646
X0.6013 Y1.5624 Z-0.0247
X0.5997 Y1.5603 Z-0.0238
X0.5983 Y1.5584 Z-0.0223
X0.5971 Y1.5568 Z-0.0203
X0.5962 Y1.5556 Z-0.0179
X0.5956 Y1.5549 Z-0.0153
X0.5954 Y1.5546 Z-0.0125
X0.6154 Y1.5396
Z-0.0153
X0.6156 Y1.5399 Z-0.018
X0.6162 Y1.5406 Z-0.0207
X0.6171 Y1.5418 Z-0.023
X0.6183 Y1.5434 Z-0.025
X0.6197 Y1.5453 Z-0.0265
X0.6213 Y1.5474 Z-0.0274
X0.6229 Y1.5496 Z-0.0278
X0.6304 Y1.5596
G3 X0.6279 Y1.5771 I-0.01 J0.0075
X0.5181 Y1.4307 I-0.0549 J-0.0732
X0.6279 Y1.5771 I0.0549 J0.0732
X0.6104 Y1.5747 I-0.0075 J-0.01
G1 X0.6029 Y1.5646
X0.6013 Y1.5624 Z-0.0274
X0.5997 Y1.5603 Z-0.0265
X0.5983 Y1.5584 Z-0.025
X0.5971 Y1.5568 Z-0.023
X0.5962 Y1.5556 Z-0.0207
X0.5956 Y1.5549 Z-0.018
X0.5954 Y1.5546 Z-0.0153
X0.6154 Y1.5396
Z-0.018
X0.6156 Y1.5399 Z-0.0208
X0.6162 Y1.5406 Z-0.0234
X0.6171 Y1.5418 Z-0.0258
X0.6183 Y1.5434 Z-0.0278
X0.6197 Y1.5453 Z-0.0293
X0.6213 Y1.5474 Z-0.0302
X0.6229 Y1.5496 Z-0.0305
X0.6304 Y1.5596
G3 X0.6279 Y1.5771 I-0.01 J0.0075
X0.5181 Y1.4307 I-0.0549 J-0.0732
X0.6279 Y1.5771 I0.0549 J0.0732
X0.6104 Y1.5747 I-0.0075 J-0.01
G1 X0.6029 Y1.5646
X0.6013 Y1.5624 Z-0.0302
X0.5997 Y1.5603 Z-0.0293
X0.5983 Y1.5584 Z-0.0278
X0.5971 Y1.5568 Z-0.0258
X0.5962 Y1.5556 Z-0.0234
X0.5956 Y1.5549 Z-0.0208
X0.5954 Y1.5546 Z-0.018
G0 Z1.5
X0.627 Y5.4284
G1 Z0.0075 F30
G18 G2 X0.6395 Z-0.005 I0.0125 K0
G1 X0.652
G17 G3 X0.6645 Y5.4409 I0 J0.0125
X0.4815 I-0.0915 J0
X0.6645 I0.0915 J0
X0.652 Y5.4534 I-0.0125 J0
G1 X0.6395
G18 G3 X0.627 Z0.0075 I0 K0.0125
G1 Y5.4284
Z0.0025
G2 X0.6395 Z-0.01 I0.0125 K0
G1 X0.652
G17 G3 X0.6645 Y5.4409 I0 J0.0125
X0.4815 I-0.0915 J0
X0.6645 I0.0915 J0
X0.652 Y5.4534 I-0.0125 J0
G1 X0.6395
G18 G3 X0.627 Z0.0025 I0 K0.0125
G1 Y5.4284
Z-0.0025
G2 X0.6395 Z-0.015 I0.0125 K0
G1 X0.652
G17 G3 X0.6645 Y5.4409 I0 J0.0125
X0.4815 I-0.0915 J0
X0.6645 I0.0915 J0
X0.652 Y5.4534 I-0.0125 J0
G1 X0.6395
G18 G3 X0.627 Z-0.0025 I0 K0.0125
G1 Y5.4284
Z-0.0075
G2 X0.6395 Z-0.02 I0.0125 K0
G1 X0.652
G17 G3 X0.6645 Y5.4409 I0 J0.0125
X0.4815 I-0.0915 J0
X0.6645 I0.0915 J0
X0.652 Y5.4534 I-0.0125 J0
G1 X0.6395
G18 G3 X0.627 Z-0.0075 I0 K0.0125
G1 Y5.4284
Z-0.0125
G2 X0.6395 Z-0.025 I0.0125 K0
G1 X0.652
G17 G3 X0.6645 Y5.4409 I0 J0.0125
X0.4815 I-0.0915 J0
X0.6645 I0.0915 J0
X0.652 Y5.4534 I-0.0125 J0
G1 X0.6395
G18 G3 X0.627 Z-0.0125 I0 K0.0125
G1 Y5.4284
Z-0.0153
G2 X0.6395 Z-0.0277 I0.0125 K0.0001
G1 X0.652 Z-0.0278
G17 G3 X0.6645 Y5.4409 I0 J0.0125
X0.4815 I-0.0915 J0
X0.6645 I0.0915 J0
X0.652 Y5.4534 I-0.0125 J0
G1 X0.6395
G18 G3 X0.6269 Z-0.0153 I0 K0.0126
G1 X0.627 Y5.4284
Z-0.018
G2 X0.6395 Z-0.0305 I0.0125 K0
G1 X0.652
G17 G3 X0.6645 Y5.4409 I0 J0.0125
X0.4815 I-0.0915 J0
X0.6645 I0.0915 J0
X0.652 Y5.4534 I-0.0125 J0
G1 X0.6395
G18 G3 X0.627 Z-0.018 I0 K0.0125
G0 Z1.5
Y6.4127
G1 Z0.0075 F30
G2 X0.6395 Z-0.005 I0.0125 K0
G1 X0.652
G17 G3 X0.6645 Y6.4252 I0 J0.0125
X0.4815 I-0.0915 J0
X0.6645 I0.0915 J0
X0.652 Y6.4377 I-0.0125 J0
G1 X0.6395
G18 G3 X0.627 Z0.0075 I0 K0.0125
G1 Y6.4127
Z0.0025
G2 X0.6395 Z-0.01 I0.0125 K0
G1 X0.652
G17 G3 X0.6645 Y6.4252 I0 J0.0125
X0.4815 I-0.0915 J0
X0.6645 I0.0915 J0
X0.652 Y6.4377 I-0.0125 J0
G1 X0.6395
G18 G3 X0.627 Z0.0025 I0 K0.0125
G1 Y6.4127
Z-0.0025
G2 X0.6395 Z-0.015 I0.0125 K0
G1 X0.652
G17 G3 X0.6645 Y6.4252 I0 J0.0125
X0.4815 I-0.0915 J0
X0.6645 I0.0915 J0
X0.652 Y6.4377 I-0.0125 J0
G1 X0.6395
G18 G3 X0.627 Z-0.0025 I0 K0.0125
G1 Y6.4127
Z-0.0075
G2 X0.6395 Z-0.02 I0.0125 K0
G1 X0.652
G17 G3 X0.6645 Y6.4252 I0 J0.0125
X0.4815 I-0.0915 J0
X0.6645 I0.0915 J0
X0.652 Y6.4377 I-0.0125 J0
G1 X0.6395
G18 G3 X0.627 Z-0.0075 I0 K0.0125
G1 Y6.4127
Z-0.0125
G2 X0.6395 Z-0.025 I0.0125 K0
G1 X0.652
G17 G3 X0.6645 Y6.4252 I0 J0.0125
X0.4815 I-0.0915 J0
X0.6645 I0.0915 J0
X0.652 Y6.4377 I-0.0125 J0
G1 X0.6395
G18 G3 X0.627 Z-0.0125 I0 K0.0125
G1 Y6.4127
Z-0.0153
G2 X0.6395 Z-0.0277 I0.0125 K0.0001
G1 X0.652 Z-0.0278
G17 G3 X0.6645 Y6.4252 I0 J0.0125
X0.4815 I-0.0915 J0
X0.6645 I0.0915 J0
X0.652 Y6.4377 I-0.0125 J0
G1 X0.6395
G18 G3 X0.6269 Z-0.0153 I0 K0.0126
G1 X0.627 Y6.4127
Z-0.018
G2 X0.6395 Z-0.0305 I0.0125 K0
G1 X0.652
G17 G3 X0.6645 Y6.4252 I0 J0.0125
X0.4815 I-0.0915 J0
X0.6645 I0.0915 J0
X0.652 Y6.4377 I-0.0125 J0
G1 X0.6395
G18 G3 X0.627 Z-0.018 I0 K0.0125
G0 Z1.5
X0.5954 Y7.3587
G1 Z0.0075 F30
X0.5956 Y7.3585 Z0.0047
X0.5962 Y7.3577 Z0.0021
X0.5971 Y7.3566 Z-0.0003
X0.5983 Y7.355 Z-0.0023
X0.5997 Y7.3531 Z-0.0038
X0.6013 Y7.351 Z-0.0047
X0.6029 Y7.3487 Z-0.005
X0.6104 Y7.3387
G17 G3 X0.6279 Y7.3362 I0.01 J0.0075
X0.5181 Y7.4826 I-0.0549 J0.0732
X0.6279 Y7.3362 I0.0549 J-0.0732
X0.6304 Y7.3537 I-0.0075 J0.01
G1 X0.6229 Y7.3637
X0.6213 Y7.366 Z-0.0047
X0.6197 Y7.3681 Z-0.0038
X0.6183 Y7.37 Z-0.0023
X0.6171 Y7.3716 Z-0.0003
X0.6162 Y7.3727 Z0.0021
X0.6156 Y7.3735 Z0.0047
X0.6154 Y7.3737 Z0.0075
X0.5954 Y7.3587
Z0.0025
X0.5956 Y7.3585 Z-0.0003
X0.5962 Y7.3577 Z-0.0029
X0.5971 Y7.3566 Z-0.0053
X0.5983 Y7.355 Z-0.0073
X0.5997 Y7.3531 Z-0.0088
X0.6013 Y7.351 Z-0.0097
X0.6029 Y7.3487 Z-0.01
X0.6104 Y7.3387
G3 X0.6279 Y7.3362 I0.01 J0.0075
X0.5181 Y7.4826 I-0.0549 J0.0732
X0.6279 Y7.3362 I0.0549 J-0.0732
X0.6304 Y7.3537 I-0.0075 J0.01
G1 X0.6229 Y7.3637
X0.6213 Y7.366 Z-0.0097
X0.6197 Y7.3681 Z-0.0088
X0.6183 Y7.37 Z-0.0073
X0.6171 Y7.3716 Z-0.0053
X0.6162 Y7.3727 Z-0.0029
X0.6156 Y7.3735 Z-0.0003
X0.6154 Y7.3737 Z0.0025
X0.5954 Y7.3587
Z-0.0025
X0.5956 Y7.3585 Z-0.0053
X0.5962 Y7.3577 Z-0.0079
X0.5971 Y7.3566 Z-0.0103
X0.5983 Y7.355 Z-0.0123
X0.5997 Y7.3531 Z-0.0138
X0.6013 Y7.351 Z-0.0147
X0.6029 Y7.3487 Z-0.015
X0.6104 Y7.3387
G3 X0.6279 Y7.3362 I0.01 J0.0075
X0.5181 Y7.4826 I-0.0549 J0.0732
X0.6279 Y7.3362 I0.0549 J-0.0732
X0.6304 Y7.3537 I-0.0075 J0.01
G1 X0.6229 Y7.3637
X0.6213 Y7.366 Z-0.0147
X0.6197 Y7.3681 Z-0.0138
X0.6183 Y7.37 Z-0.0123
X0.6171 Y7.3716 Z-0.0103
X0.6162 Y7.3727 Z-0.0079
X0.6156 Y7.3735 Z-0.0053
X0.6154 Y7.3737 Z-0.0025
X0.5954 Y7.3587
Z-0.0075
X0.5956 Y7.3585 Z-0.0103
X0.5962 Y7.3577 Z-0.0129
X0.5971 Y7.3566 Z-0.0153
X0.5983 Y7.355 Z-0.0173
X0.5997 Y7.3531 Z-0.0188
X0.6013 Y7.351 Z-0.0197
X0.6029 Y7.3487 Z-0.02
X0.6104 Y7.3387
G3 X0.6279 Y7.3362 I0.01 J0.0075
X0.5181 Y7.4826 I-0.0549 J0.0732
X0.6279 Y7.3362 I0.0549 J-0.0732
X0.6304 Y7.3537 I-0.0075 J0.01
G1 X0.6229 Y7.3637
X0.6213 Y7.366 Z-0.0197
X0.6197 Y7.3681 Z-0.0188
X0.6183 Y7.37 Z-0.0173
X0.6171 Y7.3716 Z-0.0153
X0.6162 Y7.3727 Z-0.0129
X0.6156 Y7.3735 Z-0.0103
X0.6154 Y7.3737 Z-0.0075
X0.5954 Y7.3587
Z-0.0125
X0.5956 Y7.3585 Z-0.0153
X0.5962 Y7.3577 Z-0.0179
X0.5971 Y7.3566 Z-0.0203
X0.5983 Y7.355 Z-0.0223
X0.5997 Y7.3531 Z-0.0238
X0.6013 Y7.351 Z-0.0247
X0.6029 Y7.3487 Z-0.025
X0.6104 Y7.3387
G3 X0.6279 Y7.3362 I0.01 J0.0075
X0.5181 Y7.4826 I-0.0549 J0.0732
X0.6279 Y7.3362 I0.0549 J-0.0732
X0.6304 Y7.3537 I-0.0075 J0.01
G1 X0.6229 Y7.3637
X0.6213 Y7.366 Z-0.0247
X0.6197 Y7.3681 Z-0.0238
X0.6183 Y7.37 Z-0.0223
X0.6171 Y7.3716 Z-0.0203
X0.6162 Y7.3727 Z-0.0179
X0.6156 Y7.3735 Z-0.0153
X0.6154 Y7.3737 Z-0.0125
X0.5954 Y7.3587
Z-0.0153
X0.5956 Y7.3585 Z-0.018
X0.5962 Y7.3577 Z-0.0207
X0.5971 Y7.3566 Z-0.023
X0.5983 Y7.355 Z-0.025
X0.5997 Y7.3531 Z-0.0265
X0.6013 Y7.351 Z-0.0274
X0.6029 Y7.3487 Z-0.0278
X0.6104 Y7.3387
G3 X0.6279 Y7.3362 I0.01 J0.0075
X0.5181 Y7.4826 I-0.0549 J0.0732
X0.6279 Y7.3362 I0.0549 J-0.0732
X0.6304 Y7.3537 I-0.0075 J0.01
G1 X0.6229 Y7.3637
X0.6213 Y7.366 Z-0.0274
X0.6197 Y7.3681 Z-0.0265
X0.6183 Y7.37 Z-0.025
X0.6171 Y7.3716 Z-0.023
X0.6162 Y7.3727 Z-0.0207
X0.6156 Y7.3735 Z-0.018
X0.6154 Y7.3737 Z-0.0153
X0.5954 Y7.3587
Z-0.018
X0.5956 Y7.3585 Z-0.0208
X0.5962 Y7.3577 Z-0.0234
X0.5971 Y7.3566 Z-0.0258
X0.5983 Y7.355 Z-0.0278
X0.5997 Y7.3531 Z-0.0293
X0.6013 Y7.351 Z-0.0302
X0.6029 Y7.3487 Z-0.0305
X0.6104 Y7.3387
G3 X0.6279 Y7.3362 I0.01 J0.0075
X0.5181 Y7.4826 I-0.0549 J0.0732
X0.6279 Y7.3362 I0.0549 J-0.0732
X0.6304 Y7.3537 I-0.0075 J0.01
G1 X0.6229 Y7.3637
X0.6213 Y7.366 Z-0.0302
X0.6197 Y7.3681 Z-0.0293
X0.6183 Y7.37 Z-0.0278
X0.6171 Y7.3716 Z-0.0258
X0.6162 Y7.3727 Z-0.0234
X0.6156 Y7.3735 Z-0.0208
X0.6154 Y7.3737 Z-0.018
G0 Z1.5
X7.1994 Y7.3587
G1 Z0.0075 F30
X7.1996 Y7.3585 Z0.0047
X7.2001 Y7.3577 Z0.0021
X7.201 Y7.3566 Z-0.0003
X7.2022 Y7.355 Z-0.0023
X7.2036 Y7.3531 Z-0.0038
X7.2052 Y7.351 Z-0.0047
X7.2069 Y7.3487 Z-0.005
X7.2144 Y7.3387
G3 X7.2319 Y7.3362 I0.01 J0.0075
X7.1221 Y7.4826 I-0.0549 J0.0732
X7.2319 Y7.3362 I0.0549 J-0.0732
X7.2344 Y7.3537 I-0.0075 J0.01
G1 X7.2269 Y7.3637
X7.2252 Y7.366 Z-0.0047
X7.2236 Y7.3681 Z-0.0038
X7.2222 Y7.37 Z-0.0023
X7.221 Y7.3716 Z-0.0003
X7.2201 Y7.3727 Z0.0021
X7.2196 Y7.3735 Z0.0047
X7.2194 Y7.3737 Z0.0075
X7.1994 Y7.3587
Z0.0025
X7.1996 Y7.3585 Z-0.0003
X7.2001 Y7.3577 Z-0.0029
X7.201 Y7.3566 Z-0.0053
X7.2022 Y7.355 Z-0.0073
X7.2036 Y7.3531 Z-0.0088
X7.2052 Y7.351 Z-0.0097
X7.2069 Y7.3487 Z-0.01
X7.2144 Y7.3387
G3 X7.2319 Y7.3362 I0.01 J0.0075
X7.1221 Y7.4826 I-0.0549 J0.0732
X7.2319 Y7.3362 I0.0549 J-0.0732
X7.2344 Y7.3537 I-0.0075 J0.01
G1 X7.2269 Y7.3637
X7.2252 Y7.366 Z-0.0097
X7.2236 Y7.3681 Z-0.0088
X7.2222 Y7.37 Z-0.0073
X7.221 Y7.3716 Z-0.0053
X7.2201 Y7.3727 Z-0.0029
X7.2196 Y7.3735 Z-0.0003
X7.2194 Y7.3737 Z0.0025
X7.1994 Y7.3587
Z-0.0025
X7.1996 Y7.3585 Z-0.0053
X7.2001 Y7.3577 Z-0.0079
X7.201 Y7.3566 Z-0.0103
X7.2022 Y7.355 Z-0.0123
X7.2036 Y7.3531 Z-0.0138
X7.2052 Y7.351 Z-0.0147
X7.2069 Y7.3487 Z-0.015
X7.2144 Y7.3387
G3 X7.2319 Y7.3362 I0.01 J0.0075
X7.1221 Y7.4826 I-0.0549 J0.0732
X7.2319 Y7.3362 I0.0549 J-0.0732
X7.2344 Y7.3537 I-0.0075 J0.01
G1 X7.2269 Y7.3637
X7.2252 Y7.366 Z-0.0147
X7.2236 Y7.3681 Z-0.0138
X7.2222 Y7.37 Z-0.0123
X7.221 Y7.3716 Z-0.0103
X7.2201 Y7.3727 Z-0.0079
X7.2196 Y7.3735 Z-0.0053
X7.2194 Y7.3737 Z-0.0025
X7.1994 Y7.3587
Z-0.0075
X7.1996 Y7.3585 Z-0.0103
X7.2001 Y7.3577 Z-0.0129
X7.201 Y7.3566 Z-0.0153
X7.2022 Y7.355 Z-0.0173
X7.2036 Y7.3531 Z-0.0188
X7.2052 Y7.351 Z-0.0197
X7.2069 Y7.3487 Z-0.02
X7.2144 Y7.3387
G3 X7.2319 Y7.3362 I0.01 J0.0075
X7.1221 Y7.4826 I-0.0549 J0.0732
X7.2319 Y7.3362 I0.0549 J-0.0732
X7.2344 Y7.3537 I-0.0075 J0.01
G1 X7.2269 Y7.3637
X7.2252 Y7.366 Z-0.0197
X7.2236 Y7.3681 Z-0.0188
X7.2222 Y7.37 Z-0.0173
X7.221 Y7.3716 Z-0.0153
X7.2201 Y7.3727 Z-0.0129
X7.2196 Y7.3735 Z-0.0103
X7.2194 Y7.3737 Z-0.0075
X7.1994 Y7.3587
Z-0.0125
X7.1996 Y7.3585 Z-0.0153
X7.2001 Y7.3577 Z-0.0179
X7.201 Y7.3566 Z-0.0203
X7.2022 Y7.355 Z-0.0223
X7.2036 Y7.3531 Z-0.0238
X7.2052 Y7.351 Z-0.0247
X7.2069 Y7.3487 Z-0.025
X7.2144 Y7.3387
G3 X7.2319 Y7.3362 I0.01 J0.0075
X7.1221 Y7.4826 I-0.0549 J0.0732
X7.2319 Y7.3362 I0.0549 J-0.0732
X7.2344 Y7.3537 I-0.0075 J0.01
G1 X7.2269 Y7.3637
X7.2252 Y7.366 Z-0.0247
X7.2236 Y7.3681 Z-0.0238
X7.2222 Y7.37 Z-0.0223
X7.221 Y7.3716 Z-0.0203
X7.2201 Y7.3727 Z-0.0179
X7.2196 Y7.3735 Z-0.0153
X7.2194 Y7.3737 Z-0.0125
X7.1994 Y7.3587
Z-0.0153
X7.1996 Y7.3585 Z-0.018
X7.2001 Y7.3577 Z-0.0207
X7.201 Y7.3566 Z-0.023
X7.2022 Y7.355 Z-0.025
X7.2036 Y7.3531 Z-0.0265
X7.2052 Y7.351 Z-0.0274
X7.2069 Y7.3487 Z-0.0278
X7.2144 Y7.3387
G3 X7.2319 Y7.3362 I0.01 J0.0075
X7.1221 Y7.4826 I-0.0549 J0.0732
X7.2319 Y7.3362 I0.0549 J-0.0732
X7.2344 Y7.3537 I-0.0075 J0.01
G1 X7.2269 Y7.3637
X7.2252 Y7.366 Z-0.0274
X7.2236 Y7.3681 Z-0.0265
X7.2222 Y7.37 Z-0.025
X7.221 Y7.3716 Z-0.023
X7.2201 Y7.3727 Z-0.0207
X7.2196 Y7.3735 Z-0.018
X7.2194 Y7.3737 Z-0.0153
X7.1994 Y7.3587
Z-0.018
X7.1996 Y7.3585 Z-0.0208
X7.2001 Y7.3577 Z-0.0234
X7.201 Y7.3566 Z-0.0258
X7.2022 Y7.355 Z-0.0278
X7.2036 Y7.3531 Z-0.0293
X7.2052 Y7.351 Z-0.0302
X7.2069 Y7.3487 Z-0.0305
X7.2144 Y7.3387
G3 X7.2319 Y7.3362 I0.01 J0.0075
X7.1221 Y7.4826 I-0.0549 J0.0732
X7.2319 Y7.3362 I0.0549 J-0.0732
X7.2344 Y7.3537 I-0.0075 J0.01
G1 X7.2269 Y7.3637
X7.2252 Y7.366 Z-0.0302
X7.2236 Y7.3681 Z-0.0293
X7.2222 Y7.37 Z-0.0278
X7.221 Y7.3716 Z-0.0258
X7.2201 Y7.3727 Z-0.0234
X7.2196 Y7.3735 Z-0.0208
X7.2194 Y7.3737 Z-0.018
G0 Z1.5
Y6.4609
G1 Z0.0075 F30
X7.2196 Y6.4612 Z0.0047
X7.2201 Y6.4619 Z0.0021
X7.221 Y6.4631 Z-0.0003
X7.2222 Y6.4647 Z-0.0023
X7.2236 Y6.4666 Z-0.0038
X7.2252 Y6.4687 Z-0.0047
X7.2269 Y6.4709 Z-0.005
X7.2344 Y6.4809
G3 X7.2319 Y6.4984 I-0.01 J0.0075
X7.1221 Y6.352 I-0.0549 J-0.0732
X7.2319 Y6.4984 I0.0549 J0.0732
X7.2144 Y6.4959 I-0.0075 J-0.01
G1 X7.2069 Y6.4859
X7.2052 Y6.4837 Z-0.0047
X7.2036 Y6.4816 Z-0.0038
X7.2022 Y6.4797 Z-0.0023
X7.201 Y6.4781 Z-0.0003
X7.2001 Y6.4769 Z0.0021
X7.1996 Y6.4762 Z0.0047
X7.1994 Y6.4759 Z0.0075
X7.2194 Y6.4609
Z0.0025
X7.2196 Y6.4612 Z-0.0003
X7.2201 Y6.4619 Z-0.0029
X7.221 Y6.4631 Z-0.0053
X7.2222 Y6.4647 Z-0.0073
X7.2236 Y6.4666 Z-0.0088
X7.2252 Y6.4687 Z-0.0097
X7.2269 Y6.4709 Z-0.01
X7.2344 Y6.4809
G3 X7.2319 Y6.4984 I-0.01 J0.0075
X7.1221 Y6.352 I-0.0549 J-0.0732
X7.2319 Y6.4984 I0.0549 J0.0732
X7.2144 Y6.4959 I-0.0075 J-0.01
G1 X7.2069 Y6.4859
X7.2052 Y6.4837 Z-0.0097
X7.2036 Y6.4816 Z-0.0088
X7.2022 Y6.4797 Z-0.0073
X7.201 Y6.4781 Z-0.0053
X7.2001 Y6.4769 Z-0.0029
X7.1996 Y6.4762 Z-0.0003
X7.1994 Y6.4759 Z0.0025
X7.2194 Y6.4609
Z-0.0025
X7.2196 Y6.4612 Z-0.0053
X7.2201 Y6.4619 Z-0.0079
X7.221 Y6.4631 Z-0.0103
X7.2222 Y6.4647 Z-0.0123
X7.2236 Y6.4666 Z-0.0138
X7.2252 Y6.4687 Z-0.0147
X7.2269 Y6.4709 Z-0.015
X7.2344 Y6.4809
G3 X7.2319 Y6.4984 I-0.01 J0.0075
X7.1221 Y6.352 I-0.0549 J-0.0732
X7.2319 Y6.4984 I0.0549 J0.0732
X7.2144 Y6.4959 I-0.0075 J-0.01
G1 X7.2069 Y6.4859
X7.2052 Y6.4837 Z-0.0147
X7.2036 Y6.4816 Z-0.0138
X7.2022 Y6.4797 Z-0.0123
X7.201 Y6.4781 Z-0.0103
X7.2001 Y6.4769 Z-0.0079
X7.1996 Y6.4762 Z-0.0053
X7.1994 Y6.4759 Z-0.0025
X7.2194 Y6.4609
Z-0.0075
X7.2196 Y6.4612 Z-0.0103
X7.2201 Y6.4619 Z-0.0129
X7.221 Y6.4631 Z-0.0153
X7.2222 Y6.4647 Z-0.0173
X7.2236 Y6.4666 Z-0.0188
X7.2252 Y6.4687 Z-0.0197
X7.2269 Y6.4709 Z-0.02
X7.2344 Y6.4809
G3 X7.2319 Y6.4984 I-0.01 J0.0075
X7.1221 Y6.352 I-0.0549 J-0.0732
X7.2319 Y6.4984 I0.0549 J0.0732
X7.2144 Y6.4959 I-0.0075 J-0.01
G1 X7.2069 Y6.4859
X7.2052 Y6.4837 Z-0.0197
X7.2036 Y6.4816 Z-0.0188
X7.2022 Y6.4797 Z-0.0173
X7.201 Y6.4781 Z-0.0153
X7.2001 Y6.4769 Z-0.0129
X7.1996 Y6.4762 Z-0.0103
X7.1994 Y6.4759 Z-0.0075
X7.2194 Y6.4609
Z-0.0125
X7.2196 Y6.4612 Z-0.0153
X7.2201 Y6.4619 Z-0.0179
X7.221 Y6.4631 Z-0.0203
X7.2222 Y6.4647 Z-0.0223
X7.2236 Y6.4666 Z-0.0238
X7.2252 Y6.4687 Z-0.0247
X7.2269 Y6.4709 Z-0.025
X7.2344 Y6.4809
G3 X7.2319 Y6.4984 I-0.01 J0.0075
X7.1221 Y6.352 I-0.0549 J-0.0732
X7.2319 Y6.4984 I0.0549 J0.0732
X7.2144 Y6.4959 I-0.0075 J-0.01
G1 X7.2069 Y6.4859
X7.2052 Y6.4837 Z-0.0247
X7.2036 Y6.4816 Z-0.0238
X7.2022 Y6.4797 Z-0.0223
X7.201 Y6.4781 Z-0.0203
X7.2001 Y6.4769 Z-0.0179
X7.1996 Y6.4762 Z-0.0153
X7.1994 Y6.4759 Z-0.0125
X7.2194 Y6.4609
Z-0.0153
X7.2196 Y6.4612 Z-0.018
X7.2201 Y6.4619 Z-0.0207
X7.221 Y6.4631 Z-0.023
X7.2222 Y6.4647 Z-0.025
X7.2236 Y6.4666 Z-0.0265
X7.2252 Y6.4687 Z-0.0274
X7.2269 Y6.4709 Z-0.0278
X7.2344 Y6.4809
G3 X7.2319 Y6.4984 I-0.01 J0.0075
X7.1221 Y6.352 I-0.0549 J-0.0732
X7.2319 Y6.4984 I0.0549 J0.0732
X7.2144 Y6.4959 I-0.0075 J-0.01
G1 X7.2069 Y6.4859
X7.2052 Y6.4837 Z-0.0274
X7.2036 Y6.4816 Z-0.0265
X7.2022 Y6.4797 Z-0.025
X7.201 Y6.4781 Z-0.023
X7.2001 Y6.4769 Z-0.0207
X7.1996 Y6.4762 Z-0.018
X7.1994 Y6.4759 Z-0.0153
X7.2194 Y6.4609
Z-0.018
X7.2196 Y6.4612 Z-0.0208
X7.2201 Y6.4619 Z-0.0234
X7.221 Y6.4631 Z-0.0258
X7.2222 Y6.4647 Z-0.0278
X7.2236 Y6.4666 Z-0.0293
X7.2252 Y6.4687 Z-0.0302
X7.2269 Y6.4709 Z-0.0305
X7.2344 Y6.4809
G3 X7.2319 Y6.4984 I-0.01 J0.0075
X7.1221 Y6.352 I-0.0549 J-0.0732
X7.2319 Y6.4984 I0.0549 J0.0732
X7.2144 Y6.4959 I-0.0075 J-0.01
G1 X7.2069 Y6.4859
X7.2052 Y6.4837 Z-0.0302
X7.2036 Y6.4816 Z-0.0293
X7.2022 Y6.4797 Z-0.0278
X7.201 Y6.4781 Z-0.0258
X7.2001 Y6.4769 Z-0.0234
X7.1996 Y6.4762 Z-0.0208
X7.1994 Y6.4759 Z-0.018
G0 Z1.5
Y5.3902
G1 Z0.0075 F30
X7.1996 Y5.39 Z0.0047
X7.2001 Y5.3892 Z0.0021
X7.201 Y5.3881 Z-0.0003
X7.2022 Y5.3865 Z-0.0023
X7.2036 Y5.3846 Z-0.0038
X7.2052 Y5.3825 Z-0.0047
X7.2069 Y5.3802 Z-0.005
X7.2144 Y5.3702
G3 X7.2319 Y5.3677 I0.01 J0.0075
X7.1221 Y5.5141 I-0.0549 J0.0732
X7.2319 Y5.3677 I0.0549 J-0.0732
X7.2344 Y5.3852 I-0.0075 J0.01
G1 X7.2269 Y5.3952
X7.2252 Y5.3975 Z-0.0047
X7.2236 Y5.3996 Z-0.0038
X7.2222 Y5.4015 Z-0.0023
X7.221 Y5.4031 Z-0.0003
X7.2201 Y5.4042 Z0.0021
X7.2196 Y5.405 Z0.0047
X7.2194 Y5.4052 Z0.0075
X7.1994 Y5.3902
Z0.0025
X7.1996 Y5.39 Z-0.0003
X7.2001 Y5.3892 Z-0.0029
X7.201 Y5.3881 Z-0.0053
X7.2022 Y5.3865 Z-0.0073
X7.2036 Y5.3846 Z-0.0088
X7.2052 Y5.3825 Z-0.0097
X7.2069 Y5.3802 Z-0.01
X7.2144 Y5.3702
G3 X7.2319 Y5.3677 I0.01 J0.0075
X7.1221 Y5.5141 I-0.0549 J0.0732
X7.2319 Y5.3677 I0.0549 J-0.0732
X7.2344 Y5.3852 I-0.0075 J0.01
G1 X7.2269 Y5.3952
X7.2252 Y5.3975 Z-0.0097
X7.2236 Y5.3996 Z-0.0088
X7.2222 Y5.4015 Z-0.0073
X7.221 Y5.4031 Z-0.0053
X7.2201 Y5.4042 Z-0.0029
X7.2196 Y5.405 Z-0.0003
X7.2194 Y5.4052 Z0.0025
X7.1994 Y5.3902
Z-0.0025
X7.1996 Y5.39 Z-0.0053
X7.2001 Y5.3892 Z-0.0079
X7.201 Y5.3881 Z-0.0103
X7.2022 Y5.3865 Z-0.0123
X7.2036 Y5.3846 Z-0.0138
X7.2052 Y5.3825 Z-0.0147
X7.2069 Y5.3802 Z-0.015
X7.2144 Y5.3702
G3 X7.2319 Y5.3677 I0.01 J0.0075
X7.1221 Y5.5141 I-0.0549 J0.0732
X7.2319 Y5.3677 I0.0549 J-0.0732
X7.2344 Y5.3852 I-0.0075 J0.01
G1 X7.2269 Y5.3952
X7.2252 Y5.3975 Z-0.0147
X7.2236 Y5.3996 Z-0.0138
X7.2222 Y5.4015 Z-0.0123
X7.221 Y5.4031 Z-0.0103
X7.2201 Y5.4042 Z-0.0079
X7.2196 Y5.405 Z-0.0053
X7.2194 Y5.4052 Z-0.0025
X7.1994 Y5.3902
Z-0.0075
X7.1996 Y5.39 Z-0.0103
X7.2001 Y5.3892 Z-0.0129
X7.201 Y5.3881 Z-0.0153
X7.2022 Y5.3865 Z-0.0173
X7.2036 Y5.3846 Z-0.0188
X7.2052 Y5.3825 Z-0.0197
X7.2069 Y5.3802 Z-0.02
X7.2144 Y5.3702
G3 X7.2319 Y5.3677 I0.01 J0.0075
X7.1221 Y5.5141 I-0.0549 J0.0732
X7.2319 Y5.3677 I0.0549 J-0.0732
X7.2344 Y5.3852 I-0.0075 J0.01
G1 X7.2269 Y5.3952
X7.2252 Y5.3975 Z-0.0197
X7.2236 Y5.3996 Z-0.0188
X7.2222 Y5.4015 Z-0.0173
X7.221 Y5.4031 Z-0.0153
X7.2201 Y5.4042 Z-0.0129
X7.2196 Y5.405 Z-0.0103
X7.2194 Y5.4052 Z-0.0075
X7.1994 Y5.3902
Z-0.0125
X7.1996 Y5.39 Z-0.0153
X7.2001 Y5.3892 Z-0.0179
X7.201 Y5.3881 Z-0.0203
X7.2022 Y5.3865 Z-0.0223
X7.2036 Y5.3846 Z-0.0238
X7.2052 Y5.3825 Z-0.0247
X7.2069 Y5.3802 Z-0.025
X7.2144 Y5.3702
G3 X7.2319 Y5.3677 I0.01 J0.0075
X7.1221 Y5.5141 I-0.0549 J0.0732
X7.2319 Y5.3677 I0.0549 J-0.0732
X7.2344 Y5.3852 I-0.0075 J0.01
G1 X7.2269 Y5.3952
X7.2252 Y5.3975 Z-0.0247
X7.2236 Y5.3996 Z-0.0238
X7.2222 Y5.4015 Z-0.0223
X7.221 Y5.4031 Z-0.0203
X7.2201 Y5.4042 Z-0.0179
X7.2196 Y5.405 Z-0.0153
X7.2194 Y5.4052 Z-0.0125
X7.1994 Y5.3902
Z-0.0153
X7.1996 Y5.39 Z-0.018
X7.2001 Y5.3892 Z-0.0207
X7.201 Y5.3881 Z-0.023
X7.2022 Y5.3865 Z-0.025
X7.2036 Y5.3846 Z-0.0265
X7.2052 Y5.3825 Z-0.0274
X7.2069 Y5.3802 Z-0.0278
X7.2144 Y5.3702
G3 X7.2319 Y5.3677 I0.01 J0.0075
X7.1221 Y5.5141 I-0.0549 J0.0732
X7.2319 Y5.3677 I0.0549 J-0.0732
X7.2344 Y5.3852 I-0.0075 J0.01
G1 X7.2269 Y5.3952
X7.2252 Y5.3975 Z-0.0274
X7.2236 Y5.3996 Z-0.0265
X7.2222 Y5.4015 Z-0.025
X7.221 Y5.4031 Z-0.023
X7.2201 Y5.4042 Z-0.0207
X7.2196 Y5.405 Z-0.018
X7.2194 Y5.4052 Z-0.0153
X7.1994 Y5.3902
Z-0.018
X7.1996 Y5.39 Z-0.0208
X7.2001 Y5.3892 Z-0.0234
X7.201 Y5.3881 Z-0.0258
X7.2022 Y5.3865 Z-0.0278
X7.2036 Y5.3846 Z-0.0293
X7.2052 Y5.3825 Z-0.0302
X7.2069 Y5.3802 Z-0.0305
X7.2144 Y5.3702
G3 X7.2319 Y5.3677 I0.01 J0.0075
X7.1221 Y5.5141 I-0.0549 J0.0732
X7.2319 Y5.3677 I0.0549 J-0.0732
X7.2344 Y5.3852 I-0.0075 J0.01
G1 X7.2269 Y5.3952
X7.2252 Y5.3975 Z-0.0302
X7.2236 Y5.3996 Z-0.0293
X7.2222 Y5.4015 Z-0.0278
X7.221 Y5.4031 Z-0.0258
X7.2201 Y5.4042 Z-0.0234
X7.2196 Y5.405 Z-0.0208
X7.2194 Y5.4052 Z-0.018
G0 Z1.5
X7.1994 Y4.406
G1 Z0.0075 F30
X7.1996 Y4.4057 Z0.0047
X7.2001 Y4.405 Z0.0021
X7.201 Y4.4038 Z-0.0003
X7.2022 Y4.4022 Z-0.0023
X7.2036 Y4.4003 Z-0.0038
X7.2052 Y4.3982 Z-0.0047
X7.2069 Y4.396 Z-0.005
X7.2144 Y4.386
G3 X7.2319 Y4.3835 I0.01 J0.0075
X7.1221 Y4.5299 I-0.0549 J0.0732
X7.2319 Y4.3835 I0.0549 J-0.0732
X7.2344 Y4.401 I-0.0075 J0.01
G1 X7.2269 Y4.411
X7.2252 Y4.4132 Z-0.0047
X7.2236 Y4.4153 Z-0.0038
X7.2222 Y4.4172 Z-0.0023
X7.221 Y4.4188 Z-0.0003
X7.2201 Y4.42 Z0.0021
X7.2196 Y4.4207 Z0.0047
X7.2194 Y4.421 Z0.0075
X7.1994 Y4.406
Z0.0025
X7.1996 Y4.4057 Z-0.0003
X7.2001 Y4.405 Z-0.0029
X7.201 Y4.4038 Z-0.0053
X7.2022 Y4.4022 Z-0.0073
X7.2036 Y4.4003 Z-0.0088
X7.2052 Y4.3982 Z-0.0097
X7.2069 Y4.396 Z-0.01
X7.2144 Y4.386
G3 X7.2319 Y4.3835 I0.01 J0.0075
X7.1221 Y4.5299 I-0.0549 J0.0732
X7.2319 Y4.3835 I0.0549 J-0.0732
X7.2344 Y4.401 I-0.0075 J0.01
G1 X7.2269 Y4.411
X7.2252 Y4.4132 Z-0.0097
X7.2236 Y4.4153 Z-0.0088
X7.2222 Y4.4172 Z-0.0073
X7.221 Y4.4188 Z-0.0053
X7.2201 Y4.42 Z-0.0029
X7.2196 Y4.4207 Z-0.0003
X7.2194 Y4.421 Z0.0025
X7.1994 Y4.406
Z-0.0025
X7.1996 Y4.4057 Z-0.0053
X7.2001 Y4.405 Z-0.0079
X7.201 Y4.4038 Z-0.0103
X7.2022 Y4.4022 Z-0.0123
X7.2036 Y4.4003 Z-0.0138
X7.2052 Y4.3982 Z-0.0147
X7.2069 Y4.396 Z-0.015
X7.2144 Y4.386
G3 X7.2319 Y4.3835 I0.01 J0.0075
X7.1221 Y4.5299 I-0.0549 J0.0732
X7.2319 Y4.3835 I0.0549 J-0.0732
X7.2344 Y4.401 I-0.0075 J0.01
G1 X7.2269 Y4.411
X7.2252 Y4.4132 Z-0.0147
X7.2236 Y4.4153 Z-0.0138
X7.2222 Y4.4172 Z-0.0123
X7.221 Y4.4188 Z-0.0103
X7.2201 Y4.42 Z-0.0079
X7.2196 Y4.4207 Z-0.0053
X7.2194 Y4.421 Z-0.0025
X7.1994 Y4.406
Z-0.0075
X7.1996 Y4.4057 Z-0.0103
X7.2001 Y4.405 Z-0.0129
X7.201 Y4.4038 Z-0.0153
X7.2022 Y4.4022 Z-0.0173
X7.2036 Y4.4003 Z-0.0188
X7.2052 Y4.3982 Z-0.0197
X7.2069 Y4.396 Z-0.02
X7.2144 Y4.386
G3 X7.2319 Y4.3835 I0.01 J0.0075
X7.1221 Y4.5299 I-0.0549 J0.0732
X7.2319 Y4.3835 I0.0549 J-0.0732
X7.2344 Y4.401 I-0.0075 J0.01
G1 X7.2269 Y4.411
X7.2252 Y4.4132 Z-0.0197
X7.2236 Y4.4153 Z-0.0188
X7.2222 Y4.4172 Z-0.0173
X7.221 Y4.4188 Z-0.0153
X7.2201 Y4.42 Z-0.0129
X7.2196 Y4.4207 Z-0.0103
X7.2194 Y4.421 Z-0.0075
X7.1994 Y4.406
Z-0.0125
X7.1996 Y4.4057 Z-0.0153
X7.2001 Y4.405 Z-0.0179
X7.201 Y4.4038 Z-0.0203
X7.2022 Y4.4022 Z-0.0223
X7.2036 Y4.4003 Z-0.0238
X7.2052 Y4.3982 Z-0.0247
X7.2069 Y4.396 Z-0.025
X7.2144 Y4.386
G3 X7.2319 Y4.3835 I0.01 J0.0075
X7.1221 Y4.5299 I-0.0549 J0.0732
X7.2319 Y4.3835 I0.0549 J-0.0732
X7.2344 Y4.401 I-0.0075 J0.01
G1 X7.2269 Y4.411
X7.2252 Y4.4132 Z-0.0247
X7.2236 Y4.4153 Z-0.0238
X7.2222 Y4.4172 Z-0.0223
X7.221 Y4.4188 Z-0.0203
X7.2201 Y4.42 Z-0.0179
X7.2196 Y4.4207 Z-0.0153
X7.2194 Y4.421 Z-0.0125
X7.1994 Y4.406
Z-0.0153
X7.1996 Y4.4057 Z-0.018
X7.2001 Y4.405 Z-0.0207
X7.201 Y4.4038 Z-0.023
X7.2022 Y4.4022 Z-0.025
X7.2036 Y4.4003 Z-0.0265
X7.2052 Y4.3982 Z-0.0274
X7.2069 Y4.396 Z-0.0278
X7.2144 Y4.386
G3 X7.2319 Y4.3835 I0.01 J0.0075
X7.1221 Y4.5299 I-0.0549 J0.0732
X7.2319 Y4.3835 I0.0549 J-0.0732
X7.2344 Y4.401 I-0.0075 J0.01
G1 X7.2269 Y4.411
X7.2252 Y4.4132 Z-0.0274
X7.2236 Y4.4153 Z-0.0265
X7.2222 Y4.4172 Z-0.025
X7.221 Y4.4188 Z-0.023
X7.2201 Y4.42 Z-0.0207
X7.2196 Y4.4207 Z-0.018
X7.2194 Y4.421 Z-0.0153
X7.1994 Y4.406
Z-0.018
X7.1996 Y4.4057 Z-0.0208
X7.2001 Y4.405 Z-0.0234
X7.201 Y4.4038 Z-0.0258
X7.2022 Y4.4022 Z-0.0278
X7.2036 Y4.4003 Z-0.0293
X7.2052 Y4.3982 Z-0.0302
X7.2069 Y4.396 Z-0.0305
X7.2144 Y4.386
G3 X7.2319 Y4.3835 I0.01 J0.0075
X7.1221 Y4.5299 I-0.0549 J0.0732
X7.2319 Y4.3835 I0.0549 J-0.0732
X7.2344 Y4.401 I-0.0075 J0.01
G1 X7.2269 Y4.411
X7.2252 Y4.4132 Z-0.0302
X7.2236 Y4.4153 Z-0.0293
X7.2222 Y4.4172 Z-0.0278
X7.221 Y4.4188 Z-0.0258
X7.2201 Y4.42 Z-0.0234
X7.2196 Y4.4207 Z-0.0208
X7.2194 Y4.421 Z-0.018
G0 Z1.5
X7.1994 Y3.4217
G1 Z0.0075 F30
X7.1996 Y3.4215 Z0.0047
X7.2001 Y3.4207 Z0.0021
X7.201 Y3.4195 Z-0.0003
X7.2022 Y3.418 Z-0.0023
X7.2036 Y3.4161 Z-0.0038
X7.2052 Y3.414 Z-0.0047
X7.2069 Y3.4117 Z-0.005
X7.2144 Y3.4017
G3 X7.2319 Y3.3992 I0.01 J0.0075
X7.1221 Y3.5456 I-0.0549 J0.0732
X7.2319 Y3.3992 I0.0549 J-0.0732
X7.2344 Y3.4167 I-0.0075 J0.01
G1 X7.2269 Y3.4267
X7.2252 Y3.429 Z-0.0047
X7.2236 Y3.4311 Z-0.0038
X7.2222 Y3.433 Z-0.0023
X7.221 Y3.4345 Z-0.0003
X7.2201 Y3.4357 Z0.0021
X7.2196 Y3.4365 Z0.0047
X7.2194 Y3.4367 Z0.0075
X7.1994 Y3.4217
Z0.0025
X7.1996 Y3.4215 Z-0.0003
X7.2001 Y3.4207 Z-0.0029
X7.201 Y3.4195 Z-0.0053
X7.2022 Y3.418 Z-0.0073
X7.2036 Y3.4161 Z-0.0088
X7.2052 Y3.414 Z-0.0097
X7.2069 Y3.4117 Z-0.01
X7.2144 Y3.4017
G3 X7.2319 Y3.3992 I0.01 J0.0075
X7.1221 Y3.5456 I-0.0549 J0.0732
X7.2319 Y3.3992 I0.0549 J-0.0732
X7.2344 Y3.4167 I-0.0075 J0.01
G1 X7.2269 Y3.4267
X7.2252 Y3.429 Z-0.0097
X7.2236 Y3.4311 Z-0.0088
X7.2222 Y3.433 Z-0.0073
X7.221 Y3.4345 Z-0.0053
X7.2201 Y3.4357 Z-0.0029
X7.2196 Y3.4365 Z-0.0003
X7.2194 Y3.4367 Z0.0025
X7.1994 Y3.4217
Z-0.0025
X7.1996 Y3.4215 Z-0.0053
X7.2001 Y3.4207 Z-0.0079
X7.201 Y3.4195 Z-0.0103
X7.2022 Y3.418 Z-0.0123
X7.2036 Y3.4161 Z-0.0138
X7.2052 Y3.414 Z-0.0147
X7.2069 Y3.4117 Z-0.015
X7.2144 Y3.4017
G3 X7.2319 Y3.3992 I0.01 J0.0075
X7.1221 Y3.5456 I-0.0549 J0.0732
X7.2319 Y3.3992 I0.0549 J-0.0732
X7.2344 Y3.4167 I-0.0075 J0.01
G1 X7.2269 Y3.4267
X7.2252 Y3.429 Z-0.0147
X7.2236 Y3.4311 Z-0.0138
X7.2222 Y3.433 Z-0.0123
X7.221 Y3.4345 Z-0.0103
X7.2201 Y3.4357 Z-0.0079
X7.2196 Y3.4365 Z-0.0053
X7.2194 Y3.4367 Z-0.0025
X7.1994 Y3.4217
Z-0.0075
X7.1996 Y3.4215 Z-0.0103
X7.2001 Y3.4207 Z-0.0129
X7.201 Y3.4195 Z-0.0153
X7.2022 Y3.418 Z-0.0173
X7.2036 Y3.4161 Z-0.0188
X7.2052 Y3.414 Z-0.0197
X7.2069 Y3.4117 Z-0.02
X7.2144 Y3.4017
G3 X7.2319 Y3.3992 I0.01 J0.0075
X7.1221 Y3.5456 I-0.0549 J0.0732
X7.2319 Y3.3992 I0.0549 J-0.0732
X7.2344 Y3.4167 I-0.0075 J0.01
G1 X7.2269 Y3.4267
X7.2252 Y3.429 Z-0.0197
X7.2236 Y3.4311 Z-0.0188
X7.2222 Y3.433 Z-0.0173
X7.221 Y3.4345 Z-0.0153
X7.2201 Y3.4357 Z-0.0129
X7.2196 Y3.4365 Z-0.0103
X7.2194 Y3.4367 Z-0.0075
X7.1994 Y3.4217
Z-0.0125
X7.1996 Y3.4215 Z-0.0153
X7.2001 Y3.4207 Z-0.0179
X7.201 Y3.4195 Z-0.0203
X7.2022 Y3.418 Z-0.0223
X7.2036 Y3.4161 Z-0.0238
X7.2052 Y3.414 Z-0.0247
X7.2069 Y3.4117 Z-0.025
X7.2144 Y3.4017
G3 X7.2319 Y3.3992 I0.01 J0.0075
X7.1221 Y3.5456 I-0.0549 J0.0732
X7.2319 Y3.3992 I0.0549 J-0.0732
X7.2344 Y3.4167 I-0.0075 J0.01
G1 X7.2269 Y3.4267
X7.2252 Y3.429 Z-0.0247
X7.2236 Y3.4311 Z-0.0238
X7.2222 Y3.433 Z-0.0223
X7.221 Y3.4345 Z-0.0203
X7.2201 Y3.4357 Z-0.0179
X7.2196 Y3.4365 Z-0.0153
X7.2194 Y3.4367 Z-0.0125
X7.1994 Y3.4217
Z-0.0153
X7.1996 Y3.4215 Z-0.018
X7.2001 Y3.4207 Z-0.0207
X7.201 Y3.4195 Z-0.023
X7.2022 Y3.418 Z-0.025
X7.2036 Y3.4161 Z-0.0265
X7.2052 Y3.414 Z-0.0274
X7.2069 Y3.4117 Z-0.0278
X7.2144 Y3.4017
G3 X7.2319 Y3.3992 I0.01 J0.0075
X7.1221 Y3.5456 I-0.0549 J0.0732
X7.2319 Y3.3992 I0.0549 J-0.0732
X7.2344 Y3.4167 I-0.0075 J0.01
G1 X7.2269 Y3.4267
X7.2252 Y3.429 Z-0.0274
X7.2236 Y3.4311 Z-0.0265
X7.2222 Y3.433 Z-0.025
X7.221 Y3.4345 Z-0.023
X7.2201 Y3.4357 Z-0.0207
X7.2196 Y3.4365 Z-0.018
X7.2194 Y3.4367 Z-0.0153
X7.1994 Y3.4217
Z-0.018
X7.1996 Y3.4215 Z-0.0208
X7.2001 Y3.4207 Z-0.0234
X7.201 Y3.4195 Z-0.0258
X7.2022 Y3.418 Z-0.0278
X7.2036 Y3.4161 Z-0.0293
X7.2052 Y3.414 Z-0.0302
X7.2069 Y3.4117 Z-0.0305
X7.2144 Y3.4017
G3 X7.2319 Y3.3992 I0.01 J0.0075
X7.1221 Y3.5456 I-0.0549 J0.0732
X7.2319 Y3.3992 I0.0549 J-0.0732
X7.2344 Y3.4167 I-0.0075 J0.01
G1 X7.2269 Y3.4267
X7.2252 Y3.429 Z-0.0302
X7.2236 Y3.4311 Z-0.0293
X7.2222 Y3.433 Z-0.0278
X7.221 Y3.4345 Z-0.0258
X7.2201 Y3.4357 Z-0.0234
X7.2196 Y3.4365 Z-0.0208
X7.2194 Y3.4367 Z-0.018
G0 Z1.5
X7.1994 Y2.4375
G1 Z0.0075 F30
X7.1996 Y2.4372 Z0.0047
X7.2001 Y2.4365 Z0.0021
X7.201 Y2.4353 Z-0.0003
X7.2022 Y2.4337 Z-0.0023
X7.2036 Y2.4318 Z-0.0038
X7.2052 Y2.4297 Z-0.0047
X7.2069 Y2.4275 Z-0.005
X7.2144 Y2.4175
G3 X7.2319 Y2.415 I0.01 J0.0075
X7.1221 Y2.5614 I-0.0549 J0.0732
X7.2319 Y2.415 I0.0549 J-0.0732
X7.2344 Y2.4325 I-0.0075 J0.01
G1 X7.2269 Y2.4425
X7.2252 Y2.4447 Z-0.0047
X7.2236 Y2.4468 Z-0.0038
X7.2222 Y2.4487 Z-0.0023
X7.221 Y2.4503 Z-0.0003
X7.2201 Y2.4515 Z0.0021
X7.2196 Y2.4522 Z0.0047
X7.2194 Y2.4525 Z0.0075
X7.1994 Y2.4375
Z0.0025
X7.1996 Y2.4372 Z-0.0003
X7.2001 Y2.4365 Z-0.0029
X7.201 Y2.4353 Z-0.0053
X7.2022 Y2.4337 Z-0.0073
X7.2036 Y2.4318 Z-0.0088
X7.2052 Y2.4297 Z-0.0097
X7.2069 Y2.4275 Z-0.01
X7.2144 Y2.4175
G3 X7.2319 Y2.415 I0.01 J0.0075
X7.1221 Y2.5614 I-0.0549 J0.0732
X7.2319 Y2.415 I0.0549 J-0.0732
X7.2344 Y2.4325 I-0.0075 J0.01
G1 X7.2269 Y2.4425
X7.2252 Y2.4447 Z-0.0097
X7.2236 Y2.4468 Z-0.0088
X7.2222 Y2.4487 Z-0.0073
X7.221 Y2.4503 Z-0.0053
X7.2201 Y2.4515 Z-0.0029
X7.2196 Y2.4522 Z-0.0003
X7.2194 Y2.4525 Z0.0025
X7.1994 Y2.4375
Z-0.0025
X7.1996 Y2.4372 Z-0.0053
X7.2001 Y2.4365 Z-0.0079
X7.201 Y2.4353 Z-0.0103
X7.2022 Y2.4337 Z-0.0123
X7.2036 Y2.4318 Z-0.0138
X7.2052 Y2.4297 Z-0.0147
X7.2069 Y2.4275 Z-0.015
X7.2144 Y2.4175
G3 X7.2319 Y2.415 I0.01 J0.0075
X7.1221 Y2.5614 I-0.0549 J0.0732
X7.2319 Y2.415 I0.0549 J-0.0732
X7.2344 Y2.4325 I-0.0075 J0.01
G1 X7.2269 Y2.4425
X7.2252 Y2.4447 Z-0.0147
X7.2236 Y2.4468 Z-0.0138
X7.2222 Y2.4487 Z-0.0123
X7.221 Y2.4503 Z-0.0103
X7.2201 Y2.4515 Z-0.0079
X7.2196 Y2.4522 Z-0.0053
X7.2194 Y2.4525 Z-0.0025
X7.1994 Y2.4375
Z-0.0075
X7.1996 Y2.4372 Z-0.0103
X7.2001 Y2.4365 Z-0.0129
X7.201 Y2.4353 Z-0.0153
X7.2022 Y2.4337 Z-0.0173
X7.2036 Y2.4318 Z-0.0188
X7.2052 Y2.4297 Z-0.0197
X7.2069 Y2.4275 Z-0.02
X7.2144 Y2.4175
G3 X7.2319 Y2.415 I0.01 J0.0075
X7.1221 Y2.5614 I-0.0549 J0.0732
X7.2319 Y2.415 I0.0549 J-0.0732
X7.2344 Y2.4325 I-0.0075 J0.01
G1 X7.2269 Y2.4425
X7.2252 Y2.4447 Z-0.0197
X7.2236 Y2.4468 Z-0.0188
X7.2222 Y2.4487 Z-0.0173
X7.221 Y2.4503 Z-0.0153
X7.2201 Y2.4515 Z-0.0129
X7.2196 Y2.4522 Z-0.0103
X7.2194 Y2.4525 Z-0.0075
X7.1994 Y2.4375
Z-0.0125
X7.1996 Y2.4372 Z-0.0153
X7.2001 Y2.4365 Z-0.0179
X7.201 Y2.4353 Z-0.0203
X7.2022 Y2.4337 Z-0.0223
X7.2036 Y2.4318 Z-0.0238
X7.2052 Y2.4297 Z-0.0247
X7.2069 Y2.4275 Z-0.025
X7.2144 Y2.4175
G3 X7.2319 Y2.415 I0.01 J0.0075
X7.1221 Y2.5614 I-0.0549 J0.0732
X7.2319 Y2.415 I0.0549 J-0.0732
X7.2344 Y2.4325 I-0.0075 J0.01
G1 X7.2269 Y2.4425
X7.2252 Y2.4447 Z-0.0247
X7.2236 Y2.4468 Z-0.0238
X7.2222 Y2.4487 Z-0.0223
X7.221 Y2.4503 Z-0.0203
X7.2201 Y2.4515 Z-0.0179
X7.2196 Y2.4522 Z-0.0153
X7.2194 Y2.4525 Z-0.0125
X7.1994 Y2.4375
Z-0.0153
X7.1996 Y2.4372 Z-0.018
X7.2001 Y2.4365 Z-0.0207
X7.201 Y2.4353 Z-0.023
X7.2022 Y2.4337 Z-0.025
X7.2036 Y2.4318 Z-0.0265
X7.2052 Y2.4297 Z-0.0274
X7.2069 Y2.4275 Z-0.0278
X7.2144 Y2.4175
G3 X7.2319 Y2.415 I0.01 J0.0075
X7.1221 Y2.5614 I-0.0549 J0.0732
X7.2319 Y2.415 I0.0549 J-0.0732
X7.2344 Y2.4325 I-0.0075 J0.01
G1 X7.2269 Y2.4425
X7.2252 Y2.4447 Z-0.0274
X7.2236 Y2.4468 Z-0.0265
X7.2222 Y2.4487 Z-0.025
X7.221 Y2.4503 Z-0.023
X7.2201 Y2.4515 Z-0.0207
X7.2196 Y2.4522 Z-0.018
X7.2194 Y2.4525 Z-0.0153
X7.1994 Y2.4375
Z-0.018
X7.1996 Y2.4372 Z-0.0208
X7.2001 Y2.4365 Z-0.0234
X7.201 Y2.4353 Z-0.0258
X7.2022 Y2.4337 Z-0.0278
X7.2036 Y2.4318 Z-0.0293
X7.2052 Y2.4297 Z-0.0302
X7.2069 Y2.4275 Z-0.0305
X7.2144 Y2.4175
G3 X7.2319 Y2.415 I0.01 J0.0075
X7.1221 Y2.5614 I-0.0549 J0.0732
X7.2319 Y2.415 I0.0549 J-0.0732
X7.2344 Y2.4325 I-0.0075 J0.01
G1 X7.2269 Y2.4425
X7.2252 Y2.4447 Z-0.0302
X7.2236 Y2.4468 Z-0.0293
X7.2222 Y2.4487 Z-0.0278
X7.221 Y2.4503 Z-0.0258
X7.2201 Y2.4515 Z-0.0234
X7.2196 Y2.4522 Z-0.0208
X7.2194 Y2.4525 Z-0.018
G0 Z1.5
X7.2134 Y1.5457
G1 Z0.0075 F30
X7.2136 Y1.546 Z0.0047
X7.214 Y1.5468 Z0.0021
X7.2147 Y1.5481 Z-0.0003
X7.2156 Y1.5499 Z-0.0023
X7.2168 Y1.5519 Z-0.0038
X7.218 Y1.5543 Z-0.0047
X7.2193 Y1.5567 Z-0.005
X7.2252 Y1.5678
G3 X7.22 Y1.5846 I-0.011 J0.0058
X7.1339 Y1.4233 I-0.043 J-0.0807
X7.22 Y1.5846 I0.0431 J0.0806
X7.2032 Y1.5795 I-0.0058 J-0.011
G1 X7.1973 Y1.5685
X7.1959 Y1.566 Z-0.0047
X7.1947 Y1.5637 Z-0.0038
X7.1936 Y1.5616 Z-0.0023
X7.1927 Y1.5599 Z-0.0003
X7.192 Y1.5586 Z0.0021
X7.1915 Y1.5578 Z0.0047
X7.1914 Y1.5575 Z0.0075
X7.2134 Y1.5457
Z0.0025
X7.2136 Y1.546 Z-0.0003
X7.214 Y1.5468 Z-0.0029
X7.2147 Y1.5481 Z-0.0053
X7.2156 Y1.5499 Z-0.0073
X7.2168 Y1.5519 Z-0.0088
X7.218 Y1.5543 Z-0.0097
X7.2193 Y1.5567 Z-0.01
X7.2252 Y1.5678
G3 X7.22 Y1.5846 I-0.011 J0.0058
X7.1339 Y1.4233 I-0.043 J-0.0807
X7.22 Y1.5846 I0.0431 J0.0806
X7.2032 Y1.5795 I-0.0058 J-0.011
G1 X7.1973 Y1.5685
X7.1959 Y1.566 Z-0.0097
X7.1947 Y1.5637 Z-0.0088
X7.1936 Y1.5616 Z-0.0073
X7.1927 Y1.5599 Z-0.0053
X7.192 Y1.5586 Z-0.0029
X7.1915 Y1.5578 Z-0.0003
X7.1914 Y1.5575 Z0.0025
X7.2134 Y1.5457
Z-0.0025
X7.2136 Y1.546 Z-0.0053
X7.214 Y1.5468 Z-0.0079
X7.2147 Y1.5481 Z-0.0103
X7.2156 Y1.5499 Z-0.0123
X7.2168 Y1.5519 Z-0.0138
X7.218 Y1.5543 Z-0.0147
X7.2193 Y1.5567 Z-0.015
X7.2252 Y1.5678
G3 X7.22 Y1.5846 I-0.011 J0.0058
X7.1339 Y1.4233 I-0.043 J-0.0807
X7.22 Y1.5846 I0.0431 J0.0806
X7.2032 Y1.5795 I-0.0058 J-0.011
G1 X7.1973 Y1.5685
X7.1959 Y1.566 Z-0.0147
X7.1947 Y1.5637 Z-0.0138
X7.1936 Y1.5616 Z-0.0123
X7.1927 Y1.5599 Z-0.0103
X7.192 Y1.5586 Z-0.0079
X7.1915 Y1.5578 Z-0.0053
X7.1914 Y1.5575 Z-0.0025
X7.2134 Y1.5457
Z-0.0075
X7.2136 Y1.546 Z-0.0103
X7.214 Y1.5468 Z-0.0129
X7.2147 Y1.5481 Z-0.0153
X7.2156 Y1.5499 Z-0.0173
X7.2168 Y1.5519 Z-0.0188
X7.218 Y1.5543 Z-0.0197
X7.2193 Y1.5567 Z-0.02
X7.2252 Y1.5678
G3 X7.22 Y1.5846 I-0.011 J0.0058
X7.1339 Y1.4233 I-0.043 J-0.0807
X7.22 Y1.5846 I0.0431 J0.0806
X7.2032 Y1.5795 I-0.0058 J-0.011
G1 X7.1973 Y1.5685
X7.1959 Y1.566 Z-0.0197
X7.1947 Y1.5637 Z-0.0188
X7.1936 Y1.5616 Z-0.0173
X7.1927 Y1.5599 Z-0.0153
X7.192 Y1.5586 Z-0.0129
X7.1915 Y1.5578 Z-0.0103
X7.1914 Y1.5575 Z-0.0075
X7.2134 Y1.5457
Z-0.0125
X7.2136 Y1.546 Z-0.0153
X7.214 Y1.5468 Z-0.0179
X7.2147 Y1.5481 Z-0.0203
X7.2156 Y1.5499 Z-0.0223
X7.2168 Y1.5519 Z-0.0238
X7.218 Y1.5543 Z-0.0247
X7.2193 Y1.5567 Z-0.025
X7.2252 Y1.5678
G3 X7.22 Y1.5846 I-0.011 J0.0058
X7.1339 Y1.4233 I-0.043 J-0.0807
X7.22 Y1.5846 I0.0431 J0.0806
X7.2032 Y1.5795 I-0.0058 J-0.011
G1 X7.1973 Y1.5685
X7.1959 Y1.566 Z-0.0247
X7.1947 Y1.5637 Z-0.0238
X7.1936 Y1.5616 Z-0.0223
X7.1927 Y1.5599 Z-0.0203
X7.192 Y1.5586 Z-0.0179
X7.1915 Y1.5578 Z-0.0153
X7.1914 Y1.5575 Z-0.0125
X7.2134 Y1.5457
Z-0.0153
X7.2136 Y1.546 Z-0.018
X7.214 Y1.5468 Z-0.0207
X7.2147 Y1.5481 Z-0.023
X7.2156 Y1.5499 Z-0.025
X7.2168 Y1.5519 Z-0.0265
X7.218 Y1.5543 Z-0.0274
X7.2193 Y1.5567 Z-0.0278
X7.2252 Y1.5678
G3 X7.22 Y1.5846 I-0.011 J0.0058
X7.1339 Y1.4233 I-0.043 J-0.0807
X7.22 Y1.5846 I0.0431 J0.0806
X7.2032 Y1.5795 I-0.0058 J-0.011
G1 X7.1973 Y1.5685
X7.1959 Y1.566 Z-0.0274
X7.1947 Y1.5637 Z-0.0265
X7.1936 Y1.5616 Z-0.025
X7.1927 Y1.5599 Z-0.023
X7.192 Y1.5586 Z-0.0207
X7.1915 Y1.5578 Z-0.018
X7.1914 Y1.5575 Z-0.0153
X7.2134 Y1.5457
Z-0.018
X7.2136 Y1.546 Z-0.0208
X7.214 Y1.5468 Z-0.0234
X7.2147 Y1.5481 Z-0.0258
X7.2156 Y1.5499 Z-0.0278
X7.2168 Y1.5519 Z-0.0293
X7.218 Y1.5543 Z-0.0302
X7.2193 Y1.5567 Z-0.0305
X7.2252 Y1.5678
G3 X7.22 Y1.5846 I-0.011 J0.0058
X7.1339 Y1.4233 I-0.043 J-0.0807
X7.22 Y1.5846 I0.0431 J0.0806
X7.2032 Y1.5795 I-0.0058 J-0.011
G1 X7.1973 Y1.5685
X7.1959 Y1.566 Z-0.0302
X7.1947 Y1.5637 Z-0.0293
X7.1936 Y1.5616 Z-0.0278
X7.1927 Y1.5599 Z-0.0258
X7.192 Y1.5586 Z-0.0234
X7.1915 Y1.5578 Z-0.0208
X7.1914 Y1.5575 Z-0.018
G0 Z1.5
G28 G91 Z0
G90
G28 G91 X0 Y0
G90
M30
%
