%
(Faceplate_Holes_FinalCorner)
(T2  D=0.125 CR=0 - ZMIN=-0.0305 - flat end mill)
G90
G17
G20
G28 G91 Z0
G90

(2D Contour1)
T2 M6
S10000 M3
G54
M7
G0 X2.6055 Y4.4836
Z1.5
G1 Z0.0075 F30
G18 G2 X2.618 Z-0.005 I0.0125 K0
G1 X2.6305
G17 G3 X2.643 Y4.4961 I0 J0.0125
G1 Y5.5
G3 X2.2562 I-0.1934 J0
G1 Y4.4961
G3 X2.643 I0.1934 J0
X2.6305 Y4.5086 I-0.0125 J0
G1 X2.618
G18 G3 X2.6055 Z0.0075 I0 K0.0125
G1 Y4.4836
Z0.0025
G2 X2.618 Z-0.01 I0.0125 K0
G1 X2.6305
G17 G3 X2.643 Y4.4961 I0 J0.0125
G1 Y5.5
G3 X2.2562 I-0.1934 J0
G1 Y4.4961
G3 X2.643 I0.1934 J0
X2.6305 Y4.5086 I-0.0125 J0
G1 X2.618
G18 G3 X2.6055 Z0.0025 I0 K0.0125
G1 Y4.4836
Z-0.0025
G2 X2.618 Z-0.015 I0.0125 K0
G1 X2.6305
G17 G3 X2.643 Y4.4961 I0 J0.0125
G1 Y5.5
G3 X2.2562 I-0.1934 J0
G1 Y4.4961
G3 X2.643 I0.1934 J0
X2.6305 Y4.5086 I-0.0125 J0
G1 X2.618
G18 G3 X2.6055 Z-0.0025 I0 K0.0125
G1 Y4.4836
Z-0.0075
G2 X2.618 Z-0.02 I0.0125 K0
G1 X2.6305
G17 G3 X2.643 Y4.4961 I0 J0.0125
G1 Y5.5
G3 X2.2562 I-0.1934 J0
G1 Y4.4961
G3 X2.643 I0.1934 J0
X2.6305 Y4.5086 I-0.0125 J0
G1 X2.618
G18 G3 X2.6055 Z-0.0075 I0 K0.0125
G1 Y4.4836
Z-0.0125
G2 X2.618 Z-0.025 I0.0125 K0
G1 X2.6305
G17 G3 X2.643 Y4.4961 I0 J0.0125
G1 Y5.5
G3 X2.2562 I-0.1934 J0
G1 Y4.4961
G3 X2.643 I0.1934 J0
X2.6305 Y4.5086 I-0.0125 J0
G1 X2.618
G18 G3 X2.6055 Z-0.0125 I0 K0.0125
G1 Y4.4836
Z-0.0153
G2 X2.618 Z-0.0277 I0.0125 K0.0001
G1 X2.6305 Z-0.0278
G17 G3 X2.643 Y4.4961 I0 J0.0125
G1 Y5.5
G3 X2.2562 I-0.1934 J0
G1 Y4.4961
G3 X2.643 I0.1934 J0
X2.6305 Y4.5086 I-0.0125 J0
G1 X2.618
G18 G3 X2.6054 Z-0.0153 I0 K0.0126
G1 X2.6055 Y4.4836
Z-0.018
G2 X2.618 Z-0.0305 I0.0125 K0
G1 X2.6305
G17 G3 X2.643 Y4.4961 I0 J0.0125
G1 Y5.5
G3 X2.2562 I-0.1934 J0
G1 Y4.4961
G3 X2.643 I0.1934 J0
X2.6305 Y4.5086 I-0.0125 J0
G1 X2.618
G18 G3 X2.6055 Z-0.018 I0 K0.0125
G0 Z1.5
X0.6154 Y4.4924
G1 Z0.0075 F30
X0.6156 Y4.4927 Z0.0047
X0.6162 Y4.4934 Z0.0021
X0.6171 Y4.4946 Z-0.0003
X0.6183 Y4.4962 Z-0.0023
X0.6197 Y4.4981 Z-0.0038
X0.6213 Y4.5002 Z-0.0047
X0.6229 Y4.5024 Z-0.005
X0.6304 Y4.5124
G17 G3 X0.6279 Y4.5299 I-0.01 J0.0075
X0.5181 Y4.3835 I-0.0549 J-0.0732
X0.6279 Y4.5299 I0.0549 J0.0732
X0.6104 Y4.5274 I-0.0075 J-0.01
G1 X0.6029 Y4.5174
X0.6013 Y4.5152 Z-0.0047
X0.5997 Y4.5131 Z-0.0038
X0.5983 Y4.5112 Z-0.0023
X0.5971 Y4.5096 Z-0.0003
X0.5962 Y4.5084 Z0.0021
X0.5956 Y4.5077 Z0.0047
X0.5954 Y4.5074 Z0.0075
X0.6154 Y4.4924
Z0.0025
X0.6156 Y4.4927 Z-0.0003
X0.6162 Y4.4934 Z-0.0029
X0.6171 Y4.4946 Z-0.0053
X0.6183 Y4.4962 Z-0.0073
X0.6197 Y4.4981 Z-0.0088
X0.6213 Y4.5002 Z-0.0097
X0.6229 Y4.5024 Z-0.01
X0.6304 Y4.5124
G3 X0.6279 Y4.5299 I-0.01 J0.0075
X0.5181 Y4.3835 I-0.0549 J-0.0732
X0.6279 Y4.5299 I0.0549 J0.0732
X0.6104 Y4.5274 I-0.0075 J-0.01
G1 X0.6029 Y4.5174
X0.6013 Y4.5152 Z-0.0097
X0.5997 Y4.5131 Z-0.0088
X0.5983 Y4.5112 Z-0.0073
X0.5971 Y4.5096 Z-0.0053
X0.5962 Y4.5084 Z-0.0029
X0.5956 Y4.5077 Z-0.0003
X0.5954 Y4.5074 Z0.0025
X0.6154 Y4.4924
Z-0.0025
X0.6156 Y4.4927 Z-0.0053
X0.6162 Y4.4934 Z-0.0079
X0.6171 Y4.4946 Z-0.0103
X0.6183 Y4.4962 Z-0.0123
X0.6197 Y4.4981 Z-0.0138
X0.6213 Y4.5002 Z-0.0147
X0.6229 Y4.5024 Z-0.015
X0.6304 Y4.5124
G3 X0.6279 Y4.5299 I-0.01 J0.0075
X0.5181 Y4.3835 I-0.0549 J-0.0732
X0.6279 Y4.5299 I0.0549 J0.0732
X0.6104 Y4.5274 I-0.0075 J-0.01
G1 X0.6029 Y4.5174
X0.6013 Y4.5152 Z-0.0147
X0.5997 Y4.5131 Z-0.0138
X0.5983 Y4.5112 Z-0.0123
X0.5971 Y4.5096 Z-0.0103
X0.5962 Y4.5084 Z-0.0079
X0.5956 Y4.5077 Z-0.0053
X0.5954 Y4.5074 Z-0.0025
X0.6154 Y4.4924
Z-0.0075
X0.6156 Y4.4927 Z-0.0103
X0.6162 Y4.4934 Z-0.0129
X0.6171 Y4.4946 Z-0.0153
X0.6183 Y4.4962 Z-0.0173
X0.6197 Y4.4981 Z-0.0188
X0.6213 Y4.5002 Z-0.0197
X0.6229 Y4.5024 Z-0.02
X0.6304 Y4.5124
G3 X0.6279 Y4.5299 I-0.01 J0.0075
X0.5181 Y4.3835 I-0.0549 J-0.0732
X0.6279 Y4.5299 I0.0549 J0.0732
X0.6104 Y4.5274 I-0.0075 J-0.01
G1 X0.6029 Y4.5174
X0.6013 Y4.5152 Z-0.0197
X0.5997 Y4.5131 Z-0.0188
X0.5983 Y4.5112 Z-0.0173
X0.5971 Y4.5096 Z-0.0153
X0.5962 Y4.5084 Z-0.0129
X0.5956 Y4.5077 Z-0.0103
X0.5954 Y4.5074 Z-0.0075
X0.6154 Y4.4924
Z-0.0125
X0.6156 Y4.4927 Z-0.0153
X0.6162 Y4.4934 Z-0.0179
X0.6171 Y4.4946 Z-0.0203
X0.6183 Y4.4962 Z-0.0223
X0.6197 Y4.4981 Z-0.0238
X0.6213 Y4.5002 Z-0.0247
X0.6229 Y4.5024 Z-0.025
X0.6304 Y4.5124
G3 X0.6279 Y4.5299 I-0.01 J0.0075
X0.5181 Y4.3835 I-0.0549 J-0.0732
X0.6279 Y4.5299 I0.0549 J0.0732
X0.6104 Y4.5274 I-0.0075 J-0.01
G1 X0.6029 Y4.5174
X0.6013 Y4.5152 Z-0.0247
X0.5997 Y4.5131 Z-0.0238
X0.5983 Y4.5112 Z-0.0223
X0.5971 Y4.5096 Z-0.0203
X0.5962 Y4.5084 Z-0.0179
X0.5956 Y4.5077 Z-0.0153
X0.5954 Y4.5074 Z-0.0125
X0.6154 Y4.4924
Z-0.0153
X0.6156 Y4.4927 Z-0.018
X0.6162 Y4.4934 Z-0.0207
X0.6171 Y4.4946 Z-0.023
X0.6183 Y4.4962 Z-0.025
X0.6197 Y4.4981 Z-0.0265
X0.6213 Y4.5002 Z-0.0274
X0.6229 Y4.5024 Z-0.0278
X0.6304 Y4.5124
G3 X0.6279 Y4.5299 I-0.01 J0.0075
X0.5181 Y4.3835 I-0.0549 J-0.0732
X0.6279 Y4.5299 I0.0549 J0.0732
X0.6104 Y4.5274 I-0.0075 J-0.01
G1 X0.6029 Y4.5174
X0.6013 Y4.5152 Z-0.0274
X0.5997 Y4.5131 Z-0.0265
X0.5983 Y4.5112 Z-0.025
X0.5971 Y4.5096 Z-0.023
X0.5962 Y4.5084 Z-0.0207
X0.5956 Y4.5077 Z-0.018
X0.5954 Y4.5074 Z-0.0153
X0.6154 Y4.4924
Z-0.018
X0.6156 Y4.4927 Z-0.0208
X0.6162 Y4.4934 Z-0.0234
X0.6171 Y4.4946 Z-0.0258
X0.6183 Y4.4962 Z-0.0278
X0.6197 Y4.4981 Z-0.0293
X0.6213 Y4.5002 Z-0.0302
X0.6229 Y4.5024 Z-0.0305
X0.6304 Y4.5124
G3 X0.6279 Y4.5299 I-0.01 J0.0075
X0.5181 Y4.3835 I-0.0549 J-0.0732
X0.6279 Y4.5299 I0.0549 J0.0732
X0.6104 Y4.5274 I-0.0075 J-0.01
G1 X0.6029 Y4.5174
X0.6013 Y4.5152 Z-0.0302
X0.5997 Y4.5131 Z-0.0293
X0.5983 Y4.5112 Z-0.0278
X0.5971 Y4.5096 Z-0.0258
X0.5962 Y4.5084 Z-0.0234
X0.5956 Y4.5077 Z-0.0208
X0.5954 Y4.5074 Z-0.018
G0 Z1.5
X-0.1 Y3.9875
G1 Z0.0075 F30
G18 G2 X-0.0875 Z-0.005 I0.0125 K0
G1 X-0.075
G17 G3 X-0.0625 Y4 I0 J0.0125
G1 Y8
G2 X0 Y8.0625 I0.0625 J0
G1 X7.75
G2 X7.8125 Y8 I0 J-0.0625
G1 Y0
G2 X7.75 Y-0.0625 I-0.0625 J0
G1 X0
G2 X-0.0625 Y0 I0 J0.0625
G1 Y4
G3 X-0.075 Y4.0125 I-0.0125 J0
G1 X-0.0875
G18 G3 X-0.1 Z0.0075 I0 K0.0125
G1 Y3.9875
Z0.0025
G2 X-0.0875 Z-0.01 I0.0125 K0
G1 X-0.075
G17 G3 X-0.0625 Y4 I0 J0.0125
G1 Y8
G2 X0 Y8.0625 I0.0625 J0
G1 X7.75
G2 X7.8125 Y8 I0 J-0.0625
G1 Y0
G2 X7.75 Y-0.0625 I-0.0625 J0
G1 X0
G2 X-0.0625 Y0 I0 J0.0625
G1 Y4
G3 X-0.075 Y4.0125 I-0.0125 J0
G1 X-0.0875
G18 G3 X-0.1 Z0.0025 I0 K0.0125
G1 Y3.9875
Z-0.0025
G2 X-0.0875 Z-0.015 I0.0125 K0
G1 X-0.075
G17 G3 X-0.0625 Y4 I0 J0.0125
G1 Y8
G2 X0 Y8.0625 I0.0625 J0
G1 X7.75
G2 X7.8125 Y8 I0 J-0.0625
G1 Y0
G2 X7.75 Y-0.0625 I-0.0625 J0
G1 X0
G2 X-0.0625 Y0 I0 J0.0625
G1 Y4
G3 X-0.075 Y4.0125 I-0.0125 J0
G1 X-0.0875
G18 G3 X-0.1 Z-0.0025 I0 K0.0125
G1 Y3.9875
Z-0.0075
G2 X-0.0875 Z-0.02 I0.0125 K0
G1 X-0.075
G17 G3 X-0.0625 Y4 I0 J0.0125
G1 Y8
G2 X0 Y8.0625 I0.0625 J0
G1 X7.75
G2 X7.8125 Y8 I0 J-0.0625
G1 Y0
G2 X7.75 Y-0.0625 I-0.0625 J0
G1 X0
G2 X-0.0625 Y0 I0 J0.0625
G1 Y4
G3 X-0.075 Y4.0125 I-0.0125 J0
G1 X-0.0875
G18 G3 X-0.1 Z-0.0075 I0 K0.0125
G1 Y3.9875
Z-0.0125
G2 X-0.0875 Z-0.025 I0.0125 K0
G1 X-0.075
G17 G3 X-0.0625 Y4 I0 J0.0125
G1 Y8
G2 X0 Y8.0625 I0.0625 J0
G1 X7.75
G2 X7.8125 Y8 I0 J-0.0625
G1 Y0
G2 X7.75 Y-0.0625 I-0.0625 J0
G1 X0
G2 X-0.0625 Y0 I0 J0.0625
G1 Y4
G3 X-0.075 Y4.0125 I-0.0125 J0
G1 X-0.0875
G18 G3 X-0.1 Z-0.0125 I0 K0.0125
G1 Y3.9875
Z-0.0153
G2 X-0.0875 Z-0.0277 I0.0125 K0.0001
G1 X-0.075 Z-0.0278
G17 G3 X-0.0625 Y4 I0 J0.0125
G1 Y8
G2 X0 Y8.0625 I0.0625 J0
G1 X7.75
G2 X7.8125 Y8 I0 J-0.0625
G1 Y0
G2 X7.75 Y-0.0625 I-0.0625 J0
G1 X0
G2 X-0.0625 Y0 I0 J0.0625
G1 Y4
G3 X-0.075 Y4.0125 I-0.0125 J0
G1 X-0.0875
G18 G3 X-0.1001 Z-0.0153 I0 K0.0126
G1 X-0.1 Y3.9875
Z-0.018
G2 X-0.0875 Z-0.0305 I0.0125 K0
G1 X-0.075
G17 G3 X-0.0625 Y4 I0 J0.0125
G1 Y8
G2 X0 Y8.0625 I0.0625 J0
G1 X7.75
G2 X7.8125 Y8 I0 J-0.0625
G1 Y0
G2 X7.75 Y-0.0625 I-0.0625 J0
G1 X0
G2 X-0.0625 Y0 I0 J0.0625
G1 Y4
G3 X-0.075 Y4.0125 I-0.0125 J0
G1 X-0.0875
G18 G3 X-0.1 Z-0.018 I0 K0.0125
G0 Z1.5
X0.6154 Y3.5082
G1 Z0.0075 F30
X0.6156 Y3.5084 Z0.0047
X0.6162 Y3.5091 Z0.0021
X0.6171 Y3.5103 Z-0.0003
X0.6183 Y3.5119 Z-0.0023
X0.6197 Y3.5138 Z-0.0038
X0.6213 Y3.5159 Z-0.0047
X0.6229 Y3.5182 Z-0.005
X0.6304 Y3.5282
G17 G3 X0.6279 Y3.5457 I-0.01 J0.0075
X0.5181 Y3.3991 I-0.0549 J-0.0733
X0.6279 Y3.5457 I0.0549 J0.0733
X0.6104 Y3.5432 I-0.0075 J-0.01
G1 X0.6029 Y3.5332
X0.6013 Y3.5309 Z-0.0047
X0.5997 Y3.5288 Z-0.0038
X0.5983 Y3.5269 Z-0.0023
X0.5971 Y3.5253 Z-0.0003
X0.5962 Y3.5241 Z0.0021
X0.5956 Y3.5234 Z0.0047
X0.5954 Y3.5232 Z0.0075
X0.6154 Y3.5082
Z0.0025
X0.6156 Y3.5084 Z-0.0003
X0.6162 Y3.5091 Z-0.0029
X0.6171 Y3.5103 Z-0.0053
X0.6183 Y3.5119 Z-0.0073
X0.6197 Y3.5138 Z-0.0088
X0.6213 Y3.5159 Z-0.0097
X0.6229 Y3.5182 Z-0.01
X0.6304 Y3.5282
G3 X0.6279 Y3.5457 I-0.01 J0.0075
X0.5181 Y3.3991 I-0.0549 J-0.0733
X0.6279 Y3.5457 I0.0549 J0.0733
X0.6104 Y3.5432 I-0.0075 J-0.01
G1 X0.6029 Y3.5332
X0.6013 Y3.5309 Z-0.0097
X0.5997 Y3.5288 Z-0.0088
X0.5983 Y3.5269 Z-0.0073
X0.5971 Y3.5253 Z-0.0053
X0.5962 Y3.5241 Z-0.0029
X0.5956 Y3.5234 Z-0.0003
X0.5954 Y3.5232 Z0.0025
X0.6154 Y3.5082
Z-0.0025
X0.6156 Y3.5084 Z-0.0053
X0.6162 Y3.5091 Z-0.0079
X0.6171 Y3.5103 Z-0.0103
X0.6183 Y3.5119 Z-0.0123
X0.6197 Y3.5138 Z-0.0138
X0.6213 Y3.5159 Z-0.0147
X0.6229 Y3.5182 Z-0.015
X0.6304 Y3.5282
G3 X0.6279 Y3.5457 I-0.01 J0.0075
X0.5181 Y3.3991 I-0.0549 J-0.0733
X0.6279 Y3.5457 I0.0549 J0.0733
X0.6104 Y3.5432 I-0.0075 J-0.01
G1 X0.6029 Y3.5332
X0.6013 Y3.5309 Z-0.0147
X0.5997 Y3.5288 Z-0.0138
X0.5983 Y3.5269 Z-0.0123
X0.5971 Y3.5253 Z-0.0103
X0.5962 Y3.5241 Z-0.0079
X0.5956 Y3.5234 Z-0.0053
X0.5954 Y3.5232 Z-0.0025
X0.6154 Y3.5082
Z-0.0075
X0.6156 Y3.5084 Z-0.0103
X0.6162 Y3.5091 Z-0.0129
X0.6171 Y3.5103 Z-0.0153
X0.6183 Y3.5119 Z-0.0173
X0.6197 Y3.5138 Z-0.0188
X0.6213 Y3.5159 Z-0.0197
X0.6229 Y3.5182 Z-0.02
X0.6304 Y3.5282
G3 X0.6279 Y3.5457 I-0.01 J0.0075
X0.5181 Y3.3991 I-0.0549 J-0.0733
X0.6279 Y3.5457 I0.0549 J0.0733
X0.6104 Y3.5432 I-0.0075 J-0.01
G1 X0.6029 Y3.5332
X0.6013 Y3.5309 Z-0.0197
X0.5997 Y3.5288 Z-0.0188
X0.5983 Y3.5269 Z-0.0173
X0.5971 Y3.5253 Z-0.0153
X0.5962 Y3.5241 Z-0.0129
X0.5956 Y3.5234 Z-0.0103
X0.5954 Y3.5232 Z-0.0075
X0.6154 Y3.5082
Z-0.0125
X0.6156 Y3.5084 Z-0.0153
X0.6162 Y3.5091 Z-0.0179
X0.6171 Y3.5103 Z-0.0203
X0.6183 Y3.5119 Z-0.0223
X0.6197 Y3.5138 Z-0.0238
X0.6213 Y3.5159 Z-0.0247
X0.6229 Y3.5182 Z-0.025
X0.6304 Y3.5282
G3 X0.6279 Y3.5457 I-0.01 J0.0075
X0.5181 Y3.3991 I-0.0549 J-0.0733
X0.6279 Y3.5457 I0.0549 J0.0733
X0.6104 Y3.5432 I-0.0075 J-0.01
G1 X0.6029 Y3.5332
X0.6013 Y3.5309 Z-0.0247
X0.5997 Y3.5288 Z-0.0238
X0.5983 Y3.5269 Z-0.0223
X0.5971 Y3.5253 Z-0.0203
X0.5962 Y3.5241 Z-0.0179
X0.5956 Y3.5234 Z-0.0153
X0.5954 Y3.5232 Z-0.0125
X0.6154 Y3.5082
Z-0.0153
X0.6156 Y3.5084 Z-0.018
X0.6162 Y3.5091 Z-0.0207
X0.6171 Y3.5103 Z-0.023
X0.6183 Y3.5119 Z-0.025
X0.6197 Y3.5138 Z-0.0265
X0.6213 Y3.5159 Z-0.0274
X0.6229 Y3.5182 Z-0.0278
X0.6304 Y3.5282
G3 X0.6279 Y3.5457 I-0.01 J0.0075
X0.5181 Y3.3991 I-0.0549 J-0.0733
X0.6279 Y3.5457 I0.0549 J0.0733
X0.6104 Y3.5432 I-0.0075 J-0.01
G1 X0.6029 Y3.5332
X0.6013 Y3.5309 Z-0.0274
X0.5997 Y3.5288 Z-0.0265
X0.5983 Y3.5269 Z-0.025
X0.5971 Y3.5253 Z-0.023
X0.5962 Y3.5241 Z-0.0207
X0.5956 Y3.5234 Z-0.018
X0.5954 Y3.5232 Z-0.0153
X0.6154 Y3.5082
Z-0.018
X0.6156 Y3.5084 Z-0.0208
X0.6162 Y3.5091 Z-0.0234
X0.6171 Y3.5103 Z-0.0258
X0.6183 Y3.5119 Z-0.0278
X0.6197 Y3.5138 Z-0.0293
X0.6213 Y3.5159 Z-0.0302
X0.6229 Y3.5182 Z-0.0305
X0.6304 Y3.5282
G3 X0.6279 Y3.5457 I-0.01 J0.0075
X0.5181 Y3.3991 I-0.0549 J-0.0733
X0.6279 Y3.5457 I0.0549 J0.0733
X0.6104 Y3.5432 I-0.0075 J-0.01
G1 X0.6029 Y3.5332
X0.6013 Y3.5309 Z-0.0302
X0.5997 Y3.5288 Z-0.0293
X0.5983 Y3.5269 Z-0.0278
X0.5971 Y3.5253 Z-0.0258
X0.5962 Y3.5241 Z-0.0234
X0.5956 Y3.5234 Z-0.0208
X0.5954 Y3.5232 Z-0.018
G0 Z1.5
Y2.4375
G1 Z0.0075 F30
X0.5956 Y2.4372 Z0.0047
X0.5962 Y2.4365 Z0.0021
X0.5971 Y2.4353 Z-0.0003
X0.5983 Y2.4337 Z-0.0023
X0.5997 Y2.4318 Z-0.0038
X0.6013 Y2.4297 Z-0.0047
X0.6029 Y2.4275 Z-0.005
X0.6104 Y2.4175
G3 X0.6279 Y2.415 I0.01 J0.0075
X0.5181 Y2.5614 I-0.0549 J0.0732
X0.6279 Y2.415 I0.0549 J-0.0732
X0.6304 Y2.4325 I-0.0075 J0.01
G1 X0.6229 Y2.4425
X0.6213 Y2.4447 Z-0.0047
X0.6197 Y2.4468 Z-0.0038
X0.6183 Y2.4487 Z-0.0023
X0.6171 Y2.4503 Z-0.0003
X0.6162 Y2.4515 Z0.0021
X0.6156 Y2.4522 Z0.0047
X0.6154 Y2.4525 Z0.0075
X0.5954 Y2.4375
Z0.0025
X0.5956 Y2.4372 Z-0.0003
X0.5962 Y2.4365 Z-0.0029
X0.5971 Y2.4353 Z-0.0053
X0.5983 Y2.4337 Z-0.0073
X0.5997 Y2.4318 Z-0.0088
X0.6013 Y2.4297 Z-0.0097
X0.6029 Y2.4275 Z-0.01
X0.6104 Y2.4175
G3 X0.6279 Y2.415 I0.01 J0.0075
X0.5181 Y2.5614 I-0.0549 J0.0732
X0.6279 Y2.415 I0.0549 J-0.0732
X0.6304 Y2.4325 I-0.0075 J0.01
G1 X0.6229 Y2.4425
X0.6213 Y2.4447 Z-0.0097
X0.6197 Y2.4468 Z-0.0088
X0.6183 Y2.4487 Z-0.0073
X0.6171 Y2.4503 Z-0.0053
X0.6162 Y2.4515 Z-0.0029
X0.6156 Y2.4522 Z-0.0003
X0.6154 Y2.4525 Z0.0025
X0.5954 Y2.4375
Z-0.0025
X0.5956 Y2.4372 Z-0.0053
X0.5962 Y2.4365 Z-0.0079
X0.5971 Y2.4353 Z-0.0103
X0.5983 Y2.4337 Z-0.0123
X0.5997 Y2.4318 Z-0.0138
X0.6013 Y2.4297 Z-0.0147
X0.6029 Y2.4275 Z-0.015
X0.6104 Y2.4175
G3 X0.6279 Y2.415 I0.01 J0.0075
X0.5181 Y2.5614 I-0.0549 J0.0732
X0.6279 Y2.415 I0.0549 J-0.0732
X0.6304 Y2.4325 I-0.0075 J0.01
G1 X0.6229 Y2.4425
X0.6213 Y2.4447 Z-0.0147
X0.6197 Y2.4468 Z-0.0138
X0.6183 Y2.4487 Z-0.0123
X0.6171 Y2.4503 Z-0.0103
X0.6162 Y2.4515 Z-0.0079
X0.6156 Y2.4522 Z-0.0053
X0.6154 Y2.4525 Z-0.0025
X0.5954 Y2.4375
Z-0.0075
X0.5956 Y2.4372 Z-0.0103
X0.5962 Y2.4365 Z-0.0129
X0.5971 Y2.4353 Z-0.0153
X0.5983 Y2.4337 Z-0.0173
X0.5997 Y2.4318 Z-0.0188
X0.6013 Y2.4297 Z-0.0197
X0.6029 Y2.4275 Z-0.02
X0.6104 Y2.4175
G3 X0.6279 Y2.415 I0.01 J0.0075
X0.5181 Y2.5614 I-0.0549 J0.0732
X0.6279 Y2.415 I0.0549 J-0.0732
X0.6304 Y2.4325 I-0.0075 J0.01
G1 X0.6229 Y2.4425
X0.6213 Y2.4447 Z-0.0197
X0.6197 Y2.4468 Z-0.0188
X0.6183 Y2.4487 Z-0.0173
X0.6171 Y2.4503 Z-0.0153
X0.6162 Y2.4515 Z-0.0129
X0.6156 Y2.4522 Z-0.0103
X0.6154 Y2.4525 Z-0.0075
X0.5954 Y2.4375
Z-0.0125
X0.5956 Y2.4372 Z-0.0153
X0.5962 Y2.4365 Z-0.0179
X0.5971 Y2.4353 Z-0.0203
X0.5983 Y2.4337 Z-0.0223
X0.5997 Y2.4318 Z-0.0238
X0.6013 Y2.4297 Z-0.0247
X0.6029 Y2.4275 Z-0.025
X0.6104 Y2.4175
G3 X0.6279 Y2.415 I0.01 J0.0075
X0.5181 Y2.5614 I-0.0549 J0.0732
X0.6279 Y2.415 I0.0549 J-0.0732
X0.6304 Y2.4325 I-0.0075 J0.01
G1 X0.6229 Y2.4425
X0.6213 Y2.4447 Z-0.0247
X0.6197 Y2.4468 Z-0.0238
X0.6183 Y2.4487 Z-0.0223
X0.6171 Y2.4503 Z-0.0203
X0.6162 Y2.4515 Z-0.0179
X0.6156 Y2.4522 Z-0.0153
X0.6154 Y2.4525 Z-0.0125
X0.5954 Y2.4375
Z-0.0153
X0.5956 Y2.4372 Z-0.018
X0.5962 Y2.4365 Z-0.0207
X0.5971 Y2.4353 Z-0.023
X0.5983 Y2.4337 Z-0.025
X0.5997 Y2.4318 Z-0.0265
X0.6013 Y2.4297 Z-0.0274
X0.6029 Y2.4275 Z-0.0278
X0.6104 Y2.4175
G3 X0.6279 Y2.415 I0.01 J0.0075
X0.5181 Y2.5614 I-0.0549 J0.0732
X0.6279 Y2.415 I0.0549 J-0.0732
X0.6304 Y2.4325 I-0.0075 J0.01
G1 X0.6229 Y2.4425
X0.6213 Y2.4447 Z-0.0274
X0.6197 Y2.4468 Z-0.0265
X0.6183 Y2.4487 Z-0.025
X0.6171 Y2.4503 Z-0.023
X0.6162 Y2.4515 Z-0.0207
X0.6156 Y2.4522 Z-0.018
X0.6154 Y2.4525 Z-0.0153
X0.5954 Y2.4375
Z-0.018
X0.5956 Y2.4372 Z-0.0208
X0.5962 Y2.4365 Z-0.0234
X0.5971 Y2.4353 Z-0.0258
X0.5983 Y2.4337 Z-0.0278
X0.5997 Y2.4318 Z-0.0293
X0.6013 Y2.4297 Z-0.0302
X0.6029 Y2.4275 Z-0.0305
X0.6104 Y2.4175
G3 X0.6279 Y2.415 I0.01 J0.0075
X0.5181 Y2.5614 I-0.0549 J0.0732
X0.6279 Y2.415 I0.0549 J-0.0732
X0.6304 Y2.4325 I-0.0075 J0.01
G1 X0.6229 Y2.4425
X0.6213 Y2.4447 Z-0.0302
X0.6197 Y2.4468 Z-0.0293
X0.6183 Y2.4487 Z-0.0278
X0.6171 Y2.4503 Z-0.0258
X0.6162 Y2.4515 Z-0.0234
X0.6156 Y2.4522 Z-0.0208
X0.6154 Y2.4525 Z-0.018
G0 Z1.5
X0.5954 Y1.4532
G1 Z0.0075 F30
X0.5956 Y1.453 Z0.0047
X0.5962 Y1.4522 Z0.0021
X0.5971 Y1.451 Z-0.0003
X0.5983 Y1.4495 Z-0.0023
X0.5997 Y1.4476 Z-0.0038
X0.6013 Y1.4454 Z-0.0047
X0.6029 Y1.4432 Z-0.005
X0.6104 Y1.4332
G3 X0.6279 Y1.4307 I0.01 J0.0075
X0.5181 Y1.5771 I-0.0549 J0.0732
X0.6279 Y1.4307 I0.0549 J-0.0732
X0.6304 Y1.4482 I-0.0075 J0.01
G1 X0.6229 Y1.4582
X0.6213 Y1.4604 Z-0.0047
X0.6197 Y1.4626 Z-0.0038
X0.6183 Y1.4645 Z-0.0023
X0.6171 Y1.466 Z-0.0003
X0.6162 Y1.4672 Z0.0021
X0.6156 Y1.468 Z0.0047
X0.6154 Y1.4682 Z0.0075
X0.5954 Y1.4532
Z0.0025
X0.5956 Y1.453 Z-0.0003
X0.5962 Y1.4522 Z-0.0029
X0.5971 Y1.451 Z-0.0053
X0.5983 Y1.4495 Z-0.0073
X0.5997 Y1.4476 Z-0.0088
X0.6013 Y1.4454 Z-0.0097
X0.6029 Y1.4432 Z-0.01
X0.6104 Y1.4332
G3 X0.6279 Y1.4307 I0.01 J0.0075
X0.5181 Y1.5771 I-0.0549 J0.0732
X0.6279 Y1.4307 I0.0549 J-0.0732
X0.6304 Y1.4482 I-0.0075 J0.01
G1 X0.6229 Y1.4582
X0.6213 Y1.4604 Z-0.0097
X0.6197 Y1.4626 Z-0.0088
X0.6183 Y1.4645 Z-0.0073
X0.6171 Y1.466 Z-0.0053
X0.6162 Y1.4672 Z-0.0029
X0.6156 Y1.468 Z-0.0003
X0.6154 Y1.4682 Z0.0025
X0.5954 Y1.4532
Z-0.0025
X0.5956 Y1.453 Z-0.0053
X0.5962 Y1.4522 Z-0.0079
X0.5971 Y1.451 Z-0.0103
X0.5983 Y1.4495 Z-0.0123
X0.5997 Y1.4476 Z-0.0138
X0.6013 Y1.4454 Z-0.0147
X0.6029 Y1.4432 Z-0.015
X0.6104 Y1.4332
G3 X0.6279 Y1.4307 I0.01 J0.0075
X0.5181 Y1.5771 I-0.0549 J0.0732
X0.6279 Y1.4307 I0.0549 J-0.0732
X0.6304 Y1.4482 I-0.0075 J0.01
G1 X0.6229 Y1.4582
X0.6213 Y1.4604 Z-0.0147
X0.6197 Y1.4626 Z-0.0138
X0.6183 Y1.4645 Z-0.0123
X0.6171 Y1.466 Z-0.0103
X0.6162 Y1.4672 Z-0.0079
X0.6156 Y1.468 Z-0.0053
X0.6154 Y1.4682 Z-0.0025
X0.5954 Y1.4532
Z-0.0075
X0.5956 Y1.453 Z-0.0103
X0.5962 Y1.4522 Z-0.0129
X0.5971 Y1.451 Z-0.0153
X0.5983 Y1.4495 Z-0.0173
X0.5997 Y1.4476 Z-0.0188
X0.6013 Y1.4454 Z-0.0197
X0.6029 Y1.4432 Z-0.02
X0.6104 Y1.4332
G3 X0.6279 Y1.4307 I0.01 J0.0075
X0.5181 Y1.5771 I-0.0549 J0.0732
X0.6279 Y1.4307 I0.0549 J-0.0732
X0.6304 Y1.4482 I-0.0075 J0.01
G1 X0.6229 Y1.4582
X0.6213 Y1.4604 Z-0.0197
X0.6197 Y1.4626 Z-0.0188
X0.6183 Y1.4645 Z-0.0173
X0.6171 Y1.466 Z-0.0153
X0.6162 Y1.4672 Z-0.0129
X0.6156 Y1.468 Z-0.0103
X0.6154 Y1.4682 Z-0.0075
X0.5954 Y1.4532
Z-0.0125
X0.5956 Y1.453 Z-0.0153
X0.5962 Y1.4522 Z-0.0179
X0.5971 Y1.451 Z-0.0203
X0.5983 Y1.4495 Z-0.0223
X0.5997 Y1.4476 Z-0.0238
X0.6013 Y1.4454 Z-0.0247
X0.6029 Y1.4432 Z-0.025
X0.6104 Y1.4332
G3 X0.6279 Y1.4307 I0.01 J0.0075
X0.5181 Y1.5771 I-0.0549 J0.0732
X0.6279 Y1.4307 I0.0549 J-0.0732
X0.6304 Y1.4482 I-0.0075 J0.01
G1 X0.6229 Y1.4582
X0.6213 Y1.4604 Z-0.0247
X0.6197 Y1.4626 Z-0.0238
X0.6183 Y1.4645 Z-0.0223
X0.6171 Y1.466 Z-0.0203
X0.6162 Y1.4672 Z-0.0179
X0.6156 Y1.468 Z-0.0153
X0.6154 Y1.4682 Z-0.0125
X0.5954 Y1.4532
Z-0.0153
X0.5956 Y1.453 Z-0.018
X0.5962 Y1.4522 Z-0.0207
X0.5971 Y1.451 Z-0.023
X0.5983 Y1.4495 Z-0.025
X0.5997 Y1.4476 Z-0.0265
X0.6013 Y1.4454 Z-0.0274
X0.6029 Y1.4432 Z-0.0278
X0.6104 Y1.4332
G3 X0.6279 Y1.4307 I0.01 J0.0075
X0.5181 Y1.5771 I-0.0549 J0.0732
X0.6279 Y1.4307 I0.0549 J-0.0732
X0.6304 Y1.4482 I-0.0075 J0.01
G1 X0.6229 Y1.4582
X0.6213 Y1.4604 Z-0.0274
X0.6197 Y1.4626 Z-0.0265
X0.6183 Y1.4645 Z-0.025
X0.6171 Y1.466 Z-0.023
X0.6162 Y1.4672 Z-0.0207
X0.6156 Y1.468 Z-0.018
X0.6154 Y1.4682 Z-0.0153
X0.5954 Y1.4532
Z-0.018
X0.5956 Y1.453 Z-0.0208
X0.5962 Y1.4522 Z-0.0234
X0.5971 Y1.451 Z-0.0258
X0.5983 Y1.4495 Z-0.0278
X0.5997 Y1.4476 Z-0.0293
X0.6013 Y1.4454 Z-0.0302
X0.6029 Y1.4432 Z-0.0305
X0.6104 Y1.4332
G3 X0.6279 Y1.4307 I0.01 J0.0075
X0.5181 Y1.5771 I-0.0549 J0.0732
X0.6279 Y1.4307 I0.0549 J-0.0732
X0.6304 Y1.4482 I-0.0075 J0.01
G1 X0.6229 Y1.4582
X0.6213 Y1.4604 Z-0.0302
X0.6197 Y1.4626 Z-0.0293
X0.6183 Y1.4645 Z-0.0278
X0.6171 Y1.466 Z-0.0258
X0.6162 Y1.4672 Z-0.0234
X0.6156 Y1.468 Z-0.0208
X0.6154 Y1.4682 Z-0.018
G0 Z1.5
Y5.4767
G1 Z0.0075 F30
X0.6156 Y5.4769 Z0.0047
X0.6162 Y5.4776 Z0.0021
X0.6171 Y5.4788 Z-0.0003
X0.6183 Y5.4804 Z-0.0023
X0.6197 Y5.4823 Z-0.0038
X0.6213 Y5.4844 Z-0.0047
X0.6229 Y5.4867 Z-0.005
X0.6304 Y5.4967
G3 X0.6279 Y5.5142 I-0.01 J0.0075
X0.5181 Y5.3676 I-0.0549 J-0.0733
X0.6279 Y5.5142 I0.0549 J0.0733
X0.6104 Y5.5117 I-0.0075 J-0.01
G1 X0.6029 Y5.5017
X0.6013 Y5.4994 Z-0.0047
X0.5997 Y5.4973 Z-0.0038
X0.5983 Y5.4954 Z-0.0023
X0.5971 Y5.4938 Z-0.0003
X0.5962 Y5.4926 Z0.0021
X0.5956 Y5.4919 Z0.0047
X0.5954 Y5.4917 Z0.0075
X0.6154 Y5.4767
Z0.0025
X0.6156 Y5.4769 Z-0.0003
X0.6162 Y5.4776 Z-0.0029
X0.6171 Y5.4788 Z-0.0053
X0.6183 Y5.4804 Z-0.0073
X0.6197 Y5.4823 Z-0.0088
X0.6213 Y5.4844 Z-0.0097
X0.6229 Y5.4867 Z-0.01
X0.6304 Y5.4967
G3 X0.6279 Y5.5142 I-0.01 J0.0075
X0.5181 Y5.3676 I-0.0549 J-0.0733
X0.6279 Y5.5142 I0.0549 J0.0733
X0.6104 Y5.5117 I-0.0075 J-0.01
G1 X0.6029 Y5.5017
X0.6013 Y5.4994 Z-0.0097
X0.5997 Y5.4973 Z-0.0088
X0.5983 Y5.4954 Z-0.0073
X0.5971 Y5.4938 Z-0.0053
X0.5962 Y5.4926 Z-0.0029
X0.5956 Y5.4919 Z-0.0003
X0.5954 Y5.4917 Z0.0025
X0.6154 Y5.4767
Z-0.0025
X0.6156 Y5.4769 Z-0.0053
X0.6162 Y5.4776 Z-0.0079
X0.6171 Y5.4788 Z-0.0103
X0.6183 Y5.4804 Z-0.0123
X0.6197 Y5.4823 Z-0.0138
X0.6213 Y5.4844 Z-0.0147
X0.6229 Y5.4867 Z-0.015
X0.6304 Y5.4967
G3 X0.6279 Y5.5142 I-0.01 J0.0075
X0.5181 Y5.3676 I-0.0549 J-0.0733
X0.6279 Y5.5142 I0.0549 J0.0733
X0.6104 Y5.5117 I-0.0075 J-0.01
G1 X0.6029 Y5.5017
X0.6013 Y5.4994 Z-0.0147
X0.5997 Y5.4973 Z-0.0138
X0.5983 Y5.4954 Z-0.0123
X0.5971 Y5.4938 Z-0.0103
X0.5962 Y5.4926 Z-0.0079
X0.5956 Y5.4919 Z-0.0053
X0.5954 Y5.4917 Z-0.0025
X0.6154 Y5.4767
Z-0.0075
X0.6156 Y5.4769 Z-0.0103
X0.6162 Y5.4776 Z-0.0129
X0.6171 Y5.4788 Z-0.0153
X0.6183 Y5.4804 Z-0.0173
X0.6197 Y5.4823 Z-0.0188
X0.6213 Y5.4844 Z-0.0197
X0.6229 Y5.4867 Z-0.02
X0.6304 Y5.4967
G3 X0.6279 Y5.5142 I-0.01 J0.0075
X0.5181 Y5.3676 I-0.0549 J-0.0733
X0.6279 Y5.5142 I0.0549 J0.0733
X0.6104 Y5.5117 I-0.0075 J-0.01
G1 X0.6029 Y5.5017
X0.6013 Y5.4994 Z-0.0197
X0.5997 Y5.4973 Z-0.0188
X0.5983 Y5.4954 Z-0.0173
X0.5971 Y5.4938 Z-0.0153
X0.5962 Y5.4926 Z-0.0129
X0.5956 Y5.4919 Z-0.0103
X0.5954 Y5.4917 Z-0.0075
X0.6154 Y5.4767
Z-0.0125
X0.6156 Y5.4769 Z-0.0153
X0.6162 Y5.4776 Z-0.0179
X0.6171 Y5.4788 Z-0.0203
X0.6183 Y5.4804 Z-0.0223
X0.6197 Y5.4823 Z-0.0238
X0.6213 Y5.4844 Z-0.0247
X0.6229 Y5.4867 Z-0.025
X0.6304 Y5.4967
G3 X0.6279 Y5.5142 I-0.01 J0.0075
X0.5181 Y5.3676 I-0.0549 J-0.0733
X0.6279 Y5.5142 I0.0549 J0.0733
X0.6104 Y5.5117 I-0.0075 J-0.01
G1 X0.6029 Y5.5017
X0.6013 Y5.4994 Z-0.0247
X0.5997 Y5.4973 Z-0.0238
X0.5983 Y5.4954 Z-0.0223
X0.5971 Y5.4938 Z-0.0203
X0.5962 Y5.4926 Z-0.0179
X0.5956 Y5.4919 Z-0.0153
X0.5954 Y5.4917 Z-0.0125
X0.6154 Y5.4767
Z-0.0153
X0.6156 Y5.4769 Z-0.018
X0.6162 Y5.4776 Z-0.0207
X0.6171 Y5.4788 Z-0.023
X0.6183 Y5.4804 Z-0.025
X0.6197 Y5.4823 Z-0.0265
X0.6213 Y5.4844 Z-0.0274
X0.6229 Y5.4867 Z-0.0278
X0.6304 Y5.4967
G3 X0.6279 Y5.5142 I-0.01 J0.0075
X0.5181 Y5.3676 I-0.0549 J-0.0733
X0.6279 Y5.5142 I0.0549 J0.0733
X0.6104 Y5.5117 I-0.0075 J-0.01
G1 X0.6029 Y5.5017
X0.6013 Y5.4994 Z-0.0274
X0.5997 Y5.4973 Z-0.0265
X0.5983 Y5.4954 Z-0.025
X0.5971 Y5.4938 Z-0.023
X0.5962 Y5.4926 Z-0.0207
X0.5956 Y5.4919 Z-0.018
X0.5954 Y5.4917 Z-0.0153
X0.6154 Y5.4767
Z-0.018
X0.6156 Y5.4769 Z-0.0208
X0.6162 Y5.4776 Z-0.0234
X0.6171 Y5.4788 Z-0.0258
X0.6183 Y5.4804 Z-0.0278
X0.6197 Y5.4823 Z-0.0293
X0.6213 Y5.4844 Z-0.0302
X0.6229 Y5.4867 Z-0.0305
X0.6304 Y5.4967
G3 X0.6279 Y5.5142 I-0.01 J0.0075
X0.5181 Y5.3676 I-0.0549 J-0.0733
X0.6279 Y5.5142 I0.0549 J0.0733
X0.6104 Y5.5117 I-0.0075 J-0.01
G1 X0.6029 Y5.5017
X0.6013 Y5.4994 Z-0.0302
X0.5997 Y5.4973 Z-0.0293
X0.5983 Y5.4954 Z-0.0278
X0.5971 Y5.4938 Z-0.0258
X0.5962 Y5.4926 Z-0.0234
X0.5956 Y5.4919 Z-0.0208
X0.5954 Y5.4917 Z-0.018
G0 Z1.5
Y6.3745
G1 Z0.0075 F30
X0.5956 Y6.3742 Z0.0047
X0.5962 Y6.3735 Z0.0021
X0.5971 Y6.3723 Z-0.0003
X0.5983 Y6.3707 Z-0.0023
X0.5997 Y6.3688 Z-0.0038
X0.6013 Y6.3667 Z-0.0047
X0.6029 Y6.3645 Z-0.005
X0.6104 Y6.3545
G3 X0.6279 Y6.352 I0.01 J0.0075
X0.5181 Y6.4984 I-0.0549 J0.0732
X0.6279 Y6.352 I0.0549 J-0.0732
X0.6304 Y6.3695 I-0.0075 J0.01
G1 X0.6229 Y6.3795
X0.6213 Y6.3817 Z-0.0047
X0.6197 Y6.3838 Z-0.0038
X0.6183 Y6.3857 Z-0.0023
X0.6171 Y6.3873 Z-0.0003
X0.6162 Y6.3885 Z0.0021
X0.6156 Y6.3892 Z0.0047
X0.6154 Y6.3895 Z0.0075
X0.5954 Y6.3745
Z0.0025
X0.5956 Y6.3742 Z-0.0003
X0.5962 Y6.3735 Z-0.0029
X0.5971 Y6.3723 Z-0.0053
X0.5983 Y6.3707 Z-0.0073
X0.5997 Y6.3688 Z-0.0088
X0.6013 Y6.3667 Z-0.0097
X0.6029 Y6.3645 Z-0.01
X0.6104 Y6.3545
G3 X0.6279 Y6.352 I0.01 J0.0075
X0.5181 Y6.4984 I-0.0549 J0.0732
X0.6279 Y6.352 I0.0549 J-0.0732
X0.6304 Y6.3695 I-0.0075 J0.01
G1 X0.6229 Y6.3795
X0.6213 Y6.3817 Z-0.0097
X0.6197 Y6.3838 Z-0.0088
X0.6183 Y6.3857 Z-0.0073
X0.6171 Y6.3873 Z-0.0053
X0.6162 Y6.3885 Z-0.0029
X0.6156 Y6.3892 Z-0.0003
X0.6154 Y6.3895 Z0.0025
X0.5954 Y6.3745
Z-0.0025
X0.5956 Y6.3742 Z-0.0053
X0.5962 Y6.3735 Z-0.0079
X0.5971 Y6.3723 Z-0.0103
X0.5983 Y6.3707 Z-0.0123
X0.5997 Y6.3688 Z-0.0138
X0.6013 Y6.3667 Z-0.0147
X0.6029 Y6.3645 Z-0.015
X0.6104 Y6.3545
G3 X0.6279 Y6.352 I0.01 J0.0075
X0.5181 Y6.4984 I-0.0549 J0.0732
X0.6279 Y6.352 I0.0549 J-0.0732
X0.6304 Y6.3695 I-0.0075 J0.01
G1 X0.6229 Y6.3795
X0.6213 Y6.3817 Z-0.0147
X0.6197 Y6.3838 Z-0.0138
X0.6183 Y6.3857 Z-0.0123
X0.6171 Y6.3873 Z-0.0103
X0.6162 Y6.3885 Z-0.0079
X0.6156 Y6.3892 Z-0.0053
X0.6154 Y6.3895 Z-0.0025
X0.5954 Y6.3745
Z-0.0075
X0.5956 Y6.3742 Z-0.0103
X0.5962 Y6.3735 Z-0.0129
X0.5971 Y6.3723 Z-0.0153
X0.5983 Y6.3707 Z-0.0173
X0.5997 Y6.3688 Z-0.0188
X0.6013 Y6.3667 Z-0.0197
X0.6029 Y6.3645 Z-0.02
X0.6104 Y6.3545
G3 X0.6279 Y6.352 I0.01 J0.0075
X0.5181 Y6.4984 I-0.0549 J0.0732
X0.6279 Y6.352 I0.0549 J-0.0732
X0.6304 Y6.3695 I-0.0075 J0.01
G1 X0.6229 Y6.3795
X0.6213 Y6.3817 Z-0.0197
X0.6197 Y6.3838 Z-0.0188
X0.6183 Y6.3857 Z-0.0173
X0.6171 Y6.3873 Z-0.0153
X0.6162 Y6.3885 Z-0.0129
X0.6156 Y6.3892 Z-0.0103
X0.6154 Y6.3895 Z-0.0075
X0.5954 Y6.3745
Z-0.0125
X0.5956 Y6.3742 Z-0.0153
X0.5962 Y6.3735 Z-0.0179
X0.5971 Y6.3723 Z-0.0203
X0.5983 Y6.3707 Z-0.0223
X0.5997 Y6.3688 Z-0.0238
X0.6013 Y6.3667 Z-0.0247
X0.6029 Y6.3645 Z-0.025
X0.6104 Y6.3545
G3 X0.6279 Y6.352 I0.01 J0.0075
X0.5181 Y6.4984 I-0.0549 J0.0732
X0.6279 Y6.352 I0.0549 J-0.0732
X0.6304 Y6.3695 I-0.0075 J0.01
G1 X0.6229 Y6.3795
X0.6213 Y6.3817 Z-0.0247
X0.6197 Y6.3838 Z-0.0238
X0.6183 Y6.3857 Z-0.0223
X0.6171 Y6.3873 Z-0.0203
X0.6162 Y6.3885 Z-0.0179
X0.6156 Y6.3892 Z-0.0153
X0.6154 Y6.3895 Z-0.0125
X0.5954 Y6.3745
Z-0.0153
X0.5956 Y6.3742 Z-0.018
X0.5962 Y6.3735 Z-0.0207
X0.5971 Y6.3723 Z-0.023
X0.5983 Y6.3707 Z-0.025
X0.5997 Y6.3688 Z-0.0265
X0.6013 Y6.3667 Z-0.0274
X0.6029 Y6.3645 Z-0.0278
X0.6104 Y6.3545
G3 X0.6279 Y6.352 I0.01 J0.0075
X0.5181 Y6.4984 I-0.0549 J0.0732
X0.6279 Y6.352 I0.0549 J-0.0732
X0.6304 Y6.3695 I-0.0075 J0.01
G1 X0.6229 Y6.3795
X0.6213 Y6.3817 Z-0.0274
X0.6197 Y6.3838 Z-0.0265
X0.6183 Y6.3857 Z-0.025
X0.6171 Y6.3873 Z-0.023
X0.6162 Y6.3885 Z-0.0207
X0.6156 Y6.3892 Z-0.018
X0.6154 Y6.3895 Z-0.0153
X0.5954 Y6.3745
Z-0.018
X0.5956 Y6.3742 Z-0.0208
X0.5962 Y6.3735 Z-0.0234
X0.5971 Y6.3723 Z-0.0258
X0.5983 Y6.3707 Z-0.0278
X0.5997 Y6.3688 Z-0.0293
X0.6013 Y6.3667 Z-0.0302
X0.6029 Y6.3645 Z-0.0305
X0.6104 Y6.3545
G3 X0.6279 Y6.352 I0.01 J0.0075
X0.5181 Y6.4984 I-0.0549 J0.0732
X0.6279 Y6.352 I0.0549 J-0.0732
X0.6304 Y6.3695 I-0.0075 J0.01
G1 X0.6229 Y6.3795
X0.6213 Y6.3817 Z-0.0302
X0.6197 Y6.3838 Z-0.0293
X0.6183 Y6.3857 Z-0.0278
X0.6171 Y6.3873 Z-0.0258
X0.6162 Y6.3885 Z-0.0234
X0.6156 Y6.3892 Z-0.0208
X0.6154 Y6.3895 Z-0.018
G0 Z1.5
X0.5954 Y7.3587
G1 Z0.0075 F30
X0.5956 Y7.3585 Z0.0047
X0.5962 Y7.3577 Z0.0021
X0.5971 Y7.3566 Z-0.0003
X0.5983 Y7.355 Z-0.0023
X0.5997 Y7.3531 Z-0.0038
X0.6013 Y7.351 Z-0.0047
X0.6029 Y7.3487 Z-0.005
X0.6104 Y7.3387
G3 X0.6279 Y7.3362 I0.01 J0.0075
X0.5181 Y7.4826 I-0.0549 J0.0732
X0.6279 Y7.3362 I0.0549 J-0.0732
X0.6304 Y7.3537 I-0.0075 J0.01
G1 X0.6229 Y7.3637
X0.6213 Y7.366 Z-0.0047
X0.6197 Y7.3681 Z-0.0038
X0.6183 Y7.37 Z-0.0023
X0.6171 Y7.3716 Z-0.0003
X0.6162 Y7.3727 Z0.0021
X0.6156 Y7.3735 Z0.0047
X0.6154 Y7.3737 Z0.0075
X0.5954 Y7.3587
Z0.0025
X0.5956 Y7.3585 Z-0.0003
X0.5962 Y7.3577 Z-0.0029
X0.5971 Y7.3566 Z-0.0053
X0.5983 Y7.355 Z-0.0073
X0.5997 Y7.3531 Z-0.0088
X0.6013 Y7.351 Z-0.0097
X0.6029 Y7.3487 Z-0.01
X0.6104 Y7.3387
G3 X0.6279 Y7.3362 I0.01 J0.0075
X0.5181 Y7.4826 I-0.0549 J0.0732
X0.6279 Y7.3362 I0.0549 J-0.0732
X0.6304 Y7.3537 I-0.0075 J0.01
G1 X0.6229 Y7.3637
X0.6213 Y7.366 Z-0.0097
X0.6197 Y7.3681 Z-0.0088
X0.6183 Y7.37 Z-0.0073
X0.6171 Y7.3716 Z-0.0053
X0.6162 Y7.3727 Z-0.0029
X0.6156 Y7.3735 Z-0.0003
X0.6154 Y7.3737 Z0.0025
X0.5954 Y7.3587
Z-0.0025
X0.5956 Y7.3585 Z-0.0053
X0.5962 Y7.3577 Z-0.0079
X0.5971 Y7.3566 Z-0.0103
X0.5983 Y7.355 Z-0.0123
X0.5997 Y7.3531 Z-0.0138
X0.6013 Y7.351 Z-0.0147
X0.6029 Y7.3487 Z-0.015
X0.6104 Y7.3387
G3 X0.6279 Y7.3362 I0.01 J0.0075
X0.5181 Y7.4826 I-0.0549 J0.0732
X0.6279 Y7.3362 I0.0549 J-0.0732
X0.6304 Y7.3537 I-0.0075 J0.01
G1 X0.6229 Y7.3637
X0.6213 Y7.366 Z-0.0147
X0.6197 Y7.3681 Z-0.0138
X0.6183 Y7.37 Z-0.0123
X0.6171 Y7.3716 Z-0.0103
X0.6162 Y7.3727 Z-0.0079
X0.6156 Y7.3735 Z-0.0053
X0.6154 Y7.3737 Z-0.0025
X0.5954 Y7.3587
Z-0.0075
X0.5956 Y7.3585 Z-0.0103
X0.5962 Y7.3577 Z-0.0129
X0.5971 Y7.3566 Z-0.0153
X0.5983 Y7.355 Z-0.0173
X0.5997 Y7.3531 Z-0.0188
X0.6013 Y7.351 Z-0.0197
X0.6029 Y7.3487 Z-0.02
X0.6104 Y7.3387
G3 X0.6279 Y7.3362 I0.01 J0.0075
X0.5181 Y7.4826 I-0.0549 J0.0732
X0.6279 Y7.3362 I0.0549 J-0.0732
X0.6304 Y7.3537 I-0.0075 J0.01
G1 X0.6229 Y7.3637
X0.6213 Y7.366 Z-0.0197
X0.6197 Y7.3681 Z-0.0188
X0.6183 Y7.37 Z-0.0173
X0.6171 Y7.3716 Z-0.0153
X0.6162 Y7.3727 Z-0.0129
X0.6156 Y7.3735 Z-0.0103
X0.6154 Y7.3737 Z-0.0075
X0.5954 Y7.3587
Z-0.0125
X0.5956 Y7.3585 Z-0.0153
X0.5962 Y7.3577 Z-0.0179
X0.5971 Y7.3566 Z-0.0203
X0.5983 Y7.355 Z-0.0223
X0.5997 Y7.3531 Z-0.0238
X0.6013 Y7.351 Z-0.0247
X0.6029 Y7.3487 Z-0.025
X0.6104 Y7.3387
G3 X0.6279 Y7.3362 I0.01 J0.0075
X0.5181 Y7.4826 I-0.0549 J0.0732
X0.6279 Y7.3362 I0.0549 J-0.0732
X0.6304 Y7.3537 I-0.0075 J0.01
G1 X0.6229 Y7.3637
X0.6213 Y7.366 Z-0.0247
X0.6197 Y7.3681 Z-0.0238
X0.6183 Y7.37 Z-0.0223
X0.6171 Y7.3716 Z-0.0203
X0.6162 Y7.3727 Z-0.0179
X0.6156 Y7.3735 Z-0.0153
X0.6154 Y7.3737 Z-0.0125
X0.5954 Y7.3587
Z-0.0153
X0.5956 Y7.3585 Z-0.018
X0.5962 Y7.3577 Z-0.0207
X0.5971 Y7.3566 Z-0.023
X0.5983 Y7.355 Z-0.025
X0.5997 Y7.3531 Z-0.0265
X0.6013 Y7.351 Z-0.0274
X0.6029 Y7.3487 Z-0.0278
X0.6104 Y7.3387
G3 X0.6279 Y7.3362 I0.01 J0.0075
X0.5181 Y7.4826 I-0.0549 J0.0732
X0.6279 Y7.3362 I0.0549 J-0.0732
X0.6304 Y7.3537 I-0.0075 J0.01
G1 X0.6229 Y7.3637
X0.6213 Y7.366 Z-0.0274
X0.6197 Y7.3681 Z-0.0265
X0.6183 Y7.37 Z-0.025
X0.6171 Y7.3716 Z-0.023
X0.6162 Y7.3727 Z-0.0207
X0.6156 Y7.3735 Z-0.018
X0.6154 Y7.3737 Z-0.0153
X0.5954 Y7.3587
Z-0.018
X0.5956 Y7.3585 Z-0.0208
X0.5962 Y7.3577 Z-0.0234
X0.5971 Y7.3566 Z-0.0258
X0.5983 Y7.355 Z-0.0278
X0.5997 Y7.3531 Z-0.0293
X0.6013 Y7.351 Z-0.0302
X0.6029 Y7.3487 Z-0.0305
X0.6104 Y7.3387
G3 X0.6279 Y7.3362 I0.01 J0.0075
X0.5181 Y7.4826 I-0.0549 J0.0732
X0.6279 Y7.3362 I0.0549 J-0.0732
X0.6304 Y7.3537 I-0.0075 J0.01
G1 X0.6229 Y7.3637
X0.6213 Y7.366 Z-0.0302
X0.6197 Y7.3681 Z-0.0293
X0.6183 Y7.37 Z-0.0278
X0.6171 Y7.3716 Z-0.0258
X0.6162 Y7.3727 Z-0.0234
X0.6156 Y7.3735 Z-0.0208
X0.6154 Y7.3737 Z-0.018
G0 Z1.5
X5.4855 Y5.4875
G1 Z0.0075 F30
G18 G2 X5.498 Z-0.005 I0.0125 K0
G1 X5.5105
G17 G3 X5.523 Y5.5 I0 J0.0125
X5.1362 I-0.1934 J0
G1 Y4.4961
G3 X5.523 I0.1934 J0
G1 Y5.5
G3 X5.5105 Y5.5125 I-0.0125 J0
G1 X5.498
G18 G3 X5.4855 Z0.0075 I0 K0.0125
G1 Y5.4875
Z0.0025
G2 X5.498 Z-0.01 I0.0125 K0
G1 X5.5105
G17 G3 X5.523 Y5.5 I0 J0.0125
X5.1362 I-0.1934 J0
G1 Y4.4961
G3 X5.523 I0.1934 J0
G1 Y5.5
G3 X5.5105 Y5.5125 I-0.0125 J0
G1 X5.498
G18 G3 X5.4855 Z0.0025 I0 K0.0125
G1 Y5.4875
Z-0.0025
G2 X5.498 Z-0.015 I0.0125 K0
G1 X5.5105
G17 G3 X5.523 Y5.5 I0 J0.0125
X5.1362 I-0.1934 J0
G1 Y4.4961
G3 X5.523 I0.1934 J0
G1 Y5.5
G3 X5.5105 Y5.5125 I-0.0125 J0
G1 X5.498
G18 G3 X5.4855 Z-0.0025 I0 K0.0125
G1 Y5.4875
Z-0.0075
G2 X5.498 Z-0.02 I0.0125 K0
G1 X5.5105
G17 G3 X5.523 Y5.5 I0 J0.0125
X5.1362 I-0.1934 J0
G1 Y4.4961
G3 X5.523 I0.1934 J0
G1 Y5.5
G3 X5.5105 Y5.5125 I-0.0125 J0
G1 X5.498
G18 G3 X5.4855 Z-0.0075 I0 K0.0125
G1 Y5.4875
Z-0.0125
G2 X5.498 Z-0.025 I0.0125 K0
G1 X5.5105
G17 G3 X5.523 Y5.5 I0 J0.0125
X5.1362 I-0.1934 J0
G1 Y4.4961
G3 X5.523 I0.1934 J0
G1 Y5.5
G3 X5.5105 Y5.5125 I-0.0125 J0
G1 X5.498
G18 G3 X5.4855 Z-0.0125 I0 K0.0125
G1 Y5.4875
Z-0.0153
G2 X5.498 Z-0.0277 I0.0125 K0.0001
G1 X5.5105 Z-0.0278
G17 G3 X5.523 Y5.5 I0 J0.0125
X5.1362 I-0.1934 J0
G1 Y4.4961
G3 X5.523 I0.1934 J0
G1 Y5.5
G3 X5.5105 Y5.5125 I-0.0125 J0
G1 X5.498
G18 G3 X5.4854 Z-0.0153 I0 K0.0126
G1 X5.4855 Y5.4875
Z-0.018
G2 X5.498 Z-0.0305 I0.0125 K0
G1 X5.5105
G17 G3 X5.523 Y5.5 I0 J0.0125
X5.1362 I-0.1934 J0
G1 Y4.4961
G3 X5.523 I0.1934 J0
G1 Y5.5
G3 X5.5105 Y5.5125 I-0.0125 J0
G1 X5.498
G18 G3 X5.4855 Z-0.018 I0 K0.0125
G0 Z1.5
X7.1994 Y5.3902
G1 Z0.0075 F30
X7.1996 Y5.39 Z0.0047
X7.2001 Y5.3892 Z0.0021
X7.201 Y5.3881 Z-0.0003
X7.2022 Y5.3865 Z-0.0023
X7.2036 Y5.3846 Z-0.0038
X7.2052 Y5.3825 Z-0.0047
X7.2069 Y5.3802 Z-0.005
X7.2144 Y5.3702
G17 G3 X7.2319 Y5.3677 I0.01 J0.0075
X7.1221 Y5.5141 I-0.0549 J0.0732
X7.2319 Y5.3677 I0.0549 J-0.0732
X7.2344 Y5.3852 I-0.0075 J0.01
G1 X7.2269 Y5.3952
X7.2252 Y5.3975 Z-0.0047
X7.2236 Y5.3996 Z-0.0038
X7.2222 Y5.4015 Z-0.0023
X7.221 Y5.4031 Z-0.0003
X7.2201 Y5.4042 Z0.0021
X7.2196 Y5.405 Z0.0047
X7.2194 Y5.4052 Z0.0075
X7.1994 Y5.3902
Z0.0025
X7.1996 Y5.39 Z-0.0003
X7.2001 Y5.3892 Z-0.0029
X7.201 Y5.3881 Z-0.0053
X7.2022 Y5.3865 Z-0.0073
X7.2036 Y5.3846 Z-0.0088
X7.2052 Y5.3825 Z-0.0097
X7.2069 Y5.3802 Z-0.01
X7.2144 Y5.3702
G3 X7.2319 Y5.3677 I0.01 J0.0075
X7.1221 Y5.5141 I-0.0549 J0.0732
X7.2319 Y5.3677 I0.0549 J-0.0732
X7.2344 Y5.3852 I-0.0075 J0.01
G1 X7.2269 Y5.3952
X7.2252 Y5.3975 Z-0.0097
X7.2236 Y5.3996 Z-0.0088
X7.2222 Y5.4015 Z-0.0073
X7.221 Y5.4031 Z-0.0053
X7.2201 Y5.4042 Z-0.0029
X7.2196 Y5.405 Z-0.0003
X7.2194 Y5.4052 Z0.0025
X7.1994 Y5.3902
Z-0.0025
X7.1996 Y5.39 Z-0.0053
X7.2001 Y5.3892 Z-0.0079
X7.201 Y5.3881 Z-0.0103
X7.2022 Y5.3865 Z-0.0123
X7.2036 Y5.3846 Z-0.0138
X7.2052 Y5.3825 Z-0.0147
X7.2069 Y5.3802 Z-0.015
X7.2144 Y5.3702
G3 X7.2319 Y5.3677 I0.01 J0.0075
X7.1221 Y5.5141 I-0.0549 J0.0732
X7.2319 Y5.3677 I0.0549 J-0.0732
X7.2344 Y5.3852 I-0.0075 J0.01
G1 X7.2269 Y5.3952
X7.2252 Y5.3975 Z-0.0147
X7.2236 Y5.3996 Z-0.0138
X7.2222 Y5.4015 Z-0.0123
X7.221 Y5.4031 Z-0.0103
X7.2201 Y5.4042 Z-0.0079
X7.2196 Y5.405 Z-0.0053
X7.2194 Y5.4052 Z-0.0025
X7.1994 Y5.3902
Z-0.0075
X7.1996 Y5.39 Z-0.0103
X7.2001 Y5.3892 Z-0.0129
X7.201 Y5.3881 Z-0.0153
X7.2022 Y5.3865 Z-0.0173
X7.2036 Y5.3846 Z-0.0188
X7.2052 Y5.3825 Z-0.0197
X7.2069 Y5.3802 Z-0.02
X7.2144 Y5.3702
G3 X7.2319 Y5.3677 I0.01 J0.0075
X7.1221 Y5.5141 I-0.0549 J0.0732
X7.2319 Y5.3677 I0.0549 J-0.0732
X7.2344 Y5.3852 I-0.0075 J0.01
G1 X7.2269 Y5.3952
X7.2252 Y5.3975 Z-0.0197
X7.2236 Y5.3996 Z-0.0188
X7.2222 Y5.4015 Z-0.0173
X7.221 Y5.4031 Z-0.0153
X7.2201 Y5.4042 Z-0.0129
X7.2196 Y5.405 Z-0.0103
X7.2194 Y5.4052 Z-0.0075
X7.1994 Y5.3902
Z-0.0125
X7.1996 Y5.39 Z-0.0153
X7.2001 Y5.3892 Z-0.0179
X7.201 Y5.3881 Z-0.0203
X7.2022 Y5.3865 Z-0.0223
X7.2036 Y5.3846 Z-0.0238
X7.2052 Y5.3825 Z-0.0247
X7.2069 Y5.3802 Z-0.025
X7.2144 Y5.3702
G3 X7.2319 Y5.3677 I0.01 J0.0075
X7.1221 Y5.5141 I-0.0549 J0.0732
X7.2319 Y5.3677 I0.0549 J-0.0732
X7.2344 Y5.3852 I-0.0075 J0.01
G1 X7.2269 Y5.3952
X7.2252 Y5.3975 Z-0.0247
X7.2236 Y5.3996 Z-0.0238
X7.2222 Y5.4015 Z-0.0223
X7.221 Y5.4031 Z-0.0203
X7.2201 Y5.4042 Z-0.0179
X7.2196 Y5.405 Z-0.0153
X7.2194 Y5.4052 Z-0.0125
X7.1994 Y5.3902
Z-0.0153
X7.1996 Y5.39 Z-0.018
X7.2001 Y5.3892 Z-0.0207
X7.201 Y5.3881 Z-0.023
X7.2022 Y5.3865 Z-0.025
X7.2036 Y5.3846 Z-0.0265
X7.2052 Y5.3825 Z-0.0274
X7.2069 Y5.3802 Z-0.0278
X7.2144 Y5.3702
G3 X7.2319 Y5.3677 I0.01 J0.0075
X7.1221 Y5.5141 I-0.0549 J0.0732
X7.2319 Y5.3677 I0.0549 J-0.0732
X7.2344 Y5.3852 I-0.0075 J0.01
G1 X7.2269 Y5.3952
X7.2252 Y5.3975 Z-0.0274
X7.2236 Y5.3996 Z-0.0265
X7.2222 Y5.4015 Z-0.025
X7.221 Y5.4031 Z-0.023
X7.2201 Y5.4042 Z-0.0207
X7.2196 Y5.405 Z-0.018
X7.2194 Y5.4052 Z-0.0153
X7.1994 Y5.3902
Z-0.018
X7.1996 Y5.39 Z-0.0208
X7.2001 Y5.3892 Z-0.0234
X7.201 Y5.3881 Z-0.0258
X7.2022 Y5.3865 Z-0.0278
X7.2036 Y5.3846 Z-0.0293
X7.2052 Y5.3825 Z-0.0302
X7.2069 Y5.3802 Z-0.0305
X7.2144 Y5.3702
G3 X7.2319 Y5.3677 I0.01 J0.0075
X7.1221 Y5.5141 I-0.0549 J0.0732
X7.2319 Y5.3677 I0.0549 J-0.0732
X7.2344 Y5.3852 I-0.0075 J0.01
G1 X7.2269 Y5.3952
X7.2252 Y5.3975 Z-0.0302
X7.2236 Y5.3996 Z-0.0293
X7.2222 Y5.4015 Z-0.0278
X7.221 Y5.4031 Z-0.0258
X7.2201 Y5.4042 Z-0.0234
X7.2196 Y5.405 Z-0.0208
X7.2194 Y5.4052 Z-0.018
G0 Z1.5
X7.1994 Y4.406
G1 Z0.0075 F30
X7.1996 Y4.4057 Z0.0047
X7.2001 Y4.405 Z0.0021
X7.201 Y4.4038 Z-0.0003
X7.2022 Y4.4022 Z-0.0023
X7.2036 Y4.4003 Z-0.0038
X7.2052 Y4.3982 Z-0.0047
X7.2069 Y4.396 Z-0.005
X7.2144 Y4.386
G3 X7.2319 Y4.3835 I0.01 J0.0075
X7.1221 Y4.5299 I-0.0549 J0.0732
X7.2319 Y4.3835 I0.0549 J-0.0732
X7.2344 Y4.401 I-0.0075 J0.01
G1 X7.2269 Y4.411
X7.2252 Y4.4132 Z-0.0047
X7.2236 Y4.4153 Z-0.0038
X7.2222 Y4.4172 Z-0.0023
X7.221 Y4.4188 Z-0.0003
X7.2201 Y4.42 Z0.0021
X7.2196 Y4.4207 Z0.0047
X7.2194 Y4.421 Z0.0075
X7.1994 Y4.406
Z0.0025
X7.1996 Y4.4057 Z-0.0003
X7.2001 Y4.405 Z-0.0029
X7.201 Y4.4038 Z-0.0053
X7.2022 Y4.4022 Z-0.0073
X7.2036 Y4.4003 Z-0.0088
X7.2052 Y4.3982 Z-0.0097
X7.2069 Y4.396 Z-0.01
X7.2144 Y4.386
G3 X7.2319 Y4.3835 I0.01 J0.0075
X7.1221 Y4.5299 I-0.0549 J0.0732
X7.2319 Y4.3835 I0.0549 J-0.0732
X7.2344 Y4.401 I-0.0075 J0.01
G1 X7.2269 Y4.411
X7.2252 Y4.4132 Z-0.0097
X7.2236 Y4.4153 Z-0.0088
X7.2222 Y4.4172 Z-0.0073
X7.221 Y4.4188 Z-0.0053
X7.2201 Y4.42 Z-0.0029
X7.2196 Y4.4207 Z-0.0003
X7.2194 Y4.421 Z0.0025
X7.1994 Y4.406
Z-0.0025
X7.1996 Y4.4057 Z-0.0053
X7.2001 Y4.405 Z-0.0079
X7.201 Y4.4038 Z-0.0103
X7.2022 Y4.4022 Z-0.0123
X7.2036 Y4.4003 Z-0.0138
X7.2052 Y4.3982 Z-0.0147
X7.2069 Y4.396 Z-0.015
X7.2144 Y4.386
G3 X7.2319 Y4.3835 I0.01 J0.0075
X7.1221 Y4.5299 I-0.0549 J0.0732
X7.2319 Y4.3835 I0.0549 J-0.0732
X7.2344 Y4.401 I-0.0075 J0.01
G1 X7.2269 Y4.411
X7.2252 Y4.4132 Z-0.0147
X7.2236 Y4.4153 Z-0.0138
X7.2222 Y4.4172 Z-0.0123
X7.221 Y4.4188 Z-0.0103
X7.2201 Y4.42 Z-0.0079
X7.2196 Y4.4207 Z-0.0053
X7.2194 Y4.421 Z-0.0025
X7.1994 Y4.406
Z-0.0075
X7.1996 Y4.4057 Z-0.0103
X7.2001 Y4.405 Z-0.0129
X7.201 Y4.4038 Z-0.0153
X7.2022 Y4.4022 Z-0.0173
X7.2036 Y4.4003 Z-0.0188
X7.2052 Y4.3982 Z-0.0197
X7.2069 Y4.396 Z-0.02
X7.2144 Y4.386
G3 X7.2319 Y4.3835 I0.01 J0.0075
X7.1221 Y4.5299 I-0.0549 J0.0732
X7.2319 Y4.3835 I0.0549 J-0.0732
X7.2344 Y4.401 I-0.0075 J0.01
G1 X7.2269 Y4.411
X7.2252 Y4.4132 Z-0.0197
X7.2236 Y4.4153 Z-0.0188
X7.2222 Y4.4172 Z-0.0173
X7.221 Y4.4188 Z-0.0153
X7.2201 Y4.42 Z-0.0129
X7.2196 Y4.4207 Z-0.0103
X7.2194 Y4.421 Z-0.0075
X7.1994 Y4.406
Z-0.0125
X7.1996 Y4.4057 Z-0.0153
X7.2001 Y4.405 Z-0.0179
X7.201 Y4.4038 Z-0.0203
X7.2022 Y4.4022 Z-0.0223
X7.2036 Y4.4003 Z-0.0238
X7.2052 Y4.3982 Z-0.0247
X7.2069 Y4.396 Z-0.025
X7.2144 Y4.386
G3 X7.2319 Y4.3835 I0.01 J0.0075
X7.1221 Y4.5299 I-0.0549 J0.0732
X7.2319 Y4.3835 I0.0549 J-0.0732
X7.2344 Y4.401 I-0.0075 J0.01
G1 X7.2269 Y4.411
X7.2252 Y4.4132 Z-0.0247
X7.2236 Y4.4153 Z-0.0238
X7.2222 Y4.4172 Z-0.0223
X7.221 Y4.4188 Z-0.0203
X7.2201 Y4.42 Z-0.0179
X7.2196 Y4.4207 Z-0.0153
X7.2194 Y4.421 Z-0.0125
X7.1994 Y4.406
Z-0.0153
X7.1996 Y4.4057 Z-0.018
X7.2001 Y4.405 Z-0.0207
X7.201 Y4.4038 Z-0.023
X7.2022 Y4.4022 Z-0.025
X7.2036 Y4.4003 Z-0.0265
X7.2052 Y4.3982 Z-0.0274
X7.2069 Y4.396 Z-0.0278
X7.2144 Y4.386
G3 X7.2319 Y4.3835 I0.01 J0.0075
X7.1221 Y4.5299 I-0.0549 J0.0732
X7.2319 Y4.3835 I0.0549 J-0.0732
X7.2344 Y4.401 I-0.0075 J0.01
G1 X7.2269 Y4.411
X7.2252 Y4.4132 Z-0.0274
X7.2236 Y4.4153 Z-0.0265
X7.2222 Y4.4172 Z-0.025
X7.221 Y4.4188 Z-0.023
X7.2201 Y4.42 Z-0.0207
X7.2196 Y4.4207 Z-0.018
X7.2194 Y4.421 Z-0.0153
X7.1994 Y4.406
Z-0.018
X7.1996 Y4.4057 Z-0.0208
X7.2001 Y4.405 Z-0.0234
X7.201 Y4.4038 Z-0.0258
X7.2022 Y4.4022 Z-0.0278
X7.2036 Y4.4003 Z-0.0293
X7.2052 Y4.3982 Z-0.0302
X7.2069 Y4.396 Z-0.0305
X7.2144 Y4.386
G3 X7.2319 Y4.3835 I0.01 J0.0075
X7.1221 Y4.5299 I-0.0549 J0.0732
X7.2319 Y4.3835 I0.0549 J-0.0732
X7.2344 Y4.401 I-0.0075 J0.01
G1 X7.2269 Y4.411
X7.2252 Y4.4132 Z-0.0302
X7.2236 Y4.4153 Z-0.0293
X7.2222 Y4.4172 Z-0.0278
X7.221 Y4.4188 Z-0.0258
X7.2201 Y4.42 Z-0.0234
X7.2196 Y4.4207 Z-0.0208
X7.2194 Y4.421 Z-0.018
G0 Z1.5
X7.1994 Y3.4217
G1 Z0.0075 F30
X7.1996 Y3.4215 Z0.0047
X7.2001 Y3.4207 Z0.0021
X7.201 Y3.4195 Z-0.0003
X7.2022 Y3.418 Z-0.0023
X7.2036 Y3.4161 Z-0.0038
X7.2052 Y3.414 Z-0.0047
X7.2069 Y3.4117 Z-0.005
X7.2144 Y3.4017
G3 X7.2319 Y3.3992 I0.01 J0.0075
X7.1221 Y3.5456 I-0.0549 J0.0732
X7.2319 Y3.3992 I0.0549 J-0.0732
X7.2344 Y3.4167 I-0.0075 J0.01
G1 X7.2269 Y3.4267
X7.2252 Y3.429 Z-0.0047
X7.2236 Y3.4311 Z-0.0038
X7.2222 Y3.433 Z-0.0023
X7.221 Y3.4345 Z-0.0003
X7.2201 Y3.4357 Z0.0021
X7.2196 Y3.4365 Z0.0047
X7.2194 Y3.4367 Z0.0075
X7.1994 Y3.4217
Z0.0025
X7.1996 Y3.4215 Z-0.0003
X7.2001 Y3.4207 Z-0.0029
X7.201 Y3.4195 Z-0.0053
X7.2022 Y3.418 Z-0.0073
X7.2036 Y3.4161 Z-0.0088
X7.2052 Y3.414 Z-0.0097
X7.2069 Y3.4117 Z-0.01
X7.2144 Y3.4017
G3 X7.2319 Y3.3992 I0.01 J0.0075
X7.1221 Y3.5456 I-0.0549 J0.0732
X7.2319 Y3.3992 I0.0549 J-0.0732
X7.2344 Y3.4167 I-0.0075 J0.01
G1 X7.2269 Y3.4267
X7.2252 Y3.429 Z-0.0097
X7.2236 Y3.4311 Z-0.0088
X7.2222 Y3.433 Z-0.0073
X7.221 Y3.4345 Z-0.0053
X7.2201 Y3.4357 Z-0.0029
X7.2196 Y3.4365 Z-0.0003
X7.2194 Y3.4367 Z0.0025
X7.1994 Y3.4217
Z-0.0025
X7.1996 Y3.4215 Z-0.0053
X7.2001 Y3.4207 Z-0.0079
X7.201 Y3.4195 Z-0.0103
X7.2022 Y3.418 Z-0.0123
X7.2036 Y3.4161 Z-0.0138
X7.2052 Y3.414 Z-0.0147
X7.2069 Y3.4117 Z-0.015
X7.2144 Y3.4017
G3 X7.2319 Y3.3992 I0.01 J0.0075
X7.1221 Y3.5456 I-0.0549 J0.0732
X7.2319 Y3.3992 I0.0549 J-0.0732
X7.2344 Y3.4167 I-0.0075 J0.01
G1 X7.2269 Y3.4267
X7.2252 Y3.429 Z-0.0147
X7.2236 Y3.4311 Z-0.0138
X7.2222 Y3.433 Z-0.0123
X7.221 Y3.4345 Z-0.0103
X7.2201 Y3.4357 Z-0.0079
X7.2196 Y3.4365 Z-0.0053
X7.2194 Y3.4367 Z-0.0025
X7.1994 Y3.4217
Z-0.0075
X7.1996 Y3.4215 Z-0.0103
X7.2001 Y3.4207 Z-0.0129
X7.201 Y3.4195 Z-0.0153
X7.2022 Y3.418 Z-0.0173
X7.2036 Y3.4161 Z-0.0188
X7.2052 Y3.414 Z-0.0197
X7.2069 Y3.4117 Z-0.02
X7.2144 Y3.4017
G3 X7.2319 Y3.3992 I0.01 J0.0075
X7.1221 Y3.5456 I-0.0549 J0.0732
X7.2319 Y3.3992 I0.0549 J-0.0732
X7.2344 Y3.4167 I-0.0075 J0.01
G1 X7.2269 Y3.4267
X7.2252 Y3.429 Z-0.0197
X7.2236 Y3.4311 Z-0.0188
X7.2222 Y3.433 Z-0.0173
X7.221 Y3.4345 Z-0.0153
X7.2201 Y3.4357 Z-0.0129
X7.2196 Y3.4365 Z-0.0103
X7.2194 Y3.4367 Z-0.0075
X7.1994 Y3.4217
Z-0.0125
X7.1996 Y3.4215 Z-0.0153
X7.2001 Y3.4207 Z-0.0179
X7.201 Y3.4195 Z-0.0203
X7.2022 Y3.418 Z-0.0223
X7.2036 Y3.4161 Z-0.0238
X7.2052 Y3.414 Z-0.0247
X7.2069 Y3.4117 Z-0.025
X7.2144 Y3.4017
G3 X7.2319 Y3.3992 I0.01 J0.0075
X7.1221 Y3.5456 I-0.0549 J0.0732
X7.2319 Y3.3992 I0.0549 J-0.0732
X7.2344 Y3.4167 I-0.0075 J0.01
G1 X7.2269 Y3.4267
X7.2252 Y3.429 Z-0.0247
X7.2236 Y3.4311 Z-0.0238
X7.2222 Y3.433 Z-0.0223
X7.221 Y3.4345 Z-0.0203
X7.2201 Y3.4357 Z-0.0179
X7.2196 Y3.4365 Z-0.0153
X7.2194 Y3.4367 Z-0.0125
X7.1994 Y3.4217
Z-0.0153
X7.1996 Y3.4215 Z-0.018
X7.2001 Y3.4207 Z-0.0207
X7.201 Y3.4195 Z-0.023
X7.2022 Y3.418 Z-0.025
X7.2036 Y3.4161 Z-0.0265
X7.2052 Y3.414 Z-0.0274
X7.2069 Y3.4117 Z-0.0278
X7.2144 Y3.4017
G3 X7.2319 Y3.3992 I0.01 J0.0075
X7.1221 Y3.5456 I-0.0549 J0.0732
X7.2319 Y3.3992 I0.0549 J-0.0732
X7.2344 Y3.4167 I-0.0075 J0.01
G1 X7.2269 Y3.4267
X7.2252 Y3.429 Z-0.0274
X7.2236 Y3.4311 Z-0.0265
X7.2222 Y3.433 Z-0.025
X7.221 Y3.4345 Z-0.023
X7.2201 Y3.4357 Z-0.0207
X7.2196 Y3.4365 Z-0.018
X7.2194 Y3.4367 Z-0.0153
X7.1994 Y3.4217
Z-0.018
X7.1996 Y3.4215 Z-0.0208
X7.2001 Y3.4207 Z-0.0234
X7.201 Y3.4195 Z-0.0258
X7.2022 Y3.418 Z-0.0278
X7.2036 Y3.4161 Z-0.0293
X7.2052 Y3.414 Z-0.0302
X7.2069 Y3.4117 Z-0.0305
X7.2144 Y3.4017
G3 X7.2319 Y3.3992 I0.01 J0.0075
X7.1221 Y3.5456 I-0.0549 J0.0732
X7.2319 Y3.3992 I0.0549 J-0.0732
X7.2344 Y3.4167 I-0.0075 J0.01
G1 X7.2269 Y3.4267
X7.2252 Y3.429 Z-0.0302
X7.2236 Y3.4311 Z-0.0293
X7.2222 Y3.433 Z-0.0278
X7.221 Y3.4345 Z-0.0258
X7.2201 Y3.4357 Z-0.0234
X7.2196 Y3.4365 Z-0.0208
X7.2194 Y3.4367 Z-0.018
G0 Z1.5
X7.1994 Y2.4375
G1 Z0.0075 F30
X7.1996 Y2.4372 Z0.0047
X7.2001 Y2.4365 Z0.0021
X7.201 Y2.4353 Z-0.0003
X7.2022 Y2.4337 Z-0.0023
X7.2036 Y2.4318 Z-0.0038
X7.2052 Y2.4297 Z-0.0047
X7.2069 Y2.4275 Z-0.005
X7.2144 Y2.4175
G3 X7.2319 Y2.415 I0.01 J0.0075
X7.1221 Y2.5614 I-0.0549 J0.0732
X7.2319 Y2.415 I0.0549 J-0.0732
X7.2344 Y2.4325 I-0.0075 J0.01
G1 X7.2269 Y2.4425
X7.2252 Y2.4447 Z-0.0047
X7.2236 Y2.4468 Z-0.0038
X7.2222 Y2.4487 Z-0.0023
X7.221 Y2.4503 Z-0.0003
X7.2201 Y2.4515 Z0.0021
X7.2196 Y2.4522 Z0.0047
X7.2194 Y2.4525 Z0.0075
X7.1994 Y2.4375
Z0.0025
X7.1996 Y2.4372 Z-0.0003
X7.2001 Y2.4365 Z-0.0029
X7.201 Y2.4353 Z-0.0053
X7.2022 Y2.4337 Z-0.0073
X7.2036 Y2.4318 Z-0.0088
X7.2052 Y2.4297 Z-0.0097
X7.2069 Y2.4275 Z-0.01
X7.2144 Y2.4175
G3 X7.2319 Y2.415 I0.01 J0.0075
X7.1221 Y2.5614 I-0.0549 J0.0732
X7.2319 Y2.415 I0.0549 J-0.0732
X7.2344 Y2.4325 I-0.0075 J0.01
G1 X7.2269 Y2.4425
X7.2252 Y2.4447 Z-0.0097
X7.2236 Y2.4468 Z-0.0088
X7.2222 Y2.4487 Z-0.0073
X7.221 Y2.4503 Z-0.0053
X7.2201 Y2.4515 Z-0.0029
X7.2196 Y2.4522 Z-0.0003
X7.2194 Y2.4525 Z0.0025
X7.1994 Y2.4375
Z-0.0025
X7.1996 Y2.4372 Z-0.0053
X7.2001 Y2.4365 Z-0.0079
X7.201 Y2.4353 Z-0.0103
X7.2022 Y2.4337 Z-0.0123
X7.2036 Y2.4318 Z-0.0138
X7.2052 Y2.4297 Z-0.0147
X7.2069 Y2.4275 Z-0.015
X7.2144 Y2.4175
G3 X7.2319 Y2.415 I0.01 J0.0075
X7.1221 Y2.5614 I-0.0549 J0.0732
X7.2319 Y2.415 I0.0549 J-0.0732
X7.2344 Y2.4325 I-0.0075 J0.01
G1 X7.2269 Y2.4425
X7.2252 Y2.4447 Z-0.0147
X7.2236 Y2.4468 Z-0.0138
X7.2222 Y2.4487 Z-0.0123
X7.221 Y2.4503 Z-0.0103
X7.2201 Y2.4515 Z-0.0079
X7.2196 Y2.4522 Z-0.0053
X7.2194 Y2.4525 Z-0.0025
X7.1994 Y2.4375
Z-0.0075
X7.1996 Y2.4372 Z-0.0103
X7.2001 Y2.4365 Z-0.0129
X7.201 Y2.4353 Z-0.0153
X7.2022 Y2.4337 Z-0.0173
X7.2036 Y2.4318 Z-0.0188
X7.2052 Y2.4297 Z-0.0197
X7.2069 Y2.4275 Z-0.02
X7.2144 Y2.4175
G3 X7.2319 Y2.415 I0.01 J0.0075
X7.1221 Y2.5614 I-0.0549 J0.0732
X7.2319 Y2.415 I0.0549 J-0.0732
X7.2344 Y2.4325 I-0.0075 J0.01
G1 X7.2269 Y2.4425
X7.2252 Y2.4447 Z-0.0197
X7.2236 Y2.4468 Z-0.0188
X7.2222 Y2.4487 Z-0.0173
X7.221 Y2.4503 Z-0.0153
X7.2201 Y2.4515 Z-0.0129
X7.2196 Y2.4522 Z-0.0103
X7.2194 Y2.4525 Z-0.0075
X7.1994 Y2.4375
Z-0.0125
X7.1996 Y2.4372 Z-0.0153
X7.2001 Y2.4365 Z-0.0179
X7.201 Y2.4353 Z-0.0203
X7.2022 Y2.4337 Z-0.0223
X7.2036 Y2.4318 Z-0.0238
X7.2052 Y2.4297 Z-0.0247
X7.2069 Y2.4275 Z-0.025
X7.2144 Y2.4175
G3 X7.2319 Y2.415 I0.01 J0.0075
X7.1221 Y2.5614 I-0.0549 J0.0732
X7.2319 Y2.415 I0.0549 J-0.0732
X7.2344 Y2.4325 I-0.0075 J0.01
G1 X7.2269 Y2.4425
X7.2252 Y2.4447 Z-0.0247
X7.2236 Y2.4468 Z-0.0238
X7.2222 Y2.4487 Z-0.0223
X7.221 Y2.4503 Z-0.0203
X7.2201 Y2.4515 Z-0.0179
X7.2196 Y2.4522 Z-0.0153
X7.2194 Y2.4525 Z-0.0125
X7.1994 Y2.4375
Z-0.0153
X7.1996 Y2.4372 Z-0.018
X7.2001 Y2.4365 Z-0.0207
X7.201 Y2.4353 Z-0.023
X7.2022 Y2.4337 Z-0.025
X7.2036 Y2.4318 Z-0.0265
X7.2052 Y2.4297 Z-0.0274
X7.2069 Y2.4275 Z-0.0278
X7.2144 Y2.4175
G3 X7.2319 Y2.415 I0.01 J0.0075
X7.1221 Y2.5614 I-0.0549 J0.0732
X7.2319 Y2.415 I0.0549 J-0.0732
X7.2344 Y2.4325 I-0.0075 J0.01
G1 X7.2269 Y2.4425
X7.2252 Y2.4447 Z-0.0274
X7.2236 Y2.4468 Z-0.0265
X7.2222 Y2.4487 Z-0.025
X7.221 Y2.4503 Z-0.023
X7.2201 Y2.4515 Z-0.0207
X7.2196 Y2.4522 Z-0.018
X7.2194 Y2.4525 Z-0.0153
X7.1994 Y2.4375
Z-0.018
X7.1996 Y2.4372 Z-0.0208
X7.2001 Y2.4365 Z-0.0234
X7.201 Y2.4353 Z-0.0258
X7.2022 Y2.4337 Z-0.0278
X7.2036 Y2.4318 Z-0.0293
X7.2052 Y2.4297 Z-0.0302
X7.2069 Y2.4275 Z-0.0305
X7.2144 Y2.4175
G3 X7.2319 Y2.415 I0.01 J0.0075
X7.1221 Y2.5614 I-0.0549 J0.0732
X7.2319 Y2.415 I0.0549 J-0.0732
X7.2344 Y2.4325 I-0.0075 J0.01
G1 X7.2269 Y2.4425
X7.2252 Y2.4447 Z-0.0302
X7.2236 Y2.4468 Z-0.0293
X7.2222 Y2.4487 Z-0.0278
X7.221 Y2.4503 Z-0.0258
X7.2201 Y2.4515 Z-0.0234
X7.2196 Y2.4522 Z-0.0208
X7.2194 Y2.4525 Z-0.018
G0 Z1.5
X7.1994 Y1.4532
G1 Z0.0075 F30
X7.1996 Y1.453 Z0.0047
X7.2001 Y1.4522 Z0.0021
X7.201 Y1.451 Z-0.0003
X7.2022 Y1.4495 Z-0.0023
X7.2036 Y1.4476 Z-0.0038
X7.2052 Y1.4454 Z-0.0047
X7.2069 Y1.4432 Z-0.005
X7.2144 Y1.4332
G3 X7.2319 Y1.4307 I0.01 J0.0075
X7.1221 Y1.5771 I-0.0549 J0.0732
X7.2319 Y1.4307 I0.0549 J-0.0732
X7.2344 Y1.4482 I-0.0075 J0.01
G1 X7.2269 Y1.4582
X7.2252 Y1.4604 Z-0.0047
X7.2236 Y1.4626 Z-0.0038
X7.2222 Y1.4645 Z-0.0023
X7.221 Y1.466 Z-0.0003
X7.2201 Y1.4672 Z0.0021
X7.2196 Y1.468 Z0.0047
X7.2194 Y1.4682 Z0.0075
X7.1994 Y1.4532
Z0.0025
X7.1996 Y1.453 Z-0.0003
X7.2001 Y1.4522 Z-0.0029
X7.201 Y1.451 Z-0.0053
X7.2022 Y1.4495 Z-0.0073
X7.2036 Y1.4476 Z-0.0088
X7.2052 Y1.4454 Z-0.0097
X7.2069 Y1.4432 Z-0.01
X7.2144 Y1.4332
G3 X7.2319 Y1.4307 I0.01 J0.0075
X7.1221 Y1.5771 I-0.0549 J0.0732
X7.2319 Y1.4307 I0.0549 J-0.0732
X7.2344 Y1.4482 I-0.0075 J0.01
G1 X7.2269 Y1.4582
X7.2252 Y1.4604 Z-0.0097
X7.2236 Y1.4626 Z-0.0088
X7.2222 Y1.4645 Z-0.0073
X7.221 Y1.466 Z-0.0053
X7.2201 Y1.4672 Z-0.0029
X7.2196 Y1.468 Z-0.0003
X7.2194 Y1.4682 Z0.0025
X7.1994 Y1.4532
Z-0.0025
X7.1996 Y1.453 Z-0.0053
X7.2001 Y1.4522 Z-0.0079
X7.201 Y1.451 Z-0.0103
X7.2022 Y1.4495 Z-0.0123
X7.2036 Y1.4476 Z-0.0138
X7.2052 Y1.4454 Z-0.0147
X7.2069 Y1.4432 Z-0.015
X7.2144 Y1.4332
G3 X7.2319 Y1.4307 I0.01 J0.0075
X7.1221 Y1.5771 I-0.0549 J0.0732
X7.2319 Y1.4307 I0.0549 J-0.0732
X7.2344 Y1.4482 I-0.0075 J0.01
G1 X7.2269 Y1.4582
X7.2252 Y1.4604 Z-0.0147
X7.2236 Y1.4626 Z-0.0138
X7.2222 Y1.4645 Z-0.0123
X7.221 Y1.466 Z-0.0103
X7.2201 Y1.4672 Z-0.0079
X7.2196 Y1.468 Z-0.0053
X7.2194 Y1.4682 Z-0.0025
X7.1994 Y1.4532
Z-0.0075
X7.1996 Y1.453 Z-0.0103
X7.2001 Y1.4522 Z-0.0129
X7.201 Y1.451 Z-0.0153
X7.2022 Y1.4495 Z-0.0173
X7.2036 Y1.4476 Z-0.0188
X7.2052 Y1.4454 Z-0.0197
X7.2069 Y1.4432 Z-0.02
X7.2144 Y1.4332
G3 X7.2319 Y1.4307 I0.01 J0.0075
X7.1221 Y1.5771 I-0.0549 J0.0732
X7.2319 Y1.4307 I0.0549 J-0.0732
X7.2344 Y1.4482 I-0.0075 J0.01
G1 X7.2269 Y1.4582
X7.2252 Y1.4604 Z-0.0197
X7.2236 Y1.4626 Z-0.0188
X7.2222 Y1.4645 Z-0.0173
X7.221 Y1.466 Z-0.0153
X7.2201 Y1.4672 Z-0.0129
X7.2196 Y1.468 Z-0.0103
X7.2194 Y1.4682 Z-0.0075
X7.1994 Y1.4532
Z-0.0125
X7.1996 Y1.453 Z-0.0153
X7.2001 Y1.4522 Z-0.0179
X7.201 Y1.451 Z-0.0203
X7.2022 Y1.4495 Z-0.0223
X7.2036 Y1.4476 Z-0.0238
X7.2052 Y1.4454 Z-0.0247
X7.2069 Y1.4432 Z-0.025
X7.2144 Y1.4332
G3 X7.2319 Y1.4307 I0.01 J0.0075
X7.1221 Y1.5771 I-0.0549 J0.0732
X7.2319 Y1.4307 I0.0549 J-0.0732
X7.2344 Y1.4482 I-0.0075 J0.01
G1 X7.2269 Y1.4582
X7.2252 Y1.4604 Z-0.0247
X7.2236 Y1.4626 Z-0.0238
X7.2222 Y1.4645 Z-0.0223
X7.221 Y1.466 Z-0.0203
X7.2201 Y1.4672 Z-0.0179
X7.2196 Y1.468 Z-0.0153
X7.2194 Y1.4682 Z-0.0125
X7.1994 Y1.4532
Z-0.0153
X7.1996 Y1.453 Z-0.018
X7.2001 Y1.4522 Z-0.0207
X7.201 Y1.451 Z-0.023
X7.2022 Y1.4495 Z-0.025
X7.2036 Y1.4476 Z-0.0265
X7.2052 Y1.4454 Z-0.0274
X7.2069 Y1.4432 Z-0.0278
X7.2144 Y1.4332
G3 X7.2319 Y1.4307 I0.01 J0.0075
X7.1221 Y1.5771 I-0.0549 J0.0732
X7.2319 Y1.4307 I0.0549 J-0.0732
X7.2344 Y1.4482 I-0.0075 J0.01
G1 X7.2269 Y1.4582
X7.2252 Y1.4604 Z-0.0274
X7.2236 Y1.4626 Z-0.0265
X7.2222 Y1.4645 Z-0.025
X7.221 Y1.466 Z-0.023
X7.2201 Y1.4672 Z-0.0207
X7.2196 Y1.468 Z-0.018
X7.2194 Y1.4682 Z-0.0153
X7.1994 Y1.4532
Z-0.018
X7.1996 Y1.453 Z-0.0208
X7.2001 Y1.4522 Z-0.0234
X7.201 Y1.451 Z-0.0258
X7.2022 Y1.4495 Z-0.0278
X7.2036 Y1.4476 Z-0.0293
X7.2052 Y1.4454 Z-0.0302
X7.2069 Y1.4432 Z-0.0305
X7.2144 Y1.4332
G3 X7.2319 Y1.4307 I0.01 J0.0075
X7.1221 Y1.5771 I-0.0549 J0.0732
X7.2319 Y1.4307 I0.0549 J-0.0732
X7.2344 Y1.4482 I-0.0075 J0.01
G1 X7.2269 Y1.4582
X7.2252 Y1.4604 Z-0.0302
X7.2236 Y1.4626 Z-0.0293
X7.2222 Y1.4645 Z-0.0278
X7.221 Y1.466 Z-0.0258
X7.2201 Y1.4672 Z-0.0234
X7.2196 Y1.468 Z-0.0208
X7.2194 Y1.4682 Z-0.018
G0 Z1.5
X7.1994 Y6.3745
G1 Z0.0075 F30
X7.1996 Y6.3742 Z0.0047
X7.2001 Y6.3735 Z0.0021
X7.201 Y6.3723 Z-0.0003
X7.2022 Y6.3707 Z-0.0023
X7.2036 Y6.3688 Z-0.0038
X7.2052 Y6.3667 Z-0.0047
X7.2069 Y6.3645 Z-0.005
X7.2144 Y6.3545
G3 X7.2319 Y6.352 I0.01 J0.0075
X7.1221 Y6.4984 I-0.0549 J0.0732
X7.2319 Y6.352 I0.0549 J-0.0732
X7.2344 Y6.3695 I-0.0075 J0.01
G1 X7.2269 Y6.3795
X7.2252 Y6.3817 Z-0.0047
X7.2236 Y6.3838 Z-0.0038
X7.2222 Y6.3857 Z-0.0023
X7.221 Y6.3873 Z-0.0003
X7.2201 Y6.3885 Z0.0021
X7.2196 Y6.3892 Z0.0047
X7.2194 Y6.3895 Z0.0075
X7.1994 Y6.3745
Z0.0025
X7.1996 Y6.3742 Z-0.0003
X7.2001 Y6.3735 Z-0.0029
X7.201 Y6.3723 Z-0.0053
X7.2022 Y6.3707 Z-0.0073
X7.2036 Y6.3688 Z-0.0088
X7.2052 Y6.3667 Z-0.0097
X7.2069 Y6.3645 Z-0.01
X7.2144 Y6.3545
G3 X7.2319 Y6.352 I0.01 J0.0075
X7.1221 Y6.4984 I-0.0549 J0.0732
X7.2319 Y6.352 I0.0549 J-0.0732
X7.2344 Y6.3695 I-0.0075 J0.01
G1 X7.2269 Y6.3795
X7.2252 Y6.3817 Z-0.0097
X7.2236 Y6.3838 Z-0.0088
X7.2222 Y6.3857 Z-0.0073
X7.221 Y6.3873 Z-0.0053
X7.2201 Y6.3885 Z-0.0029
X7.2196 Y6.3892 Z-0.0003
X7.2194 Y6.3895 Z0.0025
X7.1994 Y6.3745
Z-0.0025
X7.1996 Y6.3742 Z-0.0053
X7.2001 Y6.3735 Z-0.0079
X7.201 Y6.3723 Z-0.0103
X7.2022 Y6.3707 Z-0.0123
X7.2036 Y6.3688 Z-0.0138
X7.2052 Y6.3667 Z-0.0147
X7.2069 Y6.3645 Z-0.015
X7.2144 Y6.3545
G3 X7.2319 Y6.352 I0.01 J0.0075
X7.1221 Y6.4984 I-0.0549 J0.0732
X7.2319 Y6.352 I0.0549 J-0.0732
X7.2344 Y6.3695 I-0.0075 J0.01
G1 X7.2269 Y6.3795
X7.2252 Y6.3817 Z-0.0147
X7.2236 Y6.3838 Z-0.0138
X7.2222 Y6.3857 Z-0.0123
X7.221 Y6.3873 Z-0.0103
X7.2201 Y6.3885 Z-0.0079
X7.2196 Y6.3892 Z-0.0053
X7.2194 Y6.3895 Z-0.0025
X7.1994 Y6.3745
Z-0.0075
X7.1996 Y6.3742 Z-0.0103
X7.2001 Y6.3735 Z-0.0129
X7.201 Y6.3723 Z-0.0153
X7.2022 Y6.3707 Z-0.0173
X7.2036 Y6.3688 Z-0.0188
X7.2052 Y6.3667 Z-0.0197
X7.2069 Y6.3645 Z-0.02
X7.2144 Y6.3545
G3 X7.2319 Y6.352 I0.01 J0.0075
X7.1221 Y6.4984 I-0.0549 J0.0732
X7.2319 Y6.352 I0.0549 J-0.0732
X7.2344 Y6.3695 I-0.0075 J0.01
G1 X7.2269 Y6.3795
X7.2252 Y6.3817 Z-0.0197
X7.2236 Y6.3838 Z-0.0188
X7.2222 Y6.3857 Z-0.0173
X7.221 Y6.3873 Z-0.0153
X7.2201 Y6.3885 Z-0.0129
X7.2196 Y6.3892 Z-0.0103
X7.2194 Y6.3895 Z-0.0075
X7.1994 Y6.3745
Z-0.0125
X7.1996 Y6.3742 Z-0.0153
X7.2001 Y6.3735 Z-0.0179
X7.201 Y6.3723 Z-0.0203
X7.2022 Y6.3707 Z-0.0223
X7.2036 Y6.3688 Z-0.0238
X7.2052 Y6.3667 Z-0.0247
X7.2069 Y6.3645 Z-0.025
X7.2144 Y6.3545
G3 X7.2319 Y6.352 I0.01 J0.0075
X7.1221 Y6.4984 I-0.0549 J0.0732
X7.2319 Y6.352 I0.0549 J-0.0732
X7.2344 Y6.3695 I-0.0075 J0.01
G1 X7.2269 Y6.3795
X7.2252 Y6.3817 Z-0.0247
X7.2236 Y6.3838 Z-0.0238
X7.2222 Y6.3857 Z-0.0223
X7.221 Y6.3873 Z-0.0203
X7.2201 Y6.3885 Z-0.0179
X7.2196 Y6.3892 Z-0.0153
X7.2194 Y6.3895 Z-0.0125
X7.1994 Y6.3745
Z-0.0153
X7.1996 Y6.3742 Z-0.018
X7.2001 Y6.3735 Z-0.0207
X7.201 Y6.3723 Z-0.023
X7.2022 Y6.3707 Z-0.025
X7.2036 Y6.3688 Z-0.0265
X7.2052 Y6.3667 Z-0.0274
X7.2069 Y6.3645 Z-0.0278
X7.2144 Y6.3545
G3 X7.2319 Y6.352 I0.01 J0.0075
X7.1221 Y6.4984 I-0.0549 J0.0732
X7.2319 Y6.352 I0.0549 J-0.0732
X7.2344 Y6.3695 I-0.0075 J0.01
G1 X7.2269 Y6.3795
X7.2252 Y6.3817 Z-0.0274
X7.2236 Y6.3838 Z-0.0265
X7.2222 Y6.3857 Z-0.025
X7.221 Y6.3873 Z-0.023
X7.2201 Y6.3885 Z-0.0207
X7.2196 Y6.3892 Z-0.018
X7.2194 Y6.3895 Z-0.0153
X7.1994 Y6.3745
Z-0.018
X7.1996 Y6.3742 Z-0.0208
X7.2001 Y6.3735 Z-0.0234
X7.201 Y6.3723 Z-0.0258
X7.2022 Y6.3707 Z-0.0278
X7.2036 Y6.3688 Z-0.0293
X7.2052 Y6.3667 Z-0.0302
X7.2069 Y6.3645 Z-0.0305
X7.2144 Y6.3545
G3 X7.2319 Y6.352 I0.01 J0.0075
X7.1221 Y6.4984 I-0.0549 J0.0732
X7.2319 Y6.352 I0.0549 J-0.0732
X7.2344 Y6.3695 I-0.0075 J0.01
G1 X7.2269 Y6.3795
X7.2252 Y6.3817 Z-0.0302
X7.2236 Y6.3838 Z-0.0293
X7.2222 Y6.3857 Z-0.0278
X7.221 Y6.3873 Z-0.0258
X7.2201 Y6.3885 Z-0.0234
X7.2196 Y6.3892 Z-0.0208
X7.2194 Y6.3895 Z-0.018
G0 Z1.5
Y7.4452
G1 Z0.0075 F30
X7.2196 Y7.4454 Z0.0047
X7.2201 Y7.4462 Z0.0021
X7.221 Y7.4473 Z-0.0003
X7.2222 Y7.4489 Z-0.0023
X7.2236 Y7.4508 Z-0.0038
X7.2252 Y7.4529 Z-0.0047
X7.2269 Y7.4552 Z-0.005
X7.2344 Y7.4652
G3 X7.2319 Y7.4827 I-0.01 J0.0075
X7.122 Y7.3362 I-0.0549 J-0.0733
X7.2319 Y7.4827 I0.055 J0.0732
X7.2144 Y7.4802 I-0.0075 J-0.01
G1 X7.2069 Y7.4702
X7.2052 Y7.4679 Z-0.0047
X7.2036 Y7.4658 Z-0.0038
X7.2022 Y7.4639 Z-0.0023
X7.201 Y7.4623 Z-0.0003
X7.2001 Y7.4612 Z0.0021
X7.1996 Y7.4604 Z0.0047
X7.1994 Y7.4602 Z0.0075
X7.2194 Y7.4452
Z0.0025
X7.2196 Y7.4454 Z-0.0003
X7.2201 Y7.4462 Z-0.0029
X7.221 Y7.4473 Z-0.0053
X7.2222 Y7.4489 Z-0.0073
X7.2236 Y7.4508 Z-0.0088
X7.2252 Y7.4529 Z-0.0097
X7.2269 Y7.4552 Z-0.01
X7.2344 Y7.4652
G3 X7.2319 Y7.4827 I-0.01 J0.0075
X7.122 Y7.3362 I-0.0549 J-0.0733
X7.2319 Y7.4827 I0.055 J0.0732
X7.2144 Y7.4802 I-0.0075 J-0.01
G1 X7.2069 Y7.4702
X7.2052 Y7.4679 Z-0.0097
X7.2036 Y7.4658 Z-0.0088
X7.2022 Y7.4639 Z-0.0073
X7.201 Y7.4623 Z-0.0053
X7.2001 Y7.4612 Z-0.0029
X7.1996 Y7.4604 Z-0.0003
X7.1994 Y7.4602 Z0.0025
X7.2194 Y7.4452
Z-0.0025
X7.2196 Y7.4454 Z-0.0053
X7.2201 Y7.4462 Z-0.0079
X7.221 Y7.4473 Z-0.0103
X7.2222 Y7.4489 Z-0.0123
X7.2236 Y7.4508 Z-0.0138
X7.2252 Y7.4529 Z-0.0147
X7.2269 Y7.4552 Z-0.015
X7.2344 Y7.4652
G3 X7.2319 Y7.4827 I-0.01 J0.0075
X7.122 Y7.3362 I-0.0549 J-0.0733
X7.2319 Y7.4827 I0.055 J0.0732
X7.2144 Y7.4802 I-0.0075 J-0.01
G1 X7.2069 Y7.4702
X7.2052 Y7.4679 Z-0.0147
X7.2036 Y7.4658 Z-0.0138
X7.2022 Y7.4639 Z-0.0123
X7.201 Y7.4623 Z-0.0103
X7.2001 Y7.4612 Z-0.0079
X7.1996 Y7.4604 Z-0.0053
X7.1994 Y7.4602 Z-0.0025
X7.2194 Y7.4452
Z-0.0075
X7.2196 Y7.4454 Z-0.0103
X7.2201 Y7.4462 Z-0.0129
X7.221 Y7.4473 Z-0.0153
X7.2222 Y7.4489 Z-0.0173
X7.2236 Y7.4508 Z-0.0188
X7.2252 Y7.4529 Z-0.0197
X7.2269 Y7.4552 Z-0.02
X7.2344 Y7.4652
G3 X7.2319 Y7.4827 I-0.01 J0.0075
X7.122 Y7.3362 I-0.0549 J-0.0733
X7.2319 Y7.4827 I0.055 J0.0732
X7.2144 Y7.4802 I-0.0075 J-0.01
G1 X7.2069 Y7.4702
X7.2052 Y7.4679 Z-0.0197
X7.2036 Y7.4658 Z-0.0188
X7.2022 Y7.4639 Z-0.0173
X7.201 Y7.4623 Z-0.0153
X7.2001 Y7.4612 Z-0.0129
X7.1996 Y7.4604 Z-0.0103
X7.1994 Y7.4602 Z-0.0075
X7.2194 Y7.4452
Z-0.0125
X7.2196 Y7.4454 Z-0.0153
X7.2201 Y7.4462 Z-0.0179
X7.221 Y7.4473 Z-0.0203
X7.2222 Y7.4489 Z-0.0223
X7.2236 Y7.4508 Z-0.0238
X7.2252 Y7.4529 Z-0.0247
X7.2269 Y7.4552 Z-0.025
X7.2344 Y7.4652
G3 X7.2319 Y7.4827 I-0.01 J0.0075
X7.122 Y7.3362 I-0.0549 J-0.0733
X7.2319 Y7.4827 I0.055 J0.0732
X7.2144 Y7.4802 I-0.0075 J-0.01
G1 X7.2069 Y7.4702
X7.2052 Y7.4679 Z-0.0247
X7.2036 Y7.4658 Z-0.0238
X7.2022 Y7.4639 Z-0.0223
X7.201 Y7.4623 Z-0.0203
X7.2001 Y7.4612 Z-0.0179
X7.1996 Y7.4604 Z-0.0153
X7.1994 Y7.4602 Z-0.0125
X7.2194 Y7.4452
Z-0.0153
X7.2196 Y7.4454 Z-0.018
X7.2201 Y7.4462 Z-0.0207
X7.221 Y7.4473 Z-0.023
X7.2222 Y7.4489 Z-0.025
X7.2236 Y7.4508 Z-0.0265
X7.2252 Y7.4529 Z-0.0274
X7.2269 Y7.4552 Z-0.0278
X7.2344 Y7.4652
G3 X7.2319 Y7.4827 I-0.01 J0.0075
X7.122 Y7.3362 I-0.0549 J-0.0733
X7.2319 Y7.4827 I0.055 J0.0732
X7.2144 Y7.4802 I-0.0075 J-0.01
G1 X7.2069 Y7.4702
X7.2052 Y7.4679 Z-0.0274
X7.2036 Y7.4658 Z-0.0265
X7.2022 Y7.4639 Z-0.025
X7.201 Y7.4623 Z-0.023
X7.2001 Y7.4612 Z-0.0207
X7.1996 Y7.4604 Z-0.018
X7.1994 Y7.4602 Z-0.0153
X7.2194 Y7.4452
Z-0.018
X7.2196 Y7.4454 Z-0.0208
X7.2201 Y7.4462 Z-0.0234
X7.221 Y7.4473 Z-0.0258
X7.2222 Y7.4489 Z-0.0278
X7.2236 Y7.4508 Z-0.0293
X7.2252 Y7.4529 Z-0.0302
X7.2269 Y7.4552 Z-0.0305
X7.2344 Y7.4652
G3 X7.2319 Y7.4827 I-0.01 J0.0075
X7.122 Y7.3362 I-0.0549 J-0.0733
X7.2319 Y7.4827 I0.055 J0.0732
X7.2144 Y7.4802 I-0.0075 J-0.01
G1 X7.2069 Y7.4702
X7.2052 Y7.4679 Z-0.0302
X7.2036 Y7.4658 Z-0.0293
X7.2022 Y7.4639 Z-0.0278
X7.201 Y7.4623 Z-0.0258
X7.2001 Y7.4612 Z-0.0234
X7.1996 Y7.4604 Z-0.0208
X7.1994 Y7.4602 Z-0.018
G0 Z1.5
M9
G28 G91 Z0
G90
G28 G91 X0 Y0
G90
M30
%
