%
(Faceplate_MistingTrial_CenterHoles)
(T2  D=0.25 CR=0.015 - ZMIN=-0.261 - bullnose end mill)
G90
G17
G20
G28 G91 Z0
G90

(2D Contour2)
T2 M6
S10000 M3
G54
G0 X2.615 Y5.475
Z0.6
Z0.2
G1 Z0.08 F30
Z-0.015
G18 G2 X2.64 Z-0.04 I0.025 K0 F60
G1 X2.665
G17 G3 X2.69 Y5.5 I0 J0.025
X2.4282 I-0.1309 J0
G1 X2.4281 Y4.4961
G3 X2.6901 I0.131 J0
G1 X2.69 Y5.5
G3 X2.665 Y5.525 I-0.025 J0
G1 X2.64
G18 G3 X2.615 Z-0.015 I0 K0.025
G1 Y5.475
Z-0.055 F30
G2 X2.64 Z-0.08 I0.025 K0 F60
G1 X2.665
G17 G3 X2.69 Y5.5 I0 J0.025
X2.4282 I-0.1309 J0
G1 X2.4281 Y4.4961
G3 X2.6901 I0.131 J0
G1 X2.69 Y5.5
G3 X2.665 Y5.525 I-0.025 J0
G1 X2.64
G18 G3 X2.615 Z-0.055 I0 K0.025
G1 Y5.475
Z-0.095 F30
G2 X2.64 Z-0.12 I0.025 K0 F60
G1 X2.665
G17 G3 X2.69 Y5.5 I0 J0.025
X2.4282 I-0.1309 J0
G1 X2.4281 Y4.4961
G3 X2.6901 I0.131 J0
G1 X2.69 Y5.5
G3 X2.665 Y5.525 I-0.025 J0
G1 X2.64
G18 G3 X2.615 Z-0.095 I0 K0.025
G1 Y5.475
Z-0.135 F30
G2 X2.64 Z-0.16 I0.025 K0 F60
G1 X2.665
G17 G3 X2.69 Y5.5 I0 J0.025
X2.4282 I-0.1309 J0
G1 X2.4281 Y4.4961
G3 X2.6901 I0.131 J0
G1 X2.69 Y5.5
G3 X2.665 Y5.525 I-0.025 J0
G1 X2.64
G18 G3 X2.615 Z-0.135 I0 K0.025
G1 Y5.475
Z-0.175 F30
G2 X2.64 Z-0.2 I0.025 K0 F60
G1 X2.665
G17 G3 X2.69 Y5.5 I0 J0.025
X2.4282 I-0.1309 J0
G1 X2.4281 Y4.4961
G3 X2.6901 I0.131 J0
G1 X2.69 Y5.5
G3 X2.665 Y5.525 I-0.025 J0
G1 X2.64
G18 G3 X2.615 Z-0.175 I0 K0.025
G1 Y5.475
Z-0.215 F30
G2 X2.64 Z-0.24 I0.025 K0 F60
G1 X2.665
G17 G3 X2.69 Y5.5 I0 J0.025
X2.4282 I-0.1309 J0
G1 X2.4281 Y4.4961
G3 X2.6901 I0.131 J0
G1 X2.69 Y5.5
G3 X2.665 Y5.525 I-0.025 J0
G1 X2.64
G18 G3 X2.615 Z-0.215 I0 K0.025
G1 Y5.475
Z-0.236 F30
G2 X2.64 Z-0.261 I0.025 K0 F60
G1 X2.665
G17 G3 X2.69 Y5.5 I0 J0.025
X2.4282 I-0.1309 J0
G1 X2.4281 Y4.4961
G3 X2.6901 I0.131 J0
G1 X2.69 Y5.5
G3 X2.665 Y5.525 I-0.025 J0
G1 X2.64
G18 G3 X2.615 Z-0.236 I0 K0.025
G0 Z0.2
X5.2469 Y5.475
G1 Z0.08 F30
Z-0.015
G2 X5.2719 Z-0.04 I0.025 K0 F60
G1 X5.2969
G17 G3 X5.3219 Y5.5 I0 J0.025
X5.0599 I-0.131 J0
G1 X5.06 Y4.4961
G3 X5.3218 I0.1309 J0
G1 X5.3219 Y5.5
G3 X5.2969 Y5.525 I-0.025 J0
G1 X5.2719
G18 G3 X5.2469 Z-0.015 I0 K0.025
G1 Y5.475
Z-0.055 F30
G2 X5.2719 Z-0.08 I0.025 K0 F60
G1 X5.2969
G17 G3 X5.3219 Y5.5 I0 J0.025
X5.0599 I-0.131 J0
G1 X5.06 Y4.4961
G3 X5.3218 I0.1309 J0
G1 X5.3219 Y5.5
G3 X5.2969 Y5.525 I-0.025 J0
G1 X5.2719
G18 G3 X5.2469 Z-0.055 I0 K0.025
G1 Y5.475
Z-0.095 F30
G2 X5.2719 Z-0.12 I0.025 K0 F60
G1 X5.2969
G17 G3 X5.3219 Y5.5 I0 J0.025
X5.0599 I-0.131 J0
G1 X5.06 Y4.4961
G3 X5.3218 I0.1309 J0
G1 X5.3219 Y5.5
G3 X5.2969 Y5.525 I-0.025 J0
G1 X5.2719
G18 G3 X5.2469 Z-0.095 I0 K0.025
G1 Y5.475
Z-0.135 F30
G2 X5.2719 Z-0.16 I0.025 K0 F60
G1 X5.2969
G17 G3 X5.3219 Y5.5 I0 J0.025
X5.0599 I-0.131 J0
G1 X5.06 Y4.4961
G3 X5.3218 I0.1309 J0
G1 X5.3219 Y5.5
G3 X5.2969 Y5.525 I-0.025 J0
G1 X5.2719
G18 G3 X5.2469 Z-0.135 I0 K0.025
G1 Y5.475
Z-0.175 F30
G2 X5.2719 Z-0.2 I0.025 K0 F60
G1 X5.2969
G17 G3 X5.3219 Y5.5 I0 J0.025
X5.0599 I-0.131 J0
G1 X5.06 Y4.4961
G3 X5.3218 I0.1309 J0
G1 X5.3219 Y5.5
G3 X5.2969 Y5.525 I-0.025 J0
G1 X5.2719
G18 G3 X5.2469 Z-0.175 I0 K0.025
G1 Y5.475
Z-0.215 F30
G2 X5.2719 Z-0.24 I0.025 K0 F60
G1 X5.2969
G17 G3 X5.3219 Y5.5 I0 J0.025
X5.0599 I-0.131 J0
G1 X5.06 Y4.4961
G3 X5.3218 I0.1309 J0
G1 X5.3219 Y5.5
G3 X5.2969 Y5.525 I-0.025 J0
G1 X5.2719
G18 G3 X5.2469 Z-0.215 I0 K0.025
G1 Y5.475
Z-0.236 F30
G2 X5.2719 Z-0.261 I0.025 K0 F60
G1 X5.2969
G17 G3 X5.3219 Y5.5 I0 J0.025
X5.0599 I-0.131 J0
G1 X5.06 Y4.4961
G3 X5.3218 I0.1309 J0
G1 X5.3219 Y5.5
G3 X5.2969 Y5.525 I-0.025 J0
G1 X5.2719
G18 G3 X5.2469 Z-0.236 I0 K0.025
G0 Z0.6
G17
G28 G91 Z0
G90
G28 G91 X0 Y0
G90
M30
%
