%
(head Fixer R side)
(T2  D=0.25 CR=0 - ZMIN=-0.233 - flat end mill)
G90
G17
G20
G28 G91 Z0
G90

(2D Contour4)
T2 M6
S10000 M3
G54
G0 X1.8935 Y3.6206
Z0.6
Z0.2
G1 Z0.08 F30
Z-0.015
X1.8932 Z-0.0189 F60
X1.8923 Z-0.0227
X1.8908 Z-0.0263
X1.8887 Y3.6207 Z-0.0297
X1.8862 Z-0.0327
X1.8832 Z-0.0352
X1.8799 Z-0.0373
X1.8762 Z-0.0388
X1.8724 Z-0.0397
X1.8685 Z-0.04
X1.8435 Y3.6208
G3 X1.8184 Y3.5959 I-0.0001 J-0.025
G1 X1.8051 Y0.2495
G3 X1.83 Y0.2244 I0.025 J-0.0001
G1 X1.855 Y0.2243
X1.8589 Z-0.0397
X1.8627 Z-0.0388
X1.8664 Z-0.0373
X1.8697 Y0.2242 Z-0.0352
X1.8727 Z-0.0327
X1.8752 Z-0.0297
X1.8773 Z-0.0263
X1.8788 Z-0.0227
X1.8797 Z-0.0189
X1.88 Z-0.015
G0 Z0.2
X1.8935 Y3.6206
G1 Z0.04 F30
Z-0.055
X1.8932 Z-0.0589 F60
X1.8923 Z-0.0627
X1.8908 Z-0.0663
X1.8887 Y3.6207 Z-0.0697
X1.8862 Z-0.0727
X1.8832 Z-0.0752
X1.8799 Z-0.0773
X1.8762 Z-0.0788
X1.8724 Z-0.0797
X1.8685 Z-0.08
X1.8435 Y3.6208
G3 X1.8184 Y3.5959 I-0.0001 J-0.025
G1 X1.8051 Y0.2495
G3 X1.83 Y0.2244 I0.025 J-0.0001
G1 X1.855 Y0.2243
X1.8589 Z-0.0797
X1.8627 Z-0.0788
X1.8664 Z-0.0773
X1.8697 Y0.2242 Z-0.0752
X1.8727 Z-0.0727
X1.8752 Z-0.0697
X1.8773 Z-0.0663
X1.8788 Z-0.0627
X1.8797 Z-0.0589
X1.88 Z-0.055
G0 Z0.2
X1.8935 Y3.6206
G1 Z0 F30
Z-0.095
X1.8932 Z-0.0989 F60
X1.8923 Z-0.1027
X1.8908 Z-0.1063
X1.8887 Y3.6207 Z-0.1097
X1.8862 Z-0.1127
X1.8832 Z-0.1152
X1.8799 Z-0.1173
X1.8762 Z-0.1188
X1.8724 Z-0.1197
X1.8685 Z-0.12
X1.8435 Y3.6208
G3 X1.8184 Y3.5959 I-0.0001 J-0.025
G1 X1.8051 Y0.2495
G3 X1.83 Y0.2244 I0.025 J-0.0001
G1 X1.855 Y0.2243
X1.8589 Z-0.1197
X1.8627 Z-0.1188
X1.8664 Z-0.1173
X1.8697 Y0.2242 Z-0.1152
X1.8727 Z-0.1127
X1.8752 Z-0.1097
X1.8773 Z-0.1063
X1.8788 Z-0.1027
X1.8797 Z-0.0989
X1.88 Z-0.095
G0 Z0.2
X1.8935 Y3.6206
G1 Z-0.04 F30
Z-0.135
X1.8932 Z-0.1389 F60
X1.8923 Z-0.1427
X1.8908 Z-0.1463
X1.8887 Y3.6207 Z-0.1497
X1.8862 Z-0.1527
X1.8832 Z-0.1552
X1.8799 Z-0.1573
X1.8762 Z-0.1588
X1.8724 Z-0.1597
X1.8685 Z-0.16
X1.8435 Y3.6208
G3 X1.8184 Y3.5959 I-0.0001 J-0.025
G1 X1.8051 Y0.2495
G3 X1.83 Y0.2244 I0.025 J-0.0001
G1 X1.855 Y0.2243
X1.8589 Z-0.1597
X1.8627 Z-0.1588
X1.8664 Z-0.1573
X1.8697 Y0.2242 Z-0.1552
X1.8727 Z-0.1527
X1.8752 Z-0.1497
X1.8773 Z-0.1463
X1.8788 Z-0.1427
X1.8797 Z-0.1389
X1.88 Z-0.135
G0 Z0.2
X1.8935 Y3.6206
G1 Z-0.08 F30
Z-0.175
X1.8932 Z-0.1789 F60
X1.8923 Z-0.1827
X1.8908 Z-0.1863
X1.8887 Y3.6207 Z-0.1897
X1.8862 Z-0.1927
X1.8832 Z-0.1952
X1.8799 Z-0.1973
X1.8762 Z-0.1988
X1.8724 Z-0.1997
X1.8685 Z-0.2
X1.8435 Y3.6208
G3 X1.8184 Y3.5959 I-0.0001 J-0.025
G1 X1.8051 Y0.2495
G3 X1.83 Y0.2244 I0.025 J-0.0001
G1 X1.855 Y0.2243
X1.8589 Z-0.1997
X1.8627 Z-0.1988
X1.8664 Z-0.1973
X1.8697 Y0.2242 Z-0.1952
X1.8727 Z-0.1927
X1.8752 Z-0.1897
X1.8773 Z-0.1863
X1.8788 Z-0.1827
X1.8797 Z-0.1789
X1.88 Z-0.175
G0 Z0.2
X1.8935 Y3.6206
G1 Z-0.12 F30
Z-0.208
X1.8932 Z-0.2119 F60
X1.8923 Z-0.2157
X1.8908 Z-0.2193
X1.8887 Y3.6207 Z-0.2227
X1.8862 Z-0.2257
X1.8832 Z-0.2282
X1.8799 Z-0.2303
X1.8762 Z-0.2318
X1.8724 Z-0.2327
X1.8685 Z-0.233
X1.8435 Y3.6208
G3 X1.8184 Y3.5959 I-0.0001 J-0.025
G1 X1.8051 Y0.2495
G3 X1.83 Y0.2244 I0.025 J-0.0001
G1 X1.855 Y0.2243
X1.8589 Z-0.2327
X1.8627 Z-0.2318
X1.8664 Z-0.2303
X1.8697 Y0.2242 Z-0.2282
X1.8727 Z-0.2257
X1.8752 Z-0.2227
X1.8773 Z-0.2193
X1.8788 Z-0.2157
X1.8797 Z-0.2119
X1.88 Z-0.208
G0 Z0.6
G28 G91 Z0
G90
G28 G91 X0 Y0
G90
M30
%
