%
(head Fixer holes v2)
(T2  D=0.25 CR=0 - ZMIN=-0.234 - flat end mill)
G90
G17
G20
G28 G91 Z0
G90

(2D Contour2)
T2 M6
S10000 M3
G54
G0 X0.714 Y2.5467
Z0.6
Z0.2
G1 Z0.08 F30
Z-0.015
G19 G3 Y2.5717 Z-0.04 J0.025 K0 F60
G1 Y2.5967
G17 G3 X0.689 Y2.6217 I-0.025 J0
X0.654 Y2.5867 I0 J-0.035
G1 Y0.3665
G3 X0.724 I0.035 J0
G1 X0.7239 Y2.5867
G3 X0.689 Y2.6216 I-0.0349 J0
X0.6641 Y2.5967 I0 J-0.0249
G1 X0.664 Y2.5717
G19 G2 Y2.5467 Z-0.015 J0 K0.025
G1 X0.714
Z-0.055 F30
G3 Y2.5717 Z-0.08 J0.025 K0 F60
G1 Y2.5967
G17 G3 X0.689 Y2.6217 I-0.025 J0
X0.654 Y2.5867 I0 J-0.035
G1 Y0.3665
G3 X0.724 I0.035 J0
G1 X0.7239 Y2.5867
G3 X0.689 Y2.6216 I-0.0349 J0
X0.6641 Y2.5967 I0 J-0.0249
G1 X0.664 Y2.5717
G19 G2 Y2.5467 Z-0.055 J0 K0.025
G1 X0.714
Z-0.095 F30
G3 Y2.5717 Z-0.12 J0.025 K0 F60
G1 Y2.5967
G17 G3 X0.689 Y2.6217 I-0.025 J0
X0.654 Y2.5867 I0 J-0.035
G1 Y0.3665
G3 X0.724 I0.035 J0
G1 X0.7239 Y2.5867
G3 X0.689 Y2.6216 I-0.0349 J0
X0.6641 Y2.5967 I0 J-0.0249
G1 X0.664 Y2.5717
G19 G2 Y2.5467 Z-0.095 J0 K0.025
G1 X0.714
Z-0.135 F30
G3 Y2.5717 Z-0.16 J0.025 K0 F60
G1 Y2.5967
G17 G3 X0.689 Y2.6217 I-0.025 J0
X0.654 Y2.5867 I0 J-0.035
G1 Y0.3665
G3 X0.724 I0.035 J0
G1 X0.7239 Y2.5867
G3 X0.689 Y2.6216 I-0.0349 J0
X0.6641 Y2.5967 I0 J-0.0249
G1 X0.664 Y2.5717
G19 G2 Y2.5467 Z-0.135 J0 K0.025
G1 X0.714
Z-0.175 F30
G3 Y2.5717 Z-0.2 J0.025 K0 F60
G1 Y2.5967
G17 G3 X0.689 Y2.6217 I-0.025 J0
X0.654 Y2.5867 I0 J-0.035
G1 Y0.3665
G3 X0.724 I0.035 J0
G1 X0.7239 Y2.5867
G3 X0.689 Y2.6216 I-0.0349 J0
X0.6641 Y2.5967 I0 J-0.0249
G1 X0.664 Y2.5717
G19 G2 Y2.5467 Z-0.175 J0 K0.025
G1 X0.714
Z-0.209 F30
G3 Y2.5717 Z-0.234 J0.025 K0 F60
G1 Y2.5967
G17 G3 X0.689 Y2.6217 I-0.025 J0
X0.654 Y2.5867 I0 J-0.035
G1 Y0.3665
G3 X0.724 I0.035 J0
G1 X0.7239 Y2.5867
G3 X0.689 Y2.6216 I-0.0349 J0
X0.6641 Y2.5967 I0 J-0.0249
G1 X0.664 Y2.5717
G19 G2 Y2.5467 Z-0.209 J0 K0.025
G0 Z0.2
X3.6667
G1 Z0.08 F30
Z-0.015
G3 Y2.5717 Z-0.04 J0.025 K0 F60
G1 Y2.5967
G17 G3 X3.6417 Y2.6217 I-0.025 J0
X3.6067 Y2.5867 I0 J-0.035
G1 X3.6068 Y0.3665
G3 X3.6766 I0.0349 J0
G1 X3.6767 Y2.5867
G3 X3.6417 Y2.6217 I-0.035 J0
X3.6167 Y2.5967 I0 J-0.025
G1 Y2.5717
G19 G2 Y2.5467 Z-0.015 J0 K0.025
G1 X3.6667
Z-0.055 F30
G3 Y2.5717 Z-0.08 J0.025 K0 F60
G1 Y2.5967
G17 G3 X3.6417 Y2.6217 I-0.025 J0
X3.6067 Y2.5867 I0 J-0.035
G1 X3.6068 Y0.3665
G3 X3.6766 I0.0349 J0
G1 X3.6767 Y2.5867
G3 X3.6417 Y2.6217 I-0.035 J0
X3.6167 Y2.5967 I0 J-0.025
G1 Y2.5717
G19 G2 Y2.5467 Z-0.055 J0 K0.025
G1 X3.6667
Z-0.095 F30
G3 Y2.5717 Z-0.12 J0.025 K0 F60
G1 Y2.5967
G17 G3 X3.6417 Y2.6217 I-0.025 J0
X3.6067 Y2.5867 I0 J-0.035
G1 X3.6068 Y0.3665
G3 X3.6766 I0.0349 J0
G1 X3.6767 Y2.5867
G3 X3.6417 Y2.6217 I-0.035 J0
X3.6167 Y2.5967 I0 J-0.025
G1 Y2.5717
G19 G2 Y2.5467 Z-0.095 J0 K0.025
G1 X3.6667
Z-0.135 F30
G3 Y2.5717 Z-0.16 J0.025 K0 F60
G1 Y2.5967
G17 G3 X3.6417 Y2.6217 I-0.025 J0
X3.6067 Y2.5867 I0 J-0.035
G1 X3.6068 Y0.3665
G3 X3.6766 I0.0349 J0
G1 X3.6767 Y2.5867
G3 X3.6417 Y2.6217 I-0.035 J0
X3.6167 Y2.5967 I0 J-0.025
G1 Y2.5717
G19 G2 Y2.5467 Z-0.135 J0 K0.025
G1 X3.6667
Z-0.175 F30
G3 Y2.5717 Z-0.2 J0.025 K0 F60
G1 Y2.5967
G17 G3 X3.6417 Y2.6217 I-0.025 J0
X3.6067 Y2.5867 I0 J-0.035
G1 X3.6068 Y0.3665
G3 X3.6766 I0.0349 J0
G1 X3.6767 Y2.5867
G3 X3.6417 Y2.6217 I-0.035 J0
X3.6167 Y2.5967 I0 J-0.025
G1 Y2.5717
G19 G2 Y2.5467 Z-0.175 J0 K0.025
G1 X3.6667
Z-0.209 F30
G3 Y2.5717 Z-0.234 J0.025 K0 F60
G1 Y2.5967
G17 G3 X3.6417 Y2.6217 I-0.025 J0
X3.6067 Y2.5867 I0 J-0.035
G1 X3.6068 Y0.3665
G3 X3.6766 I0.0349 J0
G1 X3.6767 Y2.5867
G3 X3.6417 Y2.6217 I-0.035 J0
X3.6167 Y2.5967 I0 J-0.025
G1 Y2.5717
G19 G2 Y2.5467 Z-0.209 J0 K0.025
G0 Z0.6
G17
G28 G91 Z0
G90
G28 G91 X0 Y0
G90
M30
%
