%
(Housing door)
(T1  D=0.25 CR=0 - ZMIN=-0.0325 - flat end mill)
G90
G17
G20
G28 G91 Z0
G90

(2D Contour3)
T1 M6
S10000 M3
G54
G0 X3.85 Y4.875
Z1
G1 Z-0.005 F30
X3.25 F60
G2 X3.125 Y5 I0 J0.125
G1 Y6.5
G2 X3.25 Y6.625 I0.125 J0
G1 X4.45
G2 X4.575 Y6.5 I0 J-0.125
G1 Y5
G2 X4.45 Y4.875 I-0.125 J0
G1 X3.85
Z-0.01 F30
X3.25 F60
G2 X3.125 Y5 I0 J0.125
G1 Y6.5
G2 X3.25 Y6.625 I0.125 J0
G1 X4.45
G2 X4.575 Y6.5 I0 J-0.125
G1 Y5
G2 X4.45 Y4.875 I-0.125 J0
G1 X3.85
Z-0.015 F30
X3.25 F60
G2 X3.125 Y5 I0 J0.125
G1 Y6.5
G2 X3.25 Y6.625 I0.125 J0
G1 X4.45
G2 X4.575 Y6.5 I0 J-0.125
G1 Y5
G2 X4.45 Y4.875 I-0.125 J0
G1 X3.85
Z-0.02 F30
X3.25 F60
G2 X3.125 Y5 I0 J0.125
G1 Y6.5
G2 X3.25 Y6.625 I0.125 J0
G1 X4.45
G2 X4.575 Y6.5 I0 J-0.125
G1 Y5
G2 X4.45 Y4.875 I-0.125 J0
G1 X3.85
Z-0.025 F30
X3.25 F60
G2 X3.125 Y5 I0 J0.125
G1 Y6.5
G2 X3.25 Y6.625 I0.125 J0
G1 X4.45
G2 X4.575 Y6.5 I0 J-0.125
G1 Y5
G2 X4.45 Y4.875 I-0.125 J0
G1 X3.85
Z-0.03 F30
X3.25 F60
G2 X3.125 Y5 I0 J0.125
G1 Y6.5
G2 X3.25 Y6.625 I0.125 J0
G1 X4.45
G2 X4.575 Y6.5 I0 J-0.125
G1 Y5
G2 X4.45 Y4.875 I-0.125 J0
G1 X3.85
Z-0.0325 F30
X3.25 F60
G2 X3.125 Y5 I0 J0.125
G1 Y6.5
G2 X3.25 Y6.625 I0.125 J0
G1 X4.45
G2 X4.575 Y6.5 I0 J-0.125
G1 Y5
G2 X4.45 Y4.875 I-0.125 J0
G1 X3.85
G0 Z1
G28 G91 Z0
G90
G28 G91 X0 Y0
G90
M30
%
