%
(Housing door)
(T1  D=0.25 CR=0 - ZMIN=-0.0325 - flat end mill)
(T2  D=0.125 CR=0 - ZMIN=-0.0325 - ball end mill)
G90
G17
G20
G28 G91 Z0
G90

(2D Contour4)
T1 M6
S16000 M3
G54
G0 X5.5125 Y1.78
Z1
G1 Z-0.005 F30
Y2.53 F40
G3 X5.3875 I-0.0625 J0
G1 Y1.78
G3 X5.5125 I0.0625 J0
G1 Z-0.01 F30
Y2.53 F40
G3 X5.3875 I-0.0625 J0
G1 Y1.78
G3 X5.5125 I0.0625 J0
G1 Z-0.015 F30
Y2.53 F40
G3 X5.3875 I-0.0625 J0
G1 Y1.78
G3 X5.5125 I0.0625 J0
G1 Z-0.02 F30
Y2.53 F40
G3 X5.3875 I-0.0625 J0
G1 Y1.78
G3 X5.5125 I0.0625 J0
G1 Z-0.025 F30
Y2.53 F40
G3 X5.3875 I-0.0625 J0
G1 Y1.78
G3 X5.5125 I0.0625 J0
G1 Z-0.03 F30
Y2.53 F40
G3 X5.3875 I-0.0625 J0
G1 Y1.78
G3 X5.5125 I0.0625 J0
G1 Z-0.0325 F30
Y2.53 F40
G3 X5.3875 I-0.0625 J0
G1 Y1.78
G3 X5.5125 I0.0625 J0
G0 Z1
M5
G28 G91 Z0
G90

(2D Contour5)
T2 M6
S16000 M3
G54
G0 X5.8475 Y2.85
Z0.6
Z0.2
G1 Z0.08 F30
Z-0.005
G3 X5.7525 I-0.0475 J0
X5.8475 I0.0475 J0
G1 Z-0.01
G3 X5.7525 I-0.0475 J0
X5.8475 I0.0475 J0
G1 Z-0.015
G3 X5.7525 I-0.0475 J0
X5.8475 I0.0475 J0
G1 Z-0.02
G3 X5.7525 I-0.0475 J0
X5.8475 I0.0475 J0
G1 Z-0.025
G3 X5.7525 I-0.0475 J0
X5.8475 I0.0475 J0
G1 Z-0.03
G3 X5.7525 I-0.0475 J0
X5.8475 I0.0475 J0
G1 Z-0.0325
G3 X5.7525 I-0.0475 J0
X5.8475 I0.0475 J0
G0 Z0.2
X5.1475
G1 Z0.08 F30
Z-0.005
G3 X5.0525 I-0.0475 J0
X5.1475 I0.0475 J0
G1 Z-0.01
G3 X5.0525 I-0.0475 J0
X5.1475 I0.0475 J0
G1 Z-0.015
G3 X5.0525 I-0.0475 J0
X5.1475 I0.0475 J0
G1 Z-0.02
G3 X5.0525 I-0.0475 J0
X5.1475 I0.0475 J0
G1 Z-0.025
G3 X5.0525 I-0.0475 J0
X5.1475 I0.0475 J0
G1 Z-0.03
G3 X5.0525 I-0.0475 J0
X5.1475 I0.0475 J0
G1 Z-0.0325
G3 X5.0525 I-0.0475 J0
X5.1475 I0.0475 J0
G0 Z0.2
Y1.46
G1 Z0.08 F30
Z-0.005
G3 X5.0525 I-0.0475 J0
X5.1475 I0.0475 J0
G1 Z-0.01
G3 X5.0525 I-0.0475 J0
X5.1475 I0.0475 J0
G1 Z-0.015
G3 X5.0525 I-0.0475 J0
X5.1475 I0.0475 J0
G1 Z-0.02
G3 X5.0525 I-0.0475 J0
X5.1475 I0.0475 J0
G1 Z-0.025
G3 X5.0525 I-0.0475 J0
X5.1475 I0.0475 J0
G1 Z-0.03
G3 X5.0525 I-0.0475 J0
X5.1475 I0.0475 J0
G1 Z-0.0325
G3 X5.0525 I-0.0475 J0
X5.1475 I0.0475 J0
G0 Z0.2
X5.8456 Y1.4734
G1 Z0.08 F30
Z-0.005
G3 X5.7544 Y1.4466 I-0.0456 J-0.0134
X5.8456 Y1.4734 I0.0456 J0.0134
G1 Z-0.01
G3 X5.7544 Y1.4466 I-0.0456 J-0.0134
X5.8456 Y1.4734 I0.0456 J0.0134
G1 Z-0.015
G3 X5.7544 Y1.4466 I-0.0456 J-0.0134
X5.8456 Y1.4734 I0.0456 J0.0134
G1 Z-0.02
G3 X5.7544 Y1.4466 I-0.0456 J-0.0134
X5.8456 Y1.4734 I0.0456 J0.0134
G1 Z-0.025
G3 X5.7544 Y1.4466 I-0.0456 J-0.0134
X5.8456 Y1.4734 I0.0456 J0.0134
G1 Z-0.03
G3 X5.7544 Y1.4466 I-0.0456 J-0.0134
X5.8456 Y1.4734 I0.0456 J0.0134
G1 Z-0.0325
G3 X5.7544 Y1.4466 I-0.0456 J-0.0134
X5.8456 Y1.4734 I0.0456 J0.0134
G0 Z0.6
M5
G28 G91 Z0
G90

(2D Contour3)
T1 M6
S16000 M3
G54
G0 X4.825 Y1.31
Z1
G1 Z-0.005 F30
Y3 F40
G2 X4.95 Y3.125 I0.125 J0
G1 X5.95
G2 X6.075 Y3 I0 J-0.125
G1 Y1.31
G2 X5.95 Y1.185 I-0.125 J0
G1 X4.95
G2 X4.825 Y1.31 I0 J0.125
G1 Z-0.01 F30
Y3 F40
G2 X4.95 Y3.125 I0.125 J0
G1 X5.95
G2 X6.075 Y3 I0 J-0.125
G1 Y1.31
G2 X5.95 Y1.185 I-0.125 J0
G1 X4.95
G2 X4.825 Y1.31 I0 J0.125
G1 Z-0.015 F30
Y3 F40
G2 X4.95 Y3.125 I0.125 J0
G1 X5.95
G2 X6.075 Y3 I0 J-0.125
G1 Y1.31
G2 X5.95 Y1.185 I-0.125 J0
G1 X4.95
G2 X4.825 Y1.31 I0 J0.125
G1 Z-0.02 F30
Y3 F40
G2 X4.95 Y3.125 I0.125 J0
G1 X5.95
G2 X6.075 Y3 I0 J-0.125
G1 Y1.31
G2 X5.95 Y1.185 I-0.125 J0
G1 X4.95
G2 X4.825 Y1.31 I0 J0.125
G1 Z-0.025 F30
Y3 F40
G2 X4.95 Y3.125 I0.125 J0
G1 X5.95
G2 X6.075 Y3 I0 J-0.125
G1 Y1.31
G2 X5.95 Y1.185 I-0.125 J0
G1 X4.95
G2 X4.825 Y1.31 I0 J0.125
G1 Z-0.03 F30
Y3 F40
G2 X4.95 Y3.125 I0.125 J0
G1 X5.95
G2 X6.075 Y3 I0 J-0.125
G1 Y1.31
G2 X5.95 Y1.185 I-0.125 J0
G1 X4.95
G2 X4.825 Y1.31 I0 J0.125
G1 Z-0.0325 F30
Y3 F40
G2 X4.95 Y3.125 I0.125 J0
G1 X5.95
G2 X6.075 Y3 I0 J-0.125
G1 Y1.31
G2 X5.95 Y1.185 I-0.125 J0
G1 X4.95
G2 X4.825 Y1.31 I0 J0.125
G0 Z1
G28 G91 Z0
G90
G28 G91 X0 Y0
G90
M30
%
