%
(Housing door)
(T1  D=0.25 CR=0 - ZMIN=-0.0325 - flat end mill)
(T2  D=0.125 CR=0 - ZMIN=-0.0325 - ball end mill)
G90
G17
G20
G28 G91 Z0
G90

(2D Contour1)
T1 M6
S10000 M3
G54
G0 X1.775 Y2.125
Z0.6
Z0.2
G1 Z0.08 F30
Z-0.005
G3 X1.65 I-0.0625 J0 F60
G1 Y1.375
G3 X1.775 I0.0625 J0
G1 Y2.125
Z-0.01 F30
G3 X1.65 I-0.0625 J0 F60
G1 Y1.375
G3 X1.775 I0.0625 J0
G1 Y2.125
Z-0.015 F30
G3 X1.65 I-0.0625 J0 F60
G1 Y1.375
G3 X1.775 I0.0625 J0
G1 Y2.125
Z-0.02 F30
G3 X1.65 I-0.0625 J0 F60
G1 Y1.375
G3 X1.775 I0.0625 J0
G1 Y2.125
Z-0.025 F30
G3 X1.65 I-0.0625 J0 F60
G1 Y1.375
G3 X1.775 I0.0625 J0
G1 Y2.125
Z-0.03 F30
G3 X1.65 I-0.0625 J0 F60
G1 Y1.375
G3 X1.775 I0.0625 J0
G1 Y2.125
Z-0.0325 F30
G3 X1.65 I-0.0625 J0 F60
G1 Y1.375
G3 X1.775 I0.0625 J0
G1 Y2.125
G0 Z0.6
M5
G28 G91 Z0
G90

(2D Contour2)
T2 M6
S10000 M3
G54
M7
G0 X2.2225 Y1.1637
Z0.6
Z0.2
G1 Z0.08 F30
Z-0.0046
G3 X2.1025 Y1.1363 I-0.06 J-0.0137
X2.2225 Y1.1637 I0.06 J0.0137
G1 Z-0.0093
G3 X2.1025 Y1.1363 I-0.06 J-0.0137
X2.2225 Y1.1637 I0.06 J0.0137
G1 Z-0.0139
G3 X2.1025 Y1.1363 I-0.06 J-0.0137
X2.2225 Y1.1637 I0.06 J0.0137
G1 Z-0.0186
G3 X2.1025 Y1.1363 I-0.06 J-0.0137
X2.2225 Y1.1637 I0.06 J0.0137
G1 Z-0.0232
G3 X2.1025 Y1.1363 I-0.06 J-0.0137
X2.2225 Y1.1637 I0.06 J0.0137
G1 Z-0.0279
G3 X2.1025 Y1.1363 I-0.06 J-0.0137
X2.2225 Y1.1637 I0.06 J0.0137
G1 Z-0.0325
G3 X2.1025 Y1.1363 I-0.06 J-0.0137
X2.2225 Y1.1637 I0.06 J0.0137
G0 Z0.2
X1.324 Y1.15
G1 Z0.08 F30
Z-0.0046
G3 X1.201 I-0.0615 J0
X1.324 I0.0615 J0
G1 Z-0.0093
G3 X1.201 I-0.0615 J0
X1.324 I0.0615 J0
G1 Z-0.0139
G3 X1.201 I-0.0615 J0
X1.324 I0.0615 J0
G1 Z-0.0186
G3 X1.201 I-0.0615 J0
X1.324 I0.0615 J0
G1 Z-0.0232
G3 X1.201 I-0.0615 J0
X1.324 I0.0615 J0
G1 Z-0.0279
G3 X1.201 I-0.0615 J0
X1.324 I0.0615 J0
G1 Z-0.0325
G3 X1.201 I-0.0615 J0
X1.324 I0.0615 J0
G0 Z0.2
Y2.35
G1 Z0.08 F30
Z-0.0046
G3 X1.201 I-0.0615 J0
X1.324 I0.0615 J0
G1 Z-0.0093
G3 X1.201 I-0.0615 J0
X1.324 I0.0615 J0
G1 Z-0.0139
G3 X1.201 I-0.0615 J0
X1.324 I0.0615 J0
G1 Z-0.0186
G3 X1.201 I-0.0615 J0
X1.324 I0.0615 J0
G1 Z-0.0232
G3 X1.201 I-0.0615 J0
X1.324 I0.0615 J0
G1 Z-0.0279
G3 X1.201 I-0.0615 J0
X1.324 I0.0615 J0
G1 Z-0.0325
G3 X1.201 I-0.0615 J0
X1.324 I0.0615 J0
G0 Z0.2
X2.224
G1 Z0.08 F30
Z-0.0046
G3 X2.101 I-0.0615 J0
X2.224 I0.0615 J0
G1 Z-0.0093
G3 X2.101 I-0.0615 J0
X2.224 I0.0615 J0
G1 Z-0.0139
G3 X2.101 I-0.0615 J0
X2.224 I0.0615 J0
G1 Z-0.0186
G3 X2.101 I-0.0615 J0
X2.224 I0.0615 J0
G1 Z-0.0232
G3 X2.101 I-0.0615 J0
X2.224 I0.0615 J0
G1 Z-0.0279
G3 X2.101 I-0.0615 J0
X2.224 I0.0615 J0
G1 Z-0.0325
G3 X2.101 I-0.0615 J0
X2.224 I0.0615 J0
G0 Z0.6
M9
M5
G28 G91 Z0
G90

(2D Contour3)
T1 M6
S10000 M3
G54
G0 X0.9875 Y1
Z0.6
Z0.2
G1 Z0.08 F30
Z-0.005
Y2.5 F60
G2 X1.1125 Y2.625 I0.125 J0
G1 X2.3125
G0 Z0.2
X2.4375 Y2.5
G1 Z0.08 F30
Z-0.005
Y1 F60
G2 X2.1875 I-0.125 J0
G0 Z0.2
X0.9875
G1 Z0.075 F30
Z-0.01
Y2.5 F60
G2 X1.1125 Y2.625 I0.125 J0
G1 X2.3125
G0 Z0.2
X2.4375 Y2.5
G1 Z0.075 F30
Z-0.01
Y1 F60
G2 X2.1875 I-0.125 J0
G0 Z0.2
X0.9875
G1 Z0.07 F30
Z-0.015
Y2.5 F60
G2 X1.1125 Y2.625 I0.125 J0
G1 X2.3125
G0 Z0.2
X2.4375 Y2.5
G1 Z0.07 F30
Z-0.015
Y1 F60
G2 X2.1875 I-0.125 J0
G0 Z0.2
X0.9875
G1 Z0.065 F30
Z-0.02
Y2.5 F60
G2 X1.1125 Y2.625 I0.125 J0
G1 X2.3125
G0 Z0.2
X2.4375 Y2.5
G1 Z0.065 F30
Z-0.02
Y1 F60
G2 X2.1875 I-0.125 J0
G0 Z0.2
X0.9875
G1 Z0.06 F30
Z-0.025
Y2.5 F60
G2 X1.1125 Y2.625 I0.125 J0
G1 X2.3125
G0 Z0.2
X2.4375 Y2.5
G1 Z0.06 F30
Z-0.025
Y1 F60
G2 X2.1875 I-0.125 J0
G0 Z0.2
X0.9875
G1 Z0.055 F30
Z-0.03
Y2.5 F60
G2 X1.1125 Y2.625 I0.125 J0
G1 X2.3125
G0 Z0.2
X2.4375 Y2.5
G1 Z0.055 F30
Z-0.03
Y1 F60
G2 X2.1875 I-0.125 J0
G0 Z0.2
X0.9875
G1 Z0.05 F30
Z-0.0325
Y2.5 F60
G2 X1.1125 Y2.625 I0.125 J0
G1 X2.3125
G0 Z0.2
X2.4375 Y2.5
G1 Z0.05 F30
Z-0.0325
Y1 F60
G2 X2.1875 I-0.125 J0
G0 Z0.6
G28 G91 Z0
G90
G28 G91 X0 Y0
G90
M30
%
