%
(Housing door)
(T1  D=0.25 CR=0 - ZMIN=-0.0325 - flat end mill)
(T2  D=0.125 CR=0 - ZMIN=-0.0325 - ball end mill)
G90
G17
G20
G28 G91 Z0
G90

(2D Contour4)
T1 M6
S16000 M3
G54
G0 X3.5125 Y2.03
Z1
G1 Z-0.005 F30
Y2.78 F40
G3 X3.3875 I-0.0625 J0
G1 Y2.03
G3 X3.5125 I0.0625 J0
G1 Z-0.01 F30
Y2.78 F40
G3 X3.3875 I-0.0625 J0
G1 Y2.03
G3 X3.5125 I0.0625 J0
G1 Z-0.015 F30
Y2.78 F40
G3 X3.3875 I-0.0625 J0
G1 Y2.03
G3 X3.5125 I0.0625 J0
G1 Z-0.02 F30
Y2.78 F40
G3 X3.3875 I-0.0625 J0
G1 Y2.03
G3 X3.5125 I0.0625 J0
G1 Z-0.025 F30
Y2.78 F40
G3 X3.3875 I-0.0625 J0
G1 Y2.03
G3 X3.5125 I0.0625 J0
G1 Z-0.03 F30
Y2.78 F40
G3 X3.3875 I-0.0625 J0
G1 Y2.03
G3 X3.5125 I0.0625 J0
G1 Z-0.0325 F30
Y2.78 F40
G3 X3.3875 I-0.0625 J0
G1 Y2.03
G3 X3.5125 I0.0625 J0
G0 Z1
M5
G28 G91 Z0
G90

(2D Contour5)
T2 M6
S16000 M3
G54
G0 X3.8475 Y3.1
Z0.6
Z0.2
G1 Z0.08 F30
Z-0.005
G3 X3.7525 I-0.0475 J0
X3.8475 I0.0475 J0
G1 Z-0.01
G3 X3.7525 I-0.0475 J0
X3.8475 I0.0475 J0
G1 Z-0.015
G3 X3.7525 I-0.0475 J0
X3.8475 I0.0475 J0
G1 Z-0.02
G3 X3.7525 I-0.0475 J0
X3.8475 I0.0475 J0
G1 Z-0.025
G3 X3.7525 I-0.0475 J0
X3.8475 I0.0475 J0
G1 Z-0.03
G3 X3.7525 I-0.0475 J0
X3.8475 I0.0475 J0
G1 Z-0.0325
G3 X3.7525 I-0.0475 J0
X3.8475 I0.0475 J0
G0 Z0.2
X3.1475
G1 Z0.08 F30
Z-0.005
G3 X3.0525 I-0.0475 J0
X3.1475 I0.0475 J0
G1 Z-0.01
G3 X3.0525 I-0.0475 J0
X3.1475 I0.0475 J0
G1 Z-0.015
G3 X3.0525 I-0.0475 J0
X3.1475 I0.0475 J0
G1 Z-0.02
G3 X3.0525 I-0.0475 J0
X3.1475 I0.0475 J0
G1 Z-0.025
G3 X3.0525 I-0.0475 J0
X3.1475 I0.0475 J0
G1 Z-0.03
G3 X3.0525 I-0.0475 J0
X3.1475 I0.0475 J0
G1 Z-0.0325
G3 X3.0525 I-0.0475 J0
X3.1475 I0.0475 J0
G0 Z0.2
Y1.71
G1 Z0.08 F30
Z-0.005
G3 X3.0525 I-0.0475 J0
X3.1475 I0.0475 J0
G1 Z-0.01
G3 X3.0525 I-0.0475 J0
X3.1475 I0.0475 J0
G1 Z-0.015
G3 X3.0525 I-0.0475 J0
X3.1475 I0.0475 J0
G1 Z-0.02
G3 X3.0525 I-0.0475 J0
X3.1475 I0.0475 J0
G1 Z-0.025
G3 X3.0525 I-0.0475 J0
X3.1475 I0.0475 J0
G1 Z-0.03
G3 X3.0525 I-0.0475 J0
X3.1475 I0.0475 J0
G1 Z-0.0325
G3 X3.0525 I-0.0475 J0
X3.1475 I0.0475 J0
G0 Z0.2
X3.8456 Y1.7234
G1 Z0.08 F30
Z-0.005
G3 X3.7544 Y1.6966 I-0.0456 J-0.0134
X3.8456 Y1.7234 I0.0456 J0.0134
G1 Z-0.01
G3 X3.7544 Y1.6966 I-0.0456 J-0.0134
X3.8456 Y1.7234 I0.0456 J0.0134
G1 Z-0.015
G3 X3.7544 Y1.6966 I-0.0456 J-0.0134
X3.8456 Y1.7234 I0.0456 J0.0134
G1 Z-0.02
G3 X3.7544 Y1.6966 I-0.0456 J-0.0134
X3.8456 Y1.7234 I0.0456 J0.0134
G1 Z-0.025
G3 X3.7544 Y1.6966 I-0.0456 J-0.0134
X3.8456 Y1.7234 I0.0456 J0.0134
G1 Z-0.03
G3 X3.7544 Y1.6966 I-0.0456 J-0.0134
X3.8456 Y1.7234 I0.0456 J0.0134
G1 Z-0.0325
G3 X3.7544 Y1.6966 I-0.0456 J-0.0134
X3.8456 Y1.7234 I0.0456 J0.0134
G0 Z0.6
M5
G28 G91 Z0
G90

(2D Contour3)
T1 M6
S16000 M3
G54
G0 X2.75 Y1.535
Z1
G1 Z0.02 F30
G18 G2 X2.775 Z-0.005 I0.025 K0 F60
G1 X2.8
G17 G3 X2.825 Y1.56 I0 J0.025
G1 Y3.25 F40
G2 X2.95 Y3.375 I0.125 J0
G1 X3.95
G2 X4.075 Y3.25 I0 J-0.125
G1 Y1.56
G2 X3.95 Y1.435 I-0.125 J0
G1 X2.95
G2 X2.825 Y1.56 I0 J0.125
G3 X2.8 Y1.585 I-0.025 J0 F60
G1 X2.775
G18 G3 X2.75 Z0.02 I0 K0.025
G1 Y1.535 F40
Z0.015 F30
G2 X2.775 Z-0.01 I0.025 K0 F60
G1 X2.8
G17 G3 X2.825 Y1.56 I0 J0.025
G1 Y3.25 F40
G2 X2.95 Y3.375 I0.125 J0
G1 X3.95
G2 X4.075 Y3.25 I0 J-0.125
G1 Y1.56
G2 X3.95 Y1.435 I-0.125 J0
G1 X2.95
G2 X2.825 Y1.56 I0 J0.125
G3 X2.8 Y1.585 I-0.025 J0 F60
G1 X2.775
G18 G3 X2.75 Z0.015 I0 K0.025
G1 Y1.535 F40
Z0.01 F30
G2 X2.775 Z-0.015 I0.025 K0 F60
G1 X2.8
G17 G3 X2.825 Y1.56 I0 J0.025
G1 Y3.25 F40
G2 X2.95 Y3.375 I0.125 J0
G1 X3.95
G2 X4.075 Y3.25 I0 J-0.125
G1 Y1.56
G2 X3.95 Y1.435 I-0.125 J0
G1 X2.95
G2 X2.825 Y1.56 I0 J0.125
G3 X2.8 Y1.585 I-0.025 J0 F60
G1 X2.775
G18 G3 X2.75 Z0.01 I0 K0.025
G1 Y1.535 F40
Z0.005 F30
G2 X2.775 Z-0.02 I0.025 K0 F60
G1 X2.8
G17 G3 X2.825 Y1.56 I0 J0.025
G1 Y3.25 F40
G2 X2.95 Y3.375 I0.125 J0
G1 X3.95
G2 X4.075 Y3.25 I0 J-0.125
G1 Y1.56
G2 X3.95 Y1.435 I-0.125 J0
G1 X2.95
G2 X2.825 Y1.56 I0 J0.125
G3 X2.8 Y1.585 I-0.025 J0 F60
G1 X2.775
G18 G3 X2.75 Z0.005 I0 K0.025
G1 Y1.535 F40
Z0 F30
G2 X2.775 Z-0.025 I0.025 K0 F60
G1 X2.8
G17 G3 X2.825 Y1.56 I0 J0.025
G1 Y3.25 F40
G2 X2.95 Y3.375 I0.125 J0
G1 X3.95
G2 X4.075 Y3.25 I0 J-0.125
G1 Y1.56
G2 X3.95 Y1.435 I-0.125 J0
G1 X2.95
G2 X2.825 Y1.56 I0 J0.125
G3 X2.8 Y1.585 I-0.025 J0 F60
G1 X2.775
G18 G3 X2.75 Z0 I0 K0.025
G1 Y1.535 F40
Z-0.005 F30
G2 X2.775 Z-0.03 I0.025 K0 F60
G1 X2.8
G17 G3 X2.825 Y1.56 I0 J0.025
G1 Y3.25 F40
G2 X2.95 Y3.375 I0.125 J0
G1 X3.95
G2 X4.075 Y3.25 I0 J-0.125
G1 Y1.56
G2 X3.95 Y1.435 I-0.125 J0
G1 X2.95
G2 X2.825 Y1.56 I0 J0.125
G3 X2.8 Y1.585 I-0.025 J0 F60
G1 X2.775
G18 G3 X2.75 Z-0.005 I0 K0.025
G1 Y1.535 F40
Z-0.0075 F30
G2 X2.775 Z-0.0325 I0.025 K0 F60
G1 X2.8
G17 G3 X2.825 Y1.56 I0 J0.025
G1 Y3.25 F40
G2 X2.95 Y3.375 I0.125 J0
G1 X3.95
G2 X4.075 Y3.25 I0 J-0.125
G1 Y1.56
G2 X3.95 Y1.435 I-0.125 J0
G1 X2.95
G2 X2.825 Y1.56 I0 J0.125
G3 X2.8 Y1.585 I-0.025 J0 F60
G1 X2.775
G18 G3 X2.75 Z-0.0075 I0 K0.025
G0 Z1
G17
G28 G91 Z0
G90
G28 G91 X0 Y0
G90
M30
%
