%
(Housing door)
(T1  D=0.25 CR=0 - ZMIN=-0.0325 - flat end mill)
(T2  D=0.125 CR=0 - ZMIN=-0.0325 - ball end mill)
G90
G17
G20
G28 G91 Z0
G90

(2D Contour4)
T1 M6
S16000 M3
G54
G0 X3.5375 Y3.125
Z1
G1 Z-0.005 F30
G3 X3.4125 I-0.0625 J0 F40
G1 Y2.375
G3 X3.5375 I0.0625 J0
G1 Y3.125
Z-0.01 F30
G3 X3.4125 I-0.0625 J0 F40
G1 Y2.375
G3 X3.5375 I0.0625 J0
G1 Y3.125
Z-0.015 F30
G3 X3.4125 I-0.0625 J0 F40
G1 Y2.375
G3 X3.5375 I0.0625 J0
G1 Y3.125
Z-0.02 F30
G3 X3.4125 I-0.0625 J0 F40
G1 Y2.375
G3 X3.5375 I0.0625 J0
G1 Y3.125
Z-0.025 F30
G3 X3.4125 I-0.0625 J0 F40
G1 Y2.375
G3 X3.5375 I0.0625 J0
G1 Y3.125
Z-0.03 F30
G3 X3.4125 I-0.0625 J0 F40
G1 Y2.375
G3 X3.5375 I0.0625 J0
G1 Y3.125
Z-0.0325 F30
G3 X3.4125 I-0.0625 J0 F40
G1 Y2.375
G3 X3.5375 I0.0625 J0
G1 Y3.125
G0 Z1
M5
G28 G91 Z0
G90

(2D Contour5)
T2 M6
S16000 M3
G54
G0 X3.0725 Y3.35
Z0.6
Z0.2
G1 Z0.08 F30
Z-0.005
G3 X2.9775 I-0.0475 J0
X3.0725 I0.0475 J0
G1 Z-0.01
G3 X2.9775 I-0.0475 J0
X3.0725 I0.0475 J0
G1 Z-0.015
G3 X2.9775 I-0.0475 J0
X3.0725 I0.0475 J0
G1 Z-0.02
G3 X2.9775 I-0.0475 J0
X3.0725 I0.0475 J0
G1 Z-0.025
G3 X2.9775 I-0.0475 J0
X3.0725 I0.0475 J0
G1 Z-0.03
G3 X2.9775 I-0.0475 J0
X3.0725 I0.0475 J0
G1 Z-0.0325
G3 X2.9775 I-0.0475 J0
X3.0725 I0.0475 J0
G0 Z0.2
X3.9725
G1 Z0.08 F30
Z-0.005
G3 X3.8775 I-0.0475 J0
X3.9725 I0.0475 J0
G1 Z-0.01
G3 X3.8775 I-0.0475 J0
X3.9725 I0.0475 J0
G1 Z-0.015
G3 X3.8775 I-0.0475 J0
X3.9725 I0.0475 J0
G1 Z-0.02
G3 X3.8775 I-0.0475 J0
X3.9725 I0.0475 J0
G1 Z-0.025
G3 X3.8775 I-0.0475 J0
X3.9725 I0.0475 J0
G1 Z-0.03
G3 X3.8775 I-0.0475 J0
X3.9725 I0.0475 J0
G1 Z-0.0325
G3 X3.8775 I-0.0475 J0
X3.9725 I0.0475 J0
G0 Z0.2
X3.9706 Y2.1634
G1 Z0.08 F30
Z-0.005
G3 X3.8794 Y2.1366 I-0.0456 J-0.0134
X3.9706 Y2.1634 I0.0456 J0.0134
G1 Z-0.01
G3 X3.8794 Y2.1366 I-0.0456 J-0.0134
X3.9706 Y2.1634 I0.0456 J0.0134
G1 Z-0.015
G3 X3.8794 Y2.1366 I-0.0456 J-0.0134
X3.9706 Y2.1634 I0.0456 J0.0134
G1 Z-0.02
G3 X3.8794 Y2.1366 I-0.0456 J-0.0134
X3.9706 Y2.1634 I0.0456 J0.0134
G1 Z-0.025
G3 X3.8794 Y2.1366 I-0.0456 J-0.0134
X3.9706 Y2.1634 I0.0456 J0.0134
G1 Z-0.03
G3 X3.8794 Y2.1366 I-0.0456 J-0.0134
X3.9706 Y2.1634 I0.0456 J0.0134
G1 Z-0.0325
G3 X3.8794 Y2.1366 I-0.0456 J-0.0134
X3.9706 Y2.1634 I0.0456 J0.0134
G0 Z0.2
X3.0725 Y2.15
G1 Z0.08 F30
Z-0.005
G3 X2.9775 I-0.0475 J0
X3.0725 I0.0475 J0
G1 Z-0.01
G3 X2.9775 I-0.0475 J0
X3.0725 I0.0475 J0
G1 Z-0.015
G3 X2.9775 I-0.0475 J0
X3.0725 I0.0475 J0
G1 Z-0.02
G3 X2.9775 I-0.0475 J0
X3.0725 I0.0475 J0
G1 Z-0.025
G3 X2.9775 I-0.0475 J0
X3.0725 I0.0475 J0
G1 Z-0.03
G3 X2.9775 I-0.0475 J0
X3.0725 I0.0475 J0
G1 Z-0.0325
G3 X2.9775 I-0.0475 J0
X3.0725 I0.0475 J0
G0 Z0.6
M5
G28 G91 Z0
G90

(2D Contour3)
T1 M6
S16000 M3
G54
G0 X3.475 Y1.875
Z1
G1 Z-0.005 F30
X2.875 F40
G2 X2.75 Y2 I0 J0.125
G1 Y3.5
G2 X2.875 Y3.625 I0.125 J0
G1 X4.075
G2 X4.2 Y3.5 I0 J-0.125
G1 Y2
G2 X4.075 Y1.875 I-0.125 J0
G1 X3.475
Z-0.01 F30
X2.875 F40
G2 X2.75 Y2 I0 J0.125
G1 Y3.5
G2 X2.875 Y3.625 I0.125 J0
G1 X4.075
G2 X4.2 Y3.5 I0 J-0.125
G1 Y2
G2 X4.075 Y1.875 I-0.125 J0
G1 X3.475
Z-0.015 F30
X2.875 F40
G2 X2.75 Y2 I0 J0.125
G1 Y3.5
G2 X2.875 Y3.625 I0.125 J0
G1 X4.075
G2 X4.2 Y3.5 I0 J-0.125
G1 Y2
G2 X4.075 Y1.875 I-0.125 J0
G1 X3.475
Z-0.02 F30
X2.875 F40
G2 X2.75 Y2 I0 J0.125
G1 Y3.5
G2 X2.875 Y3.625 I0.125 J0
G1 X4.075
G2 X4.2 Y3.5 I0 J-0.125
G1 Y2
G2 X4.075 Y1.875 I-0.125 J0
G1 X3.475
Z-0.025 F30
X2.875 F40
G2 X2.75 Y2 I0 J0.125
G1 Y3.5
G2 X2.875 Y3.625 I0.125 J0
G1 X4.075
G2 X4.2 Y3.5 I0 J-0.125
G1 Y2
G2 X4.075 Y1.875 I-0.125 J0
G1 X3.475
Z-0.03 F30
X2.875 F40
G2 X2.75 Y2 I0 J0.125
G1 Y3.5
G2 X2.875 Y3.625 I0.125 J0
G1 X4.075
G2 X4.2 Y3.5 I0 J-0.125
G1 Y2
G2 X4.075 Y1.875 I-0.125 J0
G1 X3.475
Z-0.0325 F30
X2.875 F40
G2 X2.75 Y2 I0 J0.125
G1 Y3.5
G2 X2.875 Y3.625 I0.125 J0
G1 X4.075
G2 X4.2 Y3.5 I0 J-0.125
G1 Y2
G2 X4.075 Y1.875 I-0.125 J0
G1 X3.475
G0 Z1
G28 G91 Z0
G90
G28 G91 X0 Y0
G90
M30
%
