%
(Housing door)
(T1  D=0.25 CR=0 - ZMIN=-0.0325 - flat end mill)
(T2  D=0.125 CR=0 - ZMIN=-0.0525 - ball end mill)
G90
G17
G20
G28 G91 Z0
G90

(2D Contour1)
T1 M6
S10000 M3
G54
G0 X2.1625 Y3.375
Z0.6
Z0.2
G1 Z0.08 F30
Z-0.005
G3 X2.0375 I-0.0625 J0 F60
G1 Y2.625
G3 X2.1625 I0.0625 J0
G1 Y3.375
Z-0.01 F30
G3 X2.0375 I-0.0625 J0 F60
G1 Y2.625
G3 X2.1625 I0.0625 J0
G1 Y3.375
Z-0.015 F30
G3 X2.0375 I-0.0625 J0 F60
G1 Y2.625
G3 X2.1625 I0.0625 J0
G1 Y3.375
Z-0.02 F30
G3 X2.0375 I-0.0625 J0 F60
G1 Y2.625
G3 X2.1625 I0.0625 J0
G1 Y3.375
Z-0.025 F30
G3 X2.0375 I-0.0625 J0 F60
G1 Y2.625
G3 X2.1625 I0.0625 J0
G1 Y3.375
Z-0.03 F30
G3 X2.0375 I-0.0625 J0 F60
G1 Y2.625
G3 X2.1625 I0.0625 J0
G1 Y3.375
Z-0.0325 F30
G3 X2.0375 I-0.0625 J0 F60
G1 Y2.625
G3 X2.1625 I0.0625 J0
G1 Y3.375
G0 Z0.6
M5
G28 G91 Z0
G90

(2D Contour2)
T2 M6
S10000 M3
G54
M7
G0 X1.6975 Y3.6
Z0.6
Z0.2
G1 Z0.08 F30
Z-0.0048
G3 X1.6025 I-0.0475 J0
X1.6975 I0.0475 J0
G1 Z-0.0095
G3 X1.6025 I-0.0475 J0
X1.6975 I0.0475 J0
G1 Z-0.0143
G3 X1.6025 I-0.0475 J0
X1.6975 I0.0475 J0
G1 Z-0.0191
G3 X1.6025 I-0.0475 J0
X1.6975 I0.0475 J0
G1 Z-0.0239
G3 X1.6025 I-0.0475 J0
X1.6975 I0.0475 J0
G1 Z-0.0286
G3 X1.6025 I-0.0475 J0
X1.6975 I0.0475 J0
G1 Z-0.0334
G3 X1.6025 I-0.0475 J0
X1.6975 I0.0475 J0
G1 Z-0.0382
G3 X1.6025 I-0.0475 J0
X1.6975 I0.0475 J0
G1 Z-0.043
G3 X1.6025 I-0.0475 J0
X1.6975 I0.0475 J0
G1 Z-0.0477
G3 X1.6025 I-0.0475 J0
X1.6975 I0.0475 J0
G1 Z-0.0525
G3 X1.6025 I-0.0475 J0
X1.6975 I0.0475 J0
G0 Z0.2
X2.5975
G1 Z0.08 F30
Z-0.0048
G3 X2.5025 I-0.0475 J0
X2.5975 I0.0475 J0
G1 Z-0.0095
G3 X2.5025 I-0.0475 J0
X2.5975 I0.0475 J0
G1 Z-0.0143
G3 X2.5025 I-0.0475 J0
X2.5975 I0.0475 J0
G1 Z-0.0191
G3 X2.5025 I-0.0475 J0
X2.5975 I0.0475 J0
G1 Z-0.0239
G3 X2.5025 I-0.0475 J0
X2.5975 I0.0475 J0
G1 Z-0.0286
G3 X2.5025 I-0.0475 J0
X2.5975 I0.0475 J0
G1 Z-0.0334
G3 X2.5025 I-0.0475 J0
X2.5975 I0.0475 J0
G1 Z-0.0382
G3 X2.5025 I-0.0475 J0
X2.5975 I0.0475 J0
G1 Z-0.043
G3 X2.5025 I-0.0475 J0
X2.5975 I0.0475 J0
G1 Z-0.0477
G3 X2.5025 I-0.0475 J0
X2.5975 I0.0475 J0
G1 Z-0.0525
G3 X2.5025 I-0.0475 J0
X2.5975 I0.0475 J0
G0 Z0.2
X2.5956 Y2.4134
G1 Z0.08 F30
Z-0.0048
G3 X2.5044 Y2.3866 I-0.0456 J-0.0134
X2.5956 Y2.4134 I0.0456 J0.0134
G1 Z-0.0095
G3 X2.5044 Y2.3866 I-0.0456 J-0.0134
X2.5956 Y2.4134 I0.0456 J0.0134
G1 Z-0.0143
G3 X2.5044 Y2.3866 I-0.0456 J-0.0134
X2.5956 Y2.4134 I0.0456 J0.0134
G1 Z-0.0191
G3 X2.5044 Y2.3866 I-0.0456 J-0.0134
X2.5956 Y2.4134 I0.0456 J0.0134
G1 Z-0.0239
G3 X2.5044 Y2.3866 I-0.0456 J-0.0134
X2.5956 Y2.4134 I0.0456 J0.0134
G1 Z-0.0286
G3 X2.5044 Y2.3866 I-0.0456 J-0.0134
X2.5956 Y2.4134 I0.0456 J0.0134
G1 Z-0.0334
G3 X2.5044 Y2.3866 I-0.0456 J-0.0134
X2.5956 Y2.4134 I0.0456 J0.0134
G1 Z-0.0382
G3 X2.5044 Y2.3866 I-0.0456 J-0.0134
X2.5956 Y2.4134 I0.0456 J0.0134
G1 Z-0.043
G3 X2.5044 Y2.3866 I-0.0456 J-0.0134
X2.5956 Y2.4134 I0.0456 J0.0134
G1 Z-0.0477
G3 X2.5044 Y2.3866 I-0.0456 J-0.0134
X2.5956 Y2.4134 I0.0456 J0.0134
G1 Z-0.0525
G3 X2.5044 Y2.3866 I-0.0456 J-0.0134
X2.5956 Y2.4134 I0.0456 J0.0134
G0 Z0.2
X1.6975 Y2.4
G1 Z0.08 F30
Z-0.0048
G3 X1.6025 I-0.0475 J0
X1.6975 I0.0475 J0
G1 Z-0.0095
G3 X1.6025 I-0.0475 J0
X1.6975 I0.0475 J0
G1 Z-0.0143
G3 X1.6025 I-0.0475 J0
X1.6975 I0.0475 J0
G1 Z-0.0191
G3 X1.6025 I-0.0475 J0
X1.6975 I0.0475 J0
G1 Z-0.0239
G3 X1.6025 I-0.0475 J0
X1.6975 I0.0475 J0
G1 Z-0.0286
G3 X1.6025 I-0.0475 J0
X1.6975 I0.0475 J0
G1 Z-0.0334
G3 X1.6025 I-0.0475 J0
X1.6975 I0.0475 J0
G1 Z-0.0382
G3 X1.6025 I-0.0475 J0
X1.6975 I0.0475 J0
G1 Z-0.043
G3 X1.6025 I-0.0475 J0
X1.6975 I0.0475 J0
G1 Z-0.0477
G3 X1.6025 I-0.0475 J0
X1.6975 I0.0475 J0
G1 Z-0.0525
G3 X1.6025 I-0.0475 J0
X1.6975 I0.0475 J0
G0 Z0.6
M9
M5
G28 G91 Z0
G90

(2D Contour3)
T1 M6
S10000 M3
G54
G0 X2.1 Y2.125
Z0.6
Z0.2
G1 Z0.08 F30
Z-0.005
X1.5 F60
G2 X1.375 Y2.25 I0 J0.125
G1 Y3.75
G2 X1.5 Y3.875 I0.125 J0
G1 X2.7
G2 X2.825 Y3.75 I0 J-0.125
G1 Y2.25
G2 X2.7 Y2.125 I-0.125 J0
G1 X2.1
Z-0.01 F30
X1.5 F60
G2 X1.375 Y2.25 I0 J0.125
G1 Y3.75
G2 X1.5 Y3.875 I0.125 J0
G1 X2.7
G2 X2.825 Y3.75 I0 J-0.125
G1 Y2.25
G2 X2.7 Y2.125 I-0.125 J0
G1 X2.1
Z-0.015 F30
X1.5 F60
G2 X1.375 Y2.25 I0 J0.125
G1 Y3.75
G2 X1.5 Y3.875 I0.125 J0
G1 X2.7
G2 X2.825 Y3.75 I0 J-0.125
G1 Y2.25
G2 X2.7 Y2.125 I-0.125 J0
G1 X2.1
Z-0.02 F30
X1.5 F60
G2 X1.375 Y2.25 I0 J0.125
G1 Y3.75
G2 X1.5 Y3.875 I0.125 J0
G1 X2.7
G2 X2.825 Y3.75 I0 J-0.125
G1 Y2.25
G2 X2.7 Y2.125 I-0.125 J0
G1 X2.1
Z-0.025 F30
X1.5 F60
G2 X1.375 Y2.25 I0 J0.125
G1 Y3.75
G2 X1.5 Y3.875 I0.125 J0
G1 X2.7
G2 X2.825 Y3.75 I0 J-0.125
G1 Y2.25
G2 X2.7 Y2.125 I-0.125 J0
G1 X2.1
Z-0.03 F30
X1.5 F60
G2 X1.375 Y2.25 I0 J0.125
G1 Y3.75
G2 X1.5 Y3.875 I0.125 J0
G1 X2.7
G2 X2.825 Y3.75 I0 J-0.125
G1 Y2.25
G2 X2.7 Y2.125 I-0.125 J0
G1 X2.1
Z-0.0325 F30
X1.5 F60
G2 X1.375 Y2.25 I0 J0.125
G1 Y3.75
G2 X1.5 Y3.875 I0.125 J0
G1 X2.7
G2 X2.825 Y3.75 I0 J-0.125
G1 Y2.25
G2 X2.7 Y2.125 I-0.125 J0
G1 X2.1
G0 Z0.6
G28 G91 Z0
G90
G28 G91 X0 Y0
G90
M30
%
