%
(Housing door)
(T1  D=0.25 CR=0 - ZMIN=-0.0325 - flat end mill)
(T2  D=0.125 CR=0 - ZMIN=-0.0325 - ball end mill)
G90
G17
G20
G28 G91 Z0
G90

(2D Contour1)
T1 M6
S10000 M3
G54
G0 X1.2187 Y1.375
Z0.6
Z0.2
G1 Z0.08 F30
Z-0.005
G3 X1.0937 I-0.0625 J0 F60
G1 X1.0938 Y0.625
G3 X1.2188 I0.0625 J0
G1 X1.2187 Y1.375
Z-0.01 F30
G3 X1.0937 I-0.0625 J0 F60
G1 X1.0938 Y0.625
G3 X1.2188 I0.0625 J0
G1 X1.2187 Y1.375
Z-0.015 F30
G3 X1.0937 I-0.0625 J0 F60
G1 X1.0938 Y0.625
G3 X1.2188 I0.0625 J0
G1 X1.2187 Y1.375
Z-0.02 F30
G3 X1.0937 I-0.0625 J0 F60
G1 X1.0938 Y0.625
G3 X1.2188 I0.0625 J0
G1 X1.2187 Y1.375
Z-0.025 F30
G3 X1.0937 I-0.0625 J0 F60
G1 X1.0938 Y0.625
G3 X1.2188 I0.0625 J0
G1 X1.2187 Y1.375
Z-0.03 F30
G3 X1.0937 I-0.0625 J0 F60
G1 X1.0938 Y0.625
G3 X1.2188 I0.0625 J0
G1 X1.2187 Y1.375
Z-0.0325 F30
G3 X1.0937 I-0.0625 J0 F60
G1 X1.0938 Y0.625
G3 X1.2188 I0.0625 J0
G1 X1.2187 Y1.375
G0 Z0.6
M5
G28 G91 Z0
G90

(2D Contour2)
T2 M6
S10000 M3
G54
M7
G0 X1.6662 Y0.4137
Z0.6
Z0.2
G1 Z0.08 F30
Z-0.0046
G3 X1.5464 Y0.3863 I-0.0599 J-0.0137
X1.6662 Y0.4137 I0.0599 J0.0137
G1 Z-0.0093
G3 X1.5464 Y0.3863 I-0.0599 J-0.0137
X1.6662 Y0.4137 I0.0599 J0.0137
G1 Z-0.0139
G3 X1.5464 Y0.3863 I-0.0599 J-0.0137
X1.6662 Y0.4137 I0.0599 J0.0137
G1 Z-0.0186
G3 X1.5464 Y0.3863 I-0.0599 J-0.0137
X1.6662 Y0.4137 I0.0599 J0.0137
G1 Z-0.0232
G3 X1.5464 Y0.3863 I-0.0599 J-0.0137
X1.6662 Y0.4137 I0.0599 J0.0137
G1 Z-0.0279
G3 X1.5464 Y0.3863 I-0.0599 J-0.0137
X1.6662 Y0.4137 I0.0599 J0.0137
G1 Z-0.0325
G3 X1.5464 Y0.3863 I-0.0599 J-0.0137
X1.6662 Y0.4137 I0.0599 J0.0137
G0 Z0.2
X0.7678 Y0.4
G1 Z0.08 F30
Z-0.0046
G3 X0.6446 I-0.0616 J0
X0.7678 I0.0616 J0
G1 Z-0.0093
G3 X0.6446 I-0.0616 J0
X0.7678 I0.0616 J0
G1 Z-0.0139
G3 X0.6446 I-0.0616 J0
X0.7678 I0.0616 J0
G1 Z-0.0186
G3 X0.6446 I-0.0616 J0
X0.7678 I0.0616 J0
G1 Z-0.0232
G3 X0.6446 I-0.0616 J0
X0.7678 I0.0616 J0
G1 Z-0.0279
G3 X0.6446 I-0.0616 J0
X0.7678 I0.0616 J0
G1 Z-0.0325
G3 X0.6446 I-0.0616 J0
X0.7678 I0.0616 J0
G0 Z0.2
Y1.6
G1 Z0.08 F30
Z-0.0046
G3 X0.6446 I-0.0616 J0
X0.7678 I0.0616 J0
G1 Z-0.0093
G3 X0.6446 I-0.0616 J0
X0.7678 I0.0616 J0
G1 Z-0.0139
G3 X0.6446 I-0.0616 J0
X0.7678 I0.0616 J0
G1 Z-0.0186
G3 X0.6446 I-0.0616 J0
X0.7678 I0.0616 J0
G1 Z-0.0232
G3 X0.6446 I-0.0616 J0
X0.7678 I0.0616 J0
G1 Z-0.0279
G3 X0.6446 I-0.0616 J0
X0.7678 I0.0616 J0
G1 Z-0.0325
G3 X0.6446 I-0.0616 J0
X0.7678 I0.0616 J0
G0 Z0.2
X1.6678
G1 Z0.08 F30
Z-0.0046
G3 X1.5448 I-0.0615 J0
X1.6678 I0.0615 J0
G1 Z-0.0093
G3 X1.5448 I-0.0615 J0
X1.6678 I0.0615 J0
G1 Z-0.0139
G3 X1.5448 I-0.0615 J0
X1.6678 I0.0615 J0
G1 Z-0.0186
G3 X1.5448 I-0.0615 J0
X1.6678 I0.0615 J0
G1 Z-0.0232
G3 X1.5448 I-0.0615 J0
X1.6678 I0.0615 J0
G1 Z-0.0279
G3 X1.5448 I-0.0615 J0
X1.6678 I0.0615 J0
G1 Z-0.0325
G3 X1.5448 I-0.0615 J0
X1.6678 I0.0615 J0
G0 Z0.6
M9
M5
G28 G91 Z0
G90

(2D Contour3)
T1 M6
S10000 M3
G54
G0 X0.4312 Y0.25
Z0.6
Z0.2
G1 Z0.08 F30
Z-0.005
Y1.75 F60
G2 X0.5562 Y1.875 I0.125 J0
G1 X1.7562
G0 Z0.2
X1.8812 Y1.75
G1 Z0.08 F30
Z-0.005
Y0.25 F60
G2 X1.6312 I-0.125 J0
G0 X1.6313 Z0.2
X0.4312
G1 Z0.075 F30
Z-0.01
Y1.75 F60
G2 X0.5562 Y1.875 I0.125 J0
G1 X1.7562
G0 Z0.2
X1.8812 Y1.75
G1 Z0.075 F30
Z-0.01
Y0.25 F60
G2 X1.6312 I-0.125 J0
G0 X1.6313 Z0.2
X0.4312
G1 Z0.07 F30
Z-0.015
Y1.75 F60
G2 X0.5562 Y1.875 I0.125 J0
G1 X1.7562
G0 Z0.2
X1.8812 Y1.75
G1 Z0.07 F30
Z-0.015
Y0.25 F60
G2 X1.6312 I-0.125 J0
G0 X1.6313 Z0.2
X0.4312
G1 Z0.065 F30
Z-0.02
Y1.75 F60
G2 X0.5562 Y1.875 I0.125 J0
G1 X1.7562
G0 Z0.2
X1.8812 Y1.75
G1 Z0.065 F30
Z-0.02
Y0.25 F60
G2 X1.6312 I-0.125 J0
G0 X1.6313 Z0.2
X0.4312
G1 Z0.06 F30
Z-0.025
Y1.75 F60
G2 X0.5562 Y1.875 I0.125 J0
G1 X1.7562
G0 Z0.2
X1.8812 Y1.75
G1 Z0.06 F30
Z-0.025
Y0.25 F60
G2 X1.6312 I-0.125 J0
G0 X1.6313 Z0.2
X0.4312
G1 Z0.055 F30
Z-0.03
Y1.75 F60
G2 X0.5562 Y1.875 I0.125 J0
G1 X1.7562
G0 Z0.2
X1.8812 Y1.75
G1 Z0.055 F30
Z-0.03
Y0.25 F60
G2 X1.6312 I-0.125 J0
G0 X1.6313 Z0.2
X0.4312
G1 Z0.05 F30
Z-0.0325
Y1.75 F60
G2 X0.5562 Y1.875 I0.125 J0
G1 X1.7562
G0 Z0.2
X1.8812 Y1.75
G1 Z0.05 F30
Z-0.0325
Y0.25 F60
G2 X1.6312 I-0.125 J0
G0 X1.6313 Z0.6
G28 G91 Z0
G90
G28 G91 X0 Y0
G90
M30
%
