%
(Housing door)
(T1  D=0.25 CR=0 - ZMIN=-0.0325 - flat end mill)
(T2  D=0.125 CR=0 - ZMIN=-0.0325 - ball end mill)
G90
G17
G20
G28 G91 Z0
G90

(2D Contour4)
T1 M6
S16000 M3
G54
G0 X1.6625 Y2.625
Z1
G1 Z-0.005 F30
G3 X1.5375 I-0.0625 J0 F40
G1 Y1.875
G3 X1.6625 I0.0625 J0
G1 Y2.625
Z-0.01 F30
G3 X1.5375 I-0.0625 J0 F40
G1 Y1.875
G3 X1.6625 I0.0625 J0
G1 Y2.625
Z-0.015 F30
G3 X1.5375 I-0.0625 J0 F40
G1 Y1.875
G3 X1.6625 I0.0625 J0
G1 Y2.625
Z-0.02 F30
G3 X1.5375 I-0.0625 J0 F40
G1 Y1.875
G3 X1.6625 I0.0625 J0
G1 Y2.625
Z-0.025 F30
G3 X1.5375 I-0.0625 J0 F40
G1 Y1.875
G3 X1.6625 I0.0625 J0
G1 Y2.625
Z-0.03 F30
G3 X1.5375 I-0.0625 J0 F40
G1 Y1.875
G3 X1.6625 I0.0625 J0
G1 Y2.625
Z-0.0325 F30
G3 X1.5375 I-0.0625 J0 F40
G1 Y1.875
G3 X1.6625 I0.0625 J0
G1 Y2.625
G0 Z1
M5
G28 G91 Z0
G90

(2D Contour5)
T2 M6
S16000 M3
G54
G0 X1.1975 Y2.85
Z0.6
Z0.2
G1 Z0.08 F30
Z-0.005
G3 X1.1025 I-0.0475 J0
X1.1975 I0.0475 J0
G1 Z-0.01
G3 X1.1025 I-0.0475 J0
X1.1975 I0.0475 J0
G1 Z-0.015
G3 X1.1025 I-0.0475 J0
X1.1975 I0.0475 J0
G1 Z-0.02
G3 X1.1025 I-0.0475 J0
X1.1975 I0.0475 J0
G1 Z-0.025
G3 X1.1025 I-0.0475 J0
X1.1975 I0.0475 J0
G1 Z-0.03
G3 X1.1025 I-0.0475 J0
X1.1975 I0.0475 J0
G1 Z-0.0325
G3 X1.1025 I-0.0475 J0
X1.1975 I0.0475 J0
G0 Z0.2
X2.0975
G1 Z0.08 F30
Z-0.005
G3 X2.0025 I-0.0475 J0
X2.0975 I0.0475 J0
G1 Z-0.01
G3 X2.0025 I-0.0475 J0
X2.0975 I0.0475 J0
G1 Z-0.015
G3 X2.0025 I-0.0475 J0
X2.0975 I0.0475 J0
G1 Z-0.02
G3 X2.0025 I-0.0475 J0
X2.0975 I0.0475 J0
G1 Z-0.025
G3 X2.0025 I-0.0475 J0
X2.0975 I0.0475 J0
G1 Z-0.03
G3 X2.0025 I-0.0475 J0
X2.0975 I0.0475 J0
G1 Z-0.0325
G3 X2.0025 I-0.0475 J0
X2.0975 I0.0475 J0
G0 Z0.2
X2.0956 Y1.6634
G1 Z0.08 F30
Z-0.005
G3 X2.0044 Y1.6366 I-0.0456 J-0.0134
X2.0956 Y1.6634 I0.0456 J0.0134
G1 Z-0.01
G3 X2.0044 Y1.6366 I-0.0456 J-0.0134
X2.0956 Y1.6634 I0.0456 J0.0134
G1 Z-0.015
G3 X2.0044 Y1.6366 I-0.0456 J-0.0134
X2.0956 Y1.6634 I0.0456 J0.0134
G1 Z-0.02
G3 X2.0044 Y1.6366 I-0.0456 J-0.0134
X2.0956 Y1.6634 I0.0456 J0.0134
G1 Z-0.025
G3 X2.0044 Y1.6366 I-0.0456 J-0.0134
X2.0956 Y1.6634 I0.0456 J0.0134
G1 Z-0.03
G3 X2.0044 Y1.6366 I-0.0456 J-0.0134
X2.0956 Y1.6634 I0.0456 J0.0134
G1 Z-0.0325
G3 X2.0044 Y1.6366 I-0.0456 J-0.0134
X2.0956 Y1.6634 I0.0456 J0.0134
G0 Z0.2
X1.1975 Y1.65
G1 Z0.08 F30
Z-0.005
G3 X1.1025 I-0.0475 J0
X1.1975 I0.0475 J0
G1 Z-0.01
G3 X1.1025 I-0.0475 J0
X1.1975 I0.0475 J0
G1 Z-0.015
G3 X1.1025 I-0.0475 J0
X1.1975 I0.0475 J0
G1 Z-0.02
G3 X1.1025 I-0.0475 J0
X1.1975 I0.0475 J0
G1 Z-0.025
G3 X1.1025 I-0.0475 J0
X1.1975 I0.0475 J0
G1 Z-0.03
G3 X1.1025 I-0.0475 J0
X1.1975 I0.0475 J0
G1 Z-0.0325
G3 X1.1025 I-0.0475 J0
X1.1975 I0.0475 J0
G0 Z0.6
M5
G28 G91 Z0
G90

(2D Contour3)
T1 M6
S16000 M3
G54
G0 X1.6 Y1.375
Z1
G1 Z-0.005 F30
X1 F40
G2 X0.875 Y1.5 I0 J0.125
G1 Y3
G2 X1 Y3.125 I0.125 J0
G1 X2.2
G2 X2.325 Y3 I0 J-0.125
G1 Y1.5
G2 X2.2 Y1.375 I-0.125 J0
G1 X1.6
Z-0.01 F30
X1 F40
G2 X0.875 Y1.5 I0 J0.125
G1 Y3
G2 X1 Y3.125 I0.125 J0
G1 X2.2
G2 X2.325 Y3 I0 J-0.125
G1 Y1.5
G2 X2.2 Y1.375 I-0.125 J0
G1 X1.6
Z-0.015 F30
X1 F40
G2 X0.875 Y1.5 I0 J0.125
G1 Y3
G2 X1 Y3.125 I0.125 J0
G1 X2.2
G2 X2.325 Y3 I0 J-0.125
G1 Y1.5
G2 X2.2 Y1.375 I-0.125 J0
G1 X1.6
Z-0.02 F30
X1 F40
G2 X0.875 Y1.5 I0 J0.125
G1 Y3
G2 X1 Y3.125 I0.125 J0
G1 X2.2
G2 X2.325 Y3 I0 J-0.125
G1 Y1.5
G2 X2.2 Y1.375 I-0.125 J0
G1 X1.6
Z-0.025 F30
X1 F40
G2 X0.875 Y1.5 I0 J0.125
G1 Y3
G2 X1 Y3.125 I0.125 J0
G1 X2.2
G2 X2.325 Y3 I0 J-0.125
G1 Y1.5
G2 X2.2 Y1.375 I-0.125 J0
G1 X1.6
Z-0.03 F30
X1 F40
G2 X0.875 Y1.5 I0 J0.125
G1 Y3
G2 X1 Y3.125 I0.125 J0
G1 X2.2
G2 X2.325 Y3 I0 J-0.125
G1 Y1.5
G2 X2.2 Y1.375 I-0.125 J0
G1 X1.6
Z-0.0325 F30
X1 F40
G2 X0.875 Y1.5 I0 J0.125
G1 Y3
G2 X1 Y3.125 I0.125 J0
G1 X2.2
G2 X2.325 Y3 I0 J-0.125
G1 Y1.5
G2 X2.2 Y1.375 I-0.125 J0
G1 X1.6
G0 Z1
G28 G91 Z0
G90
G28 G91 X0 Y0
G90
M30
%
