%
(Housing door)
(T3  D=0.125 CR=0 - ZMIN=-0.0325 - flat end mill)
G90
G17
G20
G28 G91 Z0
G90

(2D Contour4)
T3 M6
S10000 M3
G54
M7
G0 X8.2312 Y1.47
Z1
G1 Z-0.005 F30
Y2.22
G3 X8.1688 I-0.0312 J0
G1 Y1.47
G3 X8.2312 I0.0312 J0
G1 Z-0.01
Y2.22
G3 X8.1688 I-0.0312 J0
G1 Y1.47
G3 X8.2312 I0.0312 J0
G1 Z-0.015
Y2.22
G3 X8.1688 I-0.0312 J0
G1 Y1.47
G3 X8.2312 I0.0312 J0
G1 Z-0.02
Y2.22
G3 X8.1688 I-0.0312 J0
G1 Y1.47
G3 X8.2312 I0.0312 J0
G1 Z-0.025
Y2.22
G3 X8.1688 I-0.0312 J0
G1 Y1.47
G3 X8.2312 I0.0312 J0
G1 Z-0.03
Y2.22
G3 X8.1688 I-0.0312 J0
G1 Y1.47
G3 X8.2312 I0.0312 J0
G1 Z-0.0325
Y2.22
G3 X8.1688 I-0.0312 J0
G1 Y1.47
G3 X8.2312 I0.0312 J0
G0 Z1

(2D Contour5)
X7.8975 Y2.54
Z0.6
Z0.2
G1 Z0.08 F30
Z-0.005
G3 X7.8025 I-0.0475 J0
X7.8975 I0.0475 J0
G1 Z-0.01
G3 X7.8025 I-0.0475 J0
X7.8975 I0.0475 J0
G1 Z-0.015
G3 X7.8025 I-0.0475 J0
X7.8975 I0.0475 J0
G1 Z-0.02
G3 X7.8025 I-0.0475 J0
X7.8975 I0.0475 J0
G1 Z-0.025
G3 X7.8025 I-0.0475 J0
X7.8975 I0.0475 J0
G1 Z-0.03
G3 X7.8025 I-0.0475 J0
X7.8975 I0.0475 J0
G1 Z-0.0325
G3 X7.8025 I-0.0475 J0
X7.8975 I0.0475 J0
G0 Z0.2
X8.5975
G1 Z0.08 F30
Z-0.005
G3 X8.5025 I-0.0475 J0
X8.5975 I0.0475 J0
G1 Z-0.01
G3 X8.5025 I-0.0475 J0
X8.5975 I0.0475 J0
G1 Z-0.015
G3 X8.5025 I-0.0475 J0
X8.5975 I0.0475 J0
G1 Z-0.02
G3 X8.5025 I-0.0475 J0
X8.5975 I0.0475 J0
G1 Z-0.025
G3 X8.5025 I-0.0475 J0
X8.5975 I0.0475 J0
G1 Z-0.03
G3 X8.5025 I-0.0475 J0
X8.5975 I0.0475 J0
G1 Z-0.0325
G3 X8.5025 I-0.0475 J0
X8.5975 I0.0475 J0
G0 Z0.2
X8.5956 Y1.1634
G1 Z0.08 F30
Z-0.005
G3 X8.5044 Y1.1366 I-0.0456 J-0.0134
X8.5956 Y1.1634 I0.0456 J0.0134
G1 Z-0.01
G3 X8.5044 Y1.1366 I-0.0456 J-0.0134
X8.5956 Y1.1634 I0.0456 J0.0134
G1 Z-0.015
G3 X8.5044 Y1.1366 I-0.0456 J-0.0134
X8.5956 Y1.1634 I0.0456 J0.0134
G1 Z-0.02
G3 X8.5044 Y1.1366 I-0.0456 J-0.0134
X8.5956 Y1.1634 I0.0456 J0.0134
G1 Z-0.025
G3 X8.5044 Y1.1366 I-0.0456 J-0.0134
X8.5956 Y1.1634 I0.0456 J0.0134
G1 Z-0.03
G3 X8.5044 Y1.1366 I-0.0456 J-0.0134
X8.5956 Y1.1634 I0.0456 J0.0134
G1 Z-0.0325
G3 X8.5044 Y1.1366 I-0.0456 J-0.0134
X8.5956 Y1.1634 I0.0456 J0.0134
G0 Z0.2
X7.8975 Y1.15
G1 Z0.08 F30
Z-0.005
G3 X7.8025 I-0.0475 J0
X7.8975 I0.0475 J0
G1 Z-0.01
G3 X7.8025 I-0.0475 J0
X7.8975 I0.0475 J0
G1 Z-0.015
G3 X7.8025 I-0.0475 J0
X7.8975 I0.0475 J0
G1 Z-0.02
G3 X7.8025 I-0.0475 J0
X7.8975 I0.0475 J0
G1 Z-0.025
G3 X7.8025 I-0.0475 J0
X7.8975 I0.0475 J0
G1 Z-0.03
G3 X7.8025 I-0.0475 J0
X7.8975 I0.0475 J0
G1 Z-0.0325
G3 X7.8025 I-0.0475 J0
X7.8975 I0.0475 J0
G0 Z0.6

(2D Contour3)
Z1
X8.7625 Y2.6675
G1 Z-0.005 F30
Y1
G2 X8.7 Y0.9375 I-0.0625 J0
G1 X7.7
G2 X7.6375 Y1 I0 J0.0625
G1 Y2.69
G2 X7.7 Y2.7525 I0.0625 J0
G1 X8.7
G2 X8.7625 Y2.69 I0 J-0.0625
G1 Y2.6675
Z-0.01
Y1
G2 X8.7 Y0.9375 I-0.0625 J0
G1 X7.7
G2 X7.6375 Y1 I0 J0.0625
G1 Y2.69
G2 X7.7 Y2.7525 I0.0625 J0
G1 X8.7
G2 X8.7625 Y2.69 I0 J-0.0625
G1 Y2.6675
Z-0.015
Y1
G2 X8.7 Y0.9375 I-0.0625 J0
G1 X7.7
G2 X7.6375 Y1 I0 J0.0625
G1 Y2.69
G2 X7.7 Y2.7525 I0.0625 J0
G1 X8.7
G2 X8.7625 Y2.69 I0 J-0.0625
G1 Y2.6675
Z-0.02
Y1
G2 X8.7 Y0.9375 I-0.0625 J0
G1 X7.7
G2 X7.6375 Y1 I0 J0.0625
G1 Y2.69
G2 X7.7 Y2.7525 I0.0625 J0
G1 X8.7
G2 X8.7625 Y2.69 I0 J-0.0625
G1 Y2.6675
Z-0.025
Y1
G2 X8.7 Y0.9375 I-0.0625 J0
G1 X7.7
G2 X7.6375 Y1 I0 J0.0625
G1 Y2.69
G2 X7.7 Y2.7525 I0.0625 J0
G1 X8.7
G2 X8.7625 Y2.69 I0 J-0.0625
G1 Y2.6675
Z-0.03
Y1
G2 X8.7 Y0.9375 I-0.0625 J0
G1 X7.7
G2 X7.6375 Y1 I0 J0.0625
G1 Y2.69
G2 X7.7 Y2.7525 I0.0625 J0
G1 X8.7
G2 X8.7625 Y2.69 I0 J-0.0625
G1 Y2.6675
Z-0.0325
Y1
G2 X8.7 Y0.9375 I-0.0625 J0
G1 X7.7
G2 X7.6375 Y1 I0 J0.0625
G1 Y2.69
G2 X7.7 Y2.7525 I0.0625 J0
G1 X8.7
G2 X8.7625 Y2.69 I0 J-0.0625
G1 Y2.6675
G0 Z1
M9
G28 G91 Z0
G90
G28 G91 X0 Y0
G90
M30
%
