%
(Housing door)
(T1  D=0.25 CR=0 - ZMIN=-0.0325 - flat end mill)
(T2  D=0.125 CR=0 - ZMIN=-0.0525 - ball end mill)
G90
G17
G20
G28 G91 Z0
G90

(2D Contour1)
T1 M6
S10000 M3
G54
G0 X3.9125 Y6.125
Z1
G1 Z-0.005 F30
G3 X3.7875 I-0.0625 J0 F60
G1 Y5.375
G3 X3.9125 I0.0625 J0
G1 Y6.125
Z-0.01 F30
G3 X3.7875 I-0.0625 J0 F60
G1 Y5.375
G3 X3.9125 I0.0625 J0
G1 Y6.125
Z-0.015 F30
G3 X3.7875 I-0.0625 J0 F60
G1 Y5.375
G3 X3.9125 I0.0625 J0
G1 Y6.125
Z-0.02 F30
G3 X3.7875 I-0.0625 J0 F60
G1 Y5.375
G3 X3.9125 I0.0625 J0
G1 Y6.125
Z-0.025 F30
G3 X3.7875 I-0.0625 J0 F60
G1 Y5.375
G3 X3.9125 I0.0625 J0
G1 Y6.125
Z-0.03 F30
G3 X3.7875 I-0.0625 J0 F60
G1 Y5.375
G3 X3.9125 I0.0625 J0
G1 Y6.125
Z-0.0325 F30
G3 X3.7875 I-0.0625 J0 F60
G1 Y5.375
G3 X3.9125 I0.0625 J0
G1 Y6.125
G0 Z1
M5
G28 G91 Z0
G90

(2D Contour2)
T2 M6
S10000 M3
G54
M7
G0 X3.4475 Y6.35
Z1
G1 Z-0.0048 F30
G3 X3.3525 I-0.0475 J0
X3.4475 I0.0475 J0
G1 Z-0.0095
G3 X3.3525 I-0.0475 J0
X3.4475 I0.0475 J0
G1 Z-0.0143
G3 X3.3525 I-0.0475 J0
X3.4475 I0.0475 J0
G1 Z-0.0191
G3 X3.3525 I-0.0475 J0
X3.4475 I0.0475 J0
G1 Z-0.0239
G3 X3.3525 I-0.0475 J0
X3.4475 I0.0475 J0
G1 Z-0.0286
G3 X3.3525 I-0.0475 J0
X3.4475 I0.0475 J0
G1 Z-0.0334
G3 X3.3525 I-0.0475 J0
X3.4475 I0.0475 J0
G1 Z-0.0382
G3 X3.3525 I-0.0475 J0
X3.4475 I0.0475 J0
G1 Z-0.043
G3 X3.3525 I-0.0475 J0
X3.4475 I0.0475 J0
G1 Z-0.0477
G3 X3.3525 I-0.0475 J0
X3.4475 I0.0475 J0
G1 Z-0.0525
G3 X3.3525 I-0.0475 J0
X3.4475 I0.0475 J0
G0 Z1
X4.3475
G1 Z-0.0048 F30
G3 X4.2525 I-0.0475 J0
X4.3475 I0.0475 J0
G1 Z-0.0095
G3 X4.2525 I-0.0475 J0
X4.3475 I0.0475 J0
G1 Z-0.0143
G3 X4.2525 I-0.0475 J0
X4.3475 I0.0475 J0
G1 Z-0.0191
G3 X4.2525 I-0.0475 J0
X4.3475 I0.0475 J0
G1 Z-0.0239
G3 X4.2525 I-0.0475 J0
X4.3475 I0.0475 J0
G1 Z-0.0286
G3 X4.2525 I-0.0475 J0
X4.3475 I0.0475 J0
G1 Z-0.0334
G3 X4.2525 I-0.0475 J0
X4.3475 I0.0475 J0
G1 Z-0.0382
G3 X4.2525 I-0.0475 J0
X4.3475 I0.0475 J0
G1 Z-0.043
G3 X4.2525 I-0.0475 J0
X4.3475 I0.0475 J0
G1 Z-0.0477
G3 X4.2525 I-0.0475 J0
X4.3475 I0.0475 J0
G1 Z-0.0525
G3 X4.2525 I-0.0475 J0
X4.3475 I0.0475 J0
G0 Z1
X4.3456 Y5.1634
G1 Z-0.0048 F30
G3 X4.2544 Y5.1366 I-0.0456 J-0.0134
X4.3456 Y5.1634 I0.0456 J0.0134
G1 Z-0.0095
G3 X4.2544 Y5.1366 I-0.0456 J-0.0134
X4.3456 Y5.1634 I0.0456 J0.0134
G1 Z-0.0143
G3 X4.2544 Y5.1366 I-0.0456 J-0.0134
X4.3456 Y5.1634 I0.0456 J0.0134
G1 Z-0.0191
G3 X4.2544 Y5.1366 I-0.0456 J-0.0134
X4.3456 Y5.1634 I0.0456 J0.0134
G1 Z-0.0239
G3 X4.2544 Y5.1366 I-0.0456 J-0.0134
X4.3456 Y5.1634 I0.0456 J0.0134
G1 Z-0.0286
G3 X4.2544 Y5.1366 I-0.0456 J-0.0134
X4.3456 Y5.1634 I0.0456 J0.0134
G1 Z-0.0334
G3 X4.2544 Y5.1366 I-0.0456 J-0.0134
X4.3456 Y5.1634 I0.0456 J0.0134
G1 Z-0.0382
G3 X4.2544 Y5.1366 I-0.0456 J-0.0134
X4.3456 Y5.1634 I0.0456 J0.0134
G1 Z-0.043
G3 X4.2544 Y5.1366 I-0.0456 J-0.0134
X4.3456 Y5.1634 I0.0456 J0.0134
G1 Z-0.0477
G3 X4.2544 Y5.1366 I-0.0456 J-0.0134
X4.3456 Y5.1634 I0.0456 J0.0134
G1 Z-0.0525
G3 X4.2544 Y5.1366 I-0.0456 J-0.0134
X4.3456 Y5.1634 I0.0456 J0.0134
G0 Z1
X3.4475 Y5.15
G1 Z-0.0048 F30
G3 X3.3525 I-0.0475 J0
X3.4475 I0.0475 J0
G1 Z-0.0095
G3 X3.3525 I-0.0475 J0
X3.4475 I0.0475 J0
G1 Z-0.0143
G3 X3.3525 I-0.0475 J0
X3.4475 I0.0475 J0
G1 Z-0.0191
G3 X3.3525 I-0.0475 J0
X3.4475 I0.0475 J0
G1 Z-0.0239
G3 X3.3525 I-0.0475 J0
X3.4475 I0.0475 J0
G1 Z-0.0286
G3 X3.3525 I-0.0475 J0
X3.4475 I0.0475 J0
G1 Z-0.0334
G3 X3.3525 I-0.0475 J0
X3.4475 I0.0475 J0
G1 Z-0.0382
G3 X3.3525 I-0.0475 J0
X3.4475 I0.0475 J0
G1 Z-0.043
G3 X3.3525 I-0.0475 J0
X3.4475 I0.0475 J0
G1 Z-0.0477
G3 X3.3525 I-0.0475 J0
X3.4475 I0.0475 J0
G1 Z-0.0525
G3 X3.3525 I-0.0475 J0
X3.4475 I0.0475 J0
G0 Z1
M9
M5
G28 G91 Z0
G90

(2D Contour3)
T1 M6
S10000 M3
G54
G0 X3.85 Y4.875
Z1
G1 Z-0.005 F30
X3.25 F60
G2 X3.125 Y5 I0 J0.125
G1 Y6.5
G2 X3.25 Y6.625 I0.125 J0
G1 X4.45
G2 X4.575 Y6.5 I0 J-0.125
G1 Y5
G2 X4.45 Y4.875 I-0.125 J0
G1 X3.85
Z-0.01 F30
X3.25 F60
G2 X3.125 Y5 I0 J0.125
G1 Y6.5
G2 X3.25 Y6.625 I0.125 J0
G1 X4.45
G2 X4.575 Y6.5 I0 J-0.125
G1 Y5
G2 X4.45 Y4.875 I-0.125 J0
G1 X3.85
Z-0.015 F30
X3.25 F60
G2 X3.125 Y5 I0 J0.125
G1 Y6.5
G2 X3.25 Y6.625 I0.125 J0
G1 X4.45
G2 X4.575 Y6.5 I0 J-0.125
G1 Y5
G2 X4.45 Y4.875 I-0.125 J0
G1 X3.85
Z-0.02 F30
X3.25 F60
G2 X3.125 Y5 I0 J0.125
G1 Y6.5
G2 X3.25 Y6.625 I0.125 J0
G1 X4.45
G2 X4.575 Y6.5 I0 J-0.125
G1 Y5
G2 X4.45 Y4.875 I-0.125 J0
G1 X3.85
Z-0.025 F30
X3.25 F60
G2 X3.125 Y5 I0 J0.125
G1 Y6.5
G2 X3.25 Y6.625 I0.125 J0
G1 X4.45
G2 X4.575 Y6.5 I0 J-0.125
G1 Y5
G2 X4.45 Y4.875 I-0.125 J0
G1 X3.85
Z-0.03 F30
X3.25 F60
G2 X3.125 Y5 I0 J0.125
G1 Y6.5
G2 X3.25 Y6.625 I0.125 J0
G1 X4.45
G2 X4.575 Y6.5 I0 J-0.125
G1 Y5
G2 X4.45 Y4.875 I-0.125 J0
G1 X3.85
Z-0.0325 F30
X3.25 F60
G2 X3.125 Y5 I0 J0.125
G1 Y6.5
G2 X3.25 Y6.625 I0.125 J0
G1 X4.45
G2 X4.575 Y6.5 I0 J-0.125
G1 Y5
G2 X4.45 Y4.875 I-0.125 J0
G1 X3.85
G0 Z1
G28 G91 Z0
G90
G28 G91 X0 Y0
G90
M30
%
