%
(Housing door)
(T3  D=0.125 CR=0 - ZMIN=-0.0325 - flat end mill)
G90
G17
G20
G28 G91 Z0
G90

(2D Contour4)
T3 M6
S10000 M3
G54
M7
G0 X1.5312 Y1.97
Z1
G1 Z-0.005 F30
Y2.72
G3 X1.4688 I-0.0312 J0
G1 Y1.97
G3 X1.5312 I0.0312 J0
G1 Z-0.01
Y2.72
G3 X1.4688 I-0.0312 J0
G1 Y1.97
G3 X1.5312 I0.0312 J0
G1 Z-0.015
Y2.72
G3 X1.4688 I-0.0312 J0
G1 Y1.97
G3 X1.5312 I0.0312 J0
G1 Z-0.02
Y2.72
G3 X1.4688 I-0.0312 J0
G1 Y1.97
G3 X1.5312 I0.0312 J0
G1 Z-0.025
Y2.72
G3 X1.4688 I-0.0312 J0
G1 Y1.97
G3 X1.5312 I0.0312 J0
G1 Z-0.03
Y2.72
G3 X1.4688 I-0.0312 J0
G1 Y1.97
G3 X1.5312 I0.0312 J0
G1 Z-0.0325
Y2.72
G3 X1.4688 I-0.0312 J0
G1 Y1.97
G3 X1.5312 I0.0312 J0
G0 Z1

(2D Contour5)
X1.1975 Y1.65
Z0.6
Z0.2
G1 Z0.08 F30
Z-0.005
G3 X1.1025 I-0.0475 J0
X1.1975 I0.0475 J0
G1 Z-0.01
G3 X1.1025 I-0.0475 J0
X1.1975 I0.0475 J0
G1 Z-0.015
G3 X1.1025 I-0.0475 J0
X1.1975 I0.0475 J0
G1 Z-0.02
G3 X1.1025 I-0.0475 J0
X1.1975 I0.0475 J0
G1 Z-0.025
G3 X1.1025 I-0.0475 J0
X1.1975 I0.0475 J0
G1 Z-0.03
G3 X1.1025 I-0.0475 J0
X1.1975 I0.0475 J0
G1 Z-0.0325
G3 X1.1025 I-0.0475 J0
X1.1975 I0.0475 J0
G0 Z0.2
X1.8956 Y1.6634
G1 Z0.08 F30
Z-0.005
G3 X1.8044 Y1.6366 I-0.0456 J-0.0134
X1.8956 Y1.6634 I0.0456 J0.0134
G1 Z-0.01
G3 X1.8044 Y1.6366 I-0.0456 J-0.0134
X1.8956 Y1.6634 I0.0456 J0.0134
G1 Z-0.015
G3 X1.8044 Y1.6366 I-0.0456 J-0.0134
X1.8956 Y1.6634 I0.0456 J0.0134
G1 Z-0.02
G3 X1.8044 Y1.6366 I-0.0456 J-0.0134
X1.8956 Y1.6634 I0.0456 J0.0134
G1 Z-0.025
G3 X1.8044 Y1.6366 I-0.0456 J-0.0134
X1.8956 Y1.6634 I0.0456 J0.0134
G1 Z-0.03
G3 X1.8044 Y1.6366 I-0.0456 J-0.0134
X1.8956 Y1.6634 I0.0456 J0.0134
G1 Z-0.0325
G3 X1.8044 Y1.6366 I-0.0456 J-0.0134
X1.8956 Y1.6634 I0.0456 J0.0134
G0 Z0.2
X1.8975 Y3.04
G1 Z0.08 F30
Z-0.005
G3 X1.8025 I-0.0475 J0
X1.8975 I0.0475 J0
G1 Z-0.01
G3 X1.8025 I-0.0475 J0
X1.8975 I0.0475 J0
G1 Z-0.015
G3 X1.8025 I-0.0475 J0
X1.8975 I0.0475 J0
G1 Z-0.02
G3 X1.8025 I-0.0475 J0
X1.8975 I0.0475 J0
G1 Z-0.025
G3 X1.8025 I-0.0475 J0
X1.8975 I0.0475 J0
G1 Z-0.03
G3 X1.8025 I-0.0475 J0
X1.8975 I0.0475 J0
G1 Z-0.0325
G3 X1.8025 I-0.0475 J0
X1.8975 I0.0475 J0
G0 Z0.2
X1.1975
G1 Z0.08 F30
Z-0.005
G3 X1.1025 I-0.0475 J0
X1.1975 I0.0475 J0
G1 Z-0.01
G3 X1.1025 I-0.0475 J0
X1.1975 I0.0475 J0
G1 Z-0.015
G3 X1.1025 I-0.0475 J0
X1.1975 I0.0475 J0
G1 Z-0.02
G3 X1.1025 I-0.0475 J0
X1.1975 I0.0475 J0
G1 Z-0.025
G3 X1.1025 I-0.0475 J0
X1.1975 I0.0475 J0
G1 Z-0.03
G3 X1.1025 I-0.0475 J0
X1.1975 I0.0475 J0
G1 Z-0.0325
G3 X1.1025 I-0.0475 J0
X1.1975 I0.0475 J0
G0 Z0.6

(2D Contour3)
Z1
X0.9375 Y1.5
G1 Z-0.005 F30
Y3.19
G2 X1 Y3.2525 I0.0625 J0
G1 X2
G2 X2.0625 Y3.19 I0 J-0.0625
G1 Y1.5
G2 X2 Y1.4375 I-0.0625 J0
G1 X1
G2 X0.9375 Y1.5 I0 J0.0625
G1 Z-0.01
Y3.19
G2 X1 Y3.2525 I0.0625 J0
G1 X2
G2 X2.0625 Y3.19 I0 J-0.0625
G1 Y1.5
G2 X2 Y1.4375 I-0.0625 J0
G1 X1
G2 X0.9375 Y1.5 I0 J0.0625
G1 Z-0.015
Y3.19
G2 X1 Y3.2525 I0.0625 J0
G1 X2
G2 X2.0625 Y3.19 I0 J-0.0625
G1 Y1.5
G2 X2 Y1.4375 I-0.0625 J0
G1 X1
G2 X0.9375 Y1.5 I0 J0.0625
G1 Z-0.02
Y3.19
G2 X1 Y3.2525 I0.0625 J0
G1 X2
G2 X2.0625 Y3.19 I0 J-0.0625
G1 Y1.5
G2 X2 Y1.4375 I-0.0625 J0
G1 X1
G2 X0.9375 Y1.5 I0 J0.0625
G1 Z-0.025
Y3.19
G2 X1 Y3.2525 I0.0625 J0
G1 X2
G2 X2.0625 Y3.19 I0 J-0.0625
G1 Y1.5
G2 X2 Y1.4375 I-0.0625 J0
G1 X1
G2 X0.9375 Y1.5 I0 J0.0625
G1 Z-0.03
Y3.19
G2 X1 Y3.2525 I0.0625 J0
G1 X2
G2 X2.0625 Y3.19 I0 J-0.0625
G1 Y1.5
G2 X2 Y1.4375 I-0.0625 J0
G1 X1
G2 X0.9375 Y1.5 I0 J0.0625
G1 Z-0.0325
Y3.19
G2 X1 Y3.2525 I0.0625 J0
G1 X2
G2 X2.0625 Y3.19 I0 J-0.0625
G1 Y1.5
G2 X2 Y1.4375 I-0.0625 J0
G1 X1
G2 X0.9375 Y1.5 I0 J0.0625
G0 Z1
M9
G28 G91 Z0
G90
G28 G91 X0 Y0
G90
M30
%
