%
(Housing door)
(T1  D=0.25 CR=0 - ZMIN=-0.0325 - flat end mill)
(T20  D=0.25 CR=0 TAPER=90deg - ZMIN=-0.159 - countersink)
G90
G17
G20
G28 G91 Z0
G90

(2D Contour4)
T1 M6
S10000 M3
G54
G0 X5.5375 Y6.125
Z1
G1 Z-0.005 F30
G3 X5.4125 I-0.0625 J0 F60
G1 Y5.375
G3 X5.5375 I0.0625 J0
G1 Y6.125
Z-0.01 F30
G3 X5.4125 I-0.0625 J0 F60
G1 Y5.375
G3 X5.5375 I0.0625 J0
G1 Y6.125
Z-0.015 F30
G3 X5.4125 I-0.0625 J0 F60
G1 Y5.375
G3 X5.5375 I0.0625 J0
G1 Y6.125
Z-0.02 F30
G3 X5.4125 I-0.0625 J0 F60
G1 Y5.375
G3 X5.5375 I0.0625 J0
G1 Y6.125
Z-0.025 F30
G3 X5.4125 I-0.0625 J0 F60
G1 Y5.375
G3 X5.5375 I0.0625 J0
G1 Y6.125
Z-0.03 F30
G3 X5.4125 I-0.0625 J0 F60
G1 Y5.375
G3 X5.5375 I0.0625 J0
G1 Y6.125
Z-0.0325 F30
G3 X5.4125 I-0.0625 J0 F60
G1 Y5.375
G3 X5.5375 I0.0625 J0
G1 Y6.125
G0 Z1
M5
G28 G91 Z0
G90

(Drill1)
T20 M6
S5000 M3
G54
G0 X5.025 Y5.15
Z0.6
Z0.2
G1 Z-0.159 F20
G0 Z0.2
X5.925
G1 Z-0.159 F20
G0 Z0.2
Y6.35
G1 Z-0.159 F20
G0 Z0.2
X5.025
G1 Z-0.159 F20
G0 Z0.2
Z0.6
M5
G28 G91 Z0
G90

(2D Contour3)
T1 M6
S10000 M3
G54
G0 X5.475 Y4.875
Z1
G1 Z-0.005 F30
X4.875 F60
G2 X4.75 Y5 I0 J0.125
G1 Y6.5
G2 X4.875 Y6.625 I0.125 J0
G1 X6.075
G2 X6.2 Y6.5 I0 J-0.125
G1 Y5
G2 X6.075 Y4.875 I-0.125 J0
G1 X5.475
Z-0.01 F30
X4.875 F60
G2 X4.75 Y5 I0 J0.125
G1 Y6.5
G2 X4.875 Y6.625 I0.125 J0
G1 X6.075
G2 X6.2 Y6.5 I0 J-0.125
G1 Y5
G2 X6.075 Y4.875 I-0.125 J0
G1 X5.475
Z-0.015 F30
X4.875 F60
G2 X4.75 Y5 I0 J0.125
G1 Y6.5
G2 X4.875 Y6.625 I0.125 J0
G1 X6.075
G2 X6.2 Y6.5 I0 J-0.125
G1 Y5
G2 X6.075 Y4.875 I-0.125 J0
G1 X5.475
Z-0.02 F30
X4.875 F60
G2 X4.75 Y5 I0 J0.125
G1 Y6.5
G2 X4.875 Y6.625 I0.125 J0
G1 X6.075
G2 X6.2 Y6.5 I0 J-0.125
G1 Y5
G2 X6.075 Y4.875 I-0.125 J0
G1 X5.475
Z-0.025 F30
X4.875 F60
G2 X4.75 Y5 I0 J0.125
G1 Y6.5
G2 X4.875 Y6.625 I0.125 J0
G1 X6.075
G2 X6.2 Y6.5 I0 J-0.125
G1 Y5
G2 X6.075 Y4.875 I-0.125 J0
G1 X5.475
Z-0.03 F30
X4.875 F60
G2 X4.75 Y5 I0 J0.125
G1 Y6.5
G2 X4.875 Y6.625 I0.125 J0
G1 X6.075
G2 X6.2 Y6.5 I0 J-0.125
G1 Y5
G2 X6.075 Y4.875 I-0.125 J0
G1 X5.475
Z-0.0325 F30
X4.875 F60
G2 X4.75 Y5 I0 J0.125
G1 Y6.5
G2 X4.875 Y6.625 I0.125 J0
G1 X6.075
G2 X6.2 Y6.5 I0 J-0.125
G1 Y5
G2 X6.075 Y4.875 I-0.125 J0
G1 X5.475
G0 Z1
G28 G91 Z0
G90
G28 G91 X0 Y0
G90
M30
%
