%
(Laser Holes Delrin)
(T1  D=0.25 CR=0 - ZMIN=-1.2 - flat end mill)
G90
G17
G20
G28 G91 Z0
G90

(2D Contour2)
T1 M6
S10000 M3
G54
G0 X0.3584 Y0.6958
Z0.6
Z0.2
G1 Z0.08 F30
Z-0.04
G3 X0.2416 I-0.0584 J0 F60
X0.3584 I0.0584 J0
G1 Z-0.08 F30
G3 X0.2416 I-0.0584 J0 F60
X0.3584 I0.0584 J0
G1 Z-0.12 F30
G3 X0.2416 I-0.0584 J0 F60
X0.3584 I0.0584 J0
G1 Z-0.16 F30
G3 X0.2416 I-0.0584 J0 F60
X0.3584 I0.0584 J0
G1 Z-0.1969 F30
G3 X0.2416 I-0.0584 J0 F60
X0.3584 I0.0584 J0
G0 Z0.6

(2D Contour3)
X0.3584 Y0.6958
Z0.6
Z-0.8
G1 Z-0.92 F30
Z-1.04
G3 X0.2416 I-0.0584 J0 F60
X0.3584 I0.0584 J0
G1 Z-1.08 F30
G3 X0.2416 I-0.0584 J0 F60
X0.3584 I0.0584 J0
G1 Z-1.12 F30
G3 X0.2416 I-0.0584 J0 F60
X0.3584 I0.0584 J0
G1 Z-1.16 F30
G3 X0.2416 I-0.0584 J0 F60
X0.3584 I0.0584 J0
G1 Z-1.2 F30
G3 X0.2416 I-0.0584 J0 F60
X0.3584 I0.0584 J0
G0 Z0.6

(Face2)
X0.9375 Y1.6835
Z0.6
Z0.2
G1 Z-0.01 F30
X0.8 F60
X0
G2 Y1.9091 I0 J0.1128
G1 X0.8 Y1.9092
G0 Z0.2
X0.9375 Y1.6835
G1 Z-0.05 F30
X0.8 F60
X0
G2 Y1.9091 I0 J0.1128
G1 X0.8 Y1.9092
G0 Z0.2
X0.9375 Y1.6835
G1 Z-0.09 F30
X0.8 F60
X0
G2 Y1.9091 I0 J0.1128
G1 X0.8 Y1.9092
G0 Z0.2
X0.9375 Y1.6835
G1 Z-0.13 F30
X0.8 F60
X0
G2 Y1.9091 I0 J0.1128
G1 X0.8 Y1.9092
G0 Z0.2
X0.9375 Y1.6835
G1 Z-0.17 F30
X0.8 F60
X0
G2 Y1.9091 I0 J0.1128
G1 X0.8 Y1.9092
G0 Z0.2
X0.9375 Y1.6835
G1 Z-0.21 F30
X0.8 F60
X0
G2 Y1.9091 I0 J0.1128
G1 X0.8 Y1.9092
G0 Z0.2
X0.9375 Y1.6835
G1 Z-0.25 F30
X0.8 F60
X0
G2 Y1.9091 I0 J0.1128
G1 X0.8 Y1.9092
G0 Z0.6
G28 G91 Z0
G90
G28 G91 X0 Y0
G90
M30
%
