%
(laser join cut off )
(T1  D=0.25 CR=0 - ZMIN=-0.51 - flat end mill)
G90
G17
G20
G28 G91 Z0
G90

(Face2)
T1 M6
S10000 M3
G54
G0 X0.8223 Y-1.6373
Z0.6
Z0.2
G1 Z-0.005 F30
G18 G3 X0.7973 Z-0.03 I-0.025 K0 F60
G1 X0.6598
X0.1502
X0.0252
Z-0.07
X0.1502
X0.6598
X0.7848
Z-0.11
X0.6598
X0.1502
X0.0252
Z-0.15
X0.1502
X0.6598
X0.7848
Z-0.19
X0.6598
X0.1502
X0.0252
Z-0.23
X0.1502
X0.6598
X0.7848
Z-0.27
X0.6598
X0.1502
X0.0252
Z-0.31
X0.1502
X0.6598
X0.7848
Z-0.35
X0.6598
X0.1502
X0.0252
Z-0.39
X0.1502
X0.6598
X0.7848
Z-0.43
X0.6598
X0.1502
X0.0252
Z-0.47
X0.1502
X0.6598
X0.7848
Z-0.51
X0.6598
X0.1502
G3 X0.1252 Z-0.485 I0 K0.025
G0 Z0.6
G17
G28 G91 Z0
G90
G28 G91 X0 Y0
G90
M30
%
