%
(laser join)
(T1  D=0.25 CR=0 - ZMIN=-0.6 - flat end mill)
(T2  D=0.125 CR=0 - ZMIN=-0.6 - ball end mill)
G90
G17
G20
G28 G91 Z0
G90

(2D Contour1)
T1 M6
S10000 M3
G54
G0 X-0.3913 Y0.4372
Z0.6
Z0.2
G1 Z0.08 F30
Z-0.04
G3 X-0.4187 Y0.3728 I-0.0137 J-0.0322 F60
X-0.3913 Y0.4372 I0.0137 J0.0322
G1 Z-0.08 F30
G3 X-0.4187 Y0.3728 I-0.0137 J-0.0322 F60
X-0.3913 Y0.4372 I0.0137 J0.0322
G1 Z-0.12 F30
G3 X-0.4187 Y0.3728 I-0.0137 J-0.0322 F60
X-0.3913 Y0.4372 I0.0137 J0.0322
G1 Z-0.16 F30
G3 X-0.4187 Y0.3728 I-0.0137 J-0.0322 F60
X-0.3913 Y0.4372 I0.0137 J0.0322
G1 Z-0.2 F30
G3 X-0.4187 Y0.3728 I-0.0137 J-0.0322 F60
X-0.3913 Y0.4372 I0.0137 J0.0322
G1 Z-0.24 F30
G3 X-0.4187 Y0.3728 I-0.0137 J-0.0322 F60
X-0.3913 Y0.4372 I0.0137 J0.0322
G1 Z-0.28 F30
G3 X-0.4187 Y0.3728 I-0.0137 J-0.0322 F60
X-0.3913 Y0.4372 I0.0137 J0.0322
G1 Z-0.32 F30
G3 X-0.4187 Y0.3728 I-0.0137 J-0.0322 F60
X-0.3913 Y0.4372 I0.0137 J0.0322
G1 Z-0.36 F30
G3 X-0.4187 Y0.3728 I-0.0137 J-0.0322 F60
X-0.3913 Y0.4372 I0.0137 J0.0322
G1 Z-0.4 F30
G3 X-0.4187 Y0.3728 I-0.0137 J-0.0322 F60
X-0.3913 Y0.4372 I0.0137 J0.0322
G1 Z-0.44 F30
G3 X-0.4187 Y0.3728 I-0.0137 J-0.0322 F60
X-0.3913 Y0.4372 I0.0137 J0.0322
G1 Z-0.48 F30
G3 X-0.4187 Y0.3728 I-0.0137 J-0.0322 F60
X-0.3913 Y0.4372 I0.0137 J0.0322
G1 Z-0.52 F30
G3 X-0.4187 Y0.3728 I-0.0137 J-0.0322 F60
X-0.3913 Y0.4372 I0.0137 J0.0322
G1 Z-0.56 F30
G3 X-0.4187 Y0.3728 I-0.0137 J-0.0322 F60
X-0.3913 Y0.4372 I0.0137 J0.0322
G1 Z-0.6 F30
G3 X-0.4187 Y0.3728 I-0.0137 J-0.0322 F60
X-0.3913 Y0.4372 I0.0137 J0.0322
G0 Z0.2
X-0.405 Y0.785
G1 Z0.08 F30
Z-0.04
G2 Y0.025 I0 J-0.38 F60
Y0.785 I0 J0.38
G1 Z-0.08 F30
G2 Y0.025 I0 J-0.38 F60
Y0.785 I0 J0.38
G1 Z-0.12 F30
G2 Y0.025 I0 J-0.38 F60
Y0.785 I0 J0.38
G1 Z-0.16 F30
G2 Y0.025 I0 J-0.38 F60
Y0.785 I0 J0.38
G1 Z-0.2 F30
G2 Y0.025 I0 J-0.38 F60
Y0.785 I0 J0.38
G1 Z-0.24 F30
G2 Y0.025 I0 J-0.38 F60
Y0.785 I0 J0.38
G1 Z-0.28 F30
G2 Y0.025 I0 J-0.38 F60
Y0.785 I0 J0.38
G1 Z-0.32 F30
G2 Y0.025 I0 J-0.38 F60
Y0.785 I0 J0.38
G1 Z-0.36 F30
G2 Y0.025 I0 J-0.38 F60
Y0.785 I0 J0.38
G1 Z-0.4 F30
G2 Y0.025 I0 J-0.38 F60
Y0.785 I0 J0.38
G1 Z-0.44 F30
G2 Y0.025 I0 J-0.38 F60
Y0.785 I0 J0.38
G1 Z-0.48 F30
G2 Y0.025 I0 J-0.38 F60
Y0.785 I0 J0.38
G1 Z-0.52 F30
G2 Y0.025 I0 J-0.38 F60
Y0.785 I0 J0.38
G1 Z-0.56 F30
G2 Y0.025 I0 J-0.38 F60
Y0.785 I0 J0.38
G1 Z-0.6 F30
G2 Y0.025 I0 J-0.38 F60
Y0.785 I0 J0.38
G0 Z0.6
M5
G28 G91 Z0
G90

(2D Contour2)
T2 M6
S10000 M3
G54
G0 X-0.3675 Y0.405
Z0.6
Z-0.3
G1 Z-0.42 F30
Z-0.54
G3 X-0.4425 I-0.0375 J0
X-0.3675 I0.0375 J0
G1 Z-0.58
G3 X-0.4425 I-0.0375 J0
X-0.3675 I0.0375 J0
G1 Z-0.6
G3 X-0.4425 I-0.0375 J0
X-0.3675 I0.0375 J0
G0 Z0.6
G28 G91 Z0
G90
G28 G91 X0 Y0
G90
M30
%
