%
(Lense Coupler )
(T1  D=0.125 CR=0 - ZMIN=-0.5105 - ball end mill)
G90
G17
G20
G28 G91 Z0
G90

(2D Contour1)
T1 M6
S10000 M3
G54
G0 X1.2008 Y1.8748
Z0.75
G1 Z-0.0275 F30
X1.2011 Y1.8749 Z-0.0303
X1.202 Y1.8751 Z-0.0329
X1.2034 Y1.8755 Z-0.0353
X1.2053 Y1.8759 Z-0.0373
X1.2076 Y1.8765 Z-0.0388
X1.2102 Y1.8772 Z-0.0397
X1.2129 Y1.8779 Z-0.04
X1.225 Y1.881
G3 X1.234 Y1.8962 I-0.0031 J0.0121
X1.1262 Y1.8685 I-0.0539 J-0.0138
X1.234 Y1.8962 I0.0539 J0.0139
X1.2188 Y1.9052 I-0.0121 J-0.0031
G1 X1.2067 Y1.9021
X1.204 Y1.9014 Z-0.0397
X1.2014 Y1.9008 Z-0.0388
X1.1991 Y1.9002 Z-0.0373
X1.1972 Y1.8997 Z-0.0353
X1.1957 Y1.8993 Z-0.0329
X1.1949 Y1.8991 Z-0.0303
X1.1946 Y1.899 Z-0.0275
X1.2008 Y1.8748
Z-0.0675
X1.2011 Y1.8749 Z-0.0703
X1.202 Y1.8751 Z-0.0729
X1.2034 Y1.8755 Z-0.0753
X1.2053 Y1.8759 Z-0.0773
X1.2076 Y1.8765 Z-0.0788
X1.2102 Y1.8772 Z-0.0797
X1.2129 Y1.8779 Z-0.08
X1.225 Y1.881
G3 X1.234 Y1.8962 I-0.0031 J0.0121
X1.1262 Y1.8685 I-0.0539 J-0.0138
X1.234 Y1.8962 I0.0539 J0.0139
X1.2188 Y1.9052 I-0.0121 J-0.0031
G1 X1.2067 Y1.9021
X1.204 Y1.9014 Z-0.0797
X1.2014 Y1.9008 Z-0.0788
X1.1991 Y1.9002 Z-0.0773
X1.1972 Y1.8997 Z-0.0753
X1.1957 Y1.8993 Z-0.0729
X1.1949 Y1.8991 Z-0.0703
X1.1946 Y1.899 Z-0.0675
X1.2008 Y1.8748
Z-0.1075
X1.2011 Y1.8749 Z-0.1103
X1.202 Y1.8751 Z-0.1129
X1.2034 Y1.8755 Z-0.1153
X1.2053 Y1.8759 Z-0.1173
X1.2076 Y1.8765 Z-0.1188
X1.2102 Y1.8772 Z-0.1197
X1.2129 Y1.8779 Z-0.12
X1.225 Y1.881
G3 X1.234 Y1.8962 I-0.0031 J0.0121
X1.1262 Y1.8685 I-0.0539 J-0.0138
X1.234 Y1.8962 I0.0539 J0.0139
X1.2188 Y1.9052 I-0.0121 J-0.0031
G1 X1.2067 Y1.9021
X1.204 Y1.9014 Z-0.1197
X1.2014 Y1.9008 Z-0.1188
X1.1991 Y1.9002 Z-0.1173
X1.1972 Y1.8997 Z-0.1153
X1.1957 Y1.8993 Z-0.1129
X1.1949 Y1.8991 Z-0.1103
X1.1946 Y1.899 Z-0.1075
X1.2008 Y1.8748
Z-0.1475
X1.2011 Y1.8749 Z-0.1503
X1.202 Y1.8751 Z-0.1529
X1.2034 Y1.8755 Z-0.1553
X1.2053 Y1.8759 Z-0.1573
X1.2076 Y1.8765 Z-0.1588
X1.2102 Y1.8772 Z-0.1597
X1.2129 Y1.8779 Z-0.16
X1.225 Y1.881
G3 X1.234 Y1.8962 I-0.0031 J0.0121
X1.1262 Y1.8685 I-0.0539 J-0.0138
X1.234 Y1.8962 I0.0539 J0.0139
X1.2188 Y1.9052 I-0.0121 J-0.0031
G1 X1.2067 Y1.9021
X1.204 Y1.9014 Z-0.1597
X1.2014 Y1.9008 Z-0.1588
X1.1991 Y1.9002 Z-0.1573
X1.1972 Y1.8997 Z-0.1553
X1.1957 Y1.8993 Z-0.1529
X1.1949 Y1.8991 Z-0.1503
X1.1946 Y1.899 Z-0.1475
X1.2008 Y1.8748
Z-0.1875
X1.2011 Y1.8749 Z-0.1903
X1.202 Y1.8751 Z-0.1929
X1.2034 Y1.8755 Z-0.1953
X1.2053 Y1.8759 Z-0.1973
X1.2076 Y1.8765 Z-0.1988
X1.2102 Y1.8772 Z-0.1997
X1.2129 Y1.8779 Z-0.2
X1.225 Y1.881
G3 X1.234 Y1.8962 I-0.0031 J0.0121
X1.1262 Y1.8685 I-0.0539 J-0.0138
X1.234 Y1.8962 I0.0539 J0.0139
X1.2188 Y1.9052 I-0.0121 J-0.0031
G1 X1.2067 Y1.9021
X1.204 Y1.9014 Z-0.1997
X1.2014 Y1.9008 Z-0.1988
X1.1991 Y1.9002 Z-0.1973
X1.1972 Y1.8997 Z-0.1953
X1.1957 Y1.8993 Z-0.1929
X1.1949 Y1.8991 Z-0.1903
X1.1946 Y1.899 Z-0.1875
X1.2008 Y1.8748
Z-0.2275
X1.2011 Y1.8749 Z-0.2303
X1.202 Y1.8751 Z-0.2329
X1.2034 Y1.8755 Z-0.2353
X1.2053 Y1.8759 Z-0.2373
X1.2076 Y1.8765 Z-0.2388
X1.2102 Y1.8772 Z-0.2397
X1.2129 Y1.8779 Z-0.24
X1.225 Y1.881
G3 X1.234 Y1.8962 I-0.0031 J0.0121
X1.1262 Y1.8685 I-0.0539 J-0.0138
X1.234 Y1.8962 I0.0539 J0.0139
X1.2188 Y1.9052 I-0.0121 J-0.0031
G1 X1.2067 Y1.9021
X1.204 Y1.9014 Z-0.2397
X1.2014 Y1.9008 Z-0.2388
X1.1991 Y1.9002 Z-0.2373
X1.1972 Y1.8997 Z-0.2353
X1.1957 Y1.8993 Z-0.2329
X1.1949 Y1.8991 Z-0.2303
X1.1946 Y1.899 Z-0.2275
X1.2008 Y1.8748
Z-0.2675
X1.2011 Y1.8749 Z-0.2703
X1.202 Y1.8751 Z-0.2729
X1.2034 Y1.8755 Z-0.2753
X1.2053 Y1.8759 Z-0.2773
X1.2076 Y1.8765 Z-0.2788
X1.2102 Y1.8772 Z-0.2797
X1.2129 Y1.8779 Z-0.28
X1.225 Y1.881
G3 X1.234 Y1.8962 I-0.0031 J0.0121
X1.1262 Y1.8685 I-0.0539 J-0.0138
X1.234 Y1.8962 I0.0539 J0.0139
X1.2188 Y1.9052 I-0.0121 J-0.0031
G1 X1.2067 Y1.9021
X1.204 Y1.9014 Z-0.2797
X1.2014 Y1.9008 Z-0.2788
X1.1991 Y1.9002 Z-0.2773
X1.1972 Y1.8997 Z-0.2753
X1.1957 Y1.8993 Z-0.2729
X1.1949 Y1.8991 Z-0.2703
X1.1946 Y1.899 Z-0.2675
X1.2008 Y1.8748
Z-0.3075
X1.2011 Y1.8749 Z-0.3103
X1.202 Y1.8751 Z-0.3129
X1.2034 Y1.8755 Z-0.3153
X1.2053 Y1.8759 Z-0.3173
X1.2076 Y1.8765 Z-0.3188
X1.2102 Y1.8772 Z-0.3197
X1.2129 Y1.8779 Z-0.32
X1.225 Y1.881
G3 X1.234 Y1.8962 I-0.0031 J0.0121
X1.1262 Y1.8685 I-0.0539 J-0.0138
X1.234 Y1.8962 I0.0539 J0.0139
X1.2188 Y1.9052 I-0.0121 J-0.0031
G1 X1.2067 Y1.9021
X1.204 Y1.9014 Z-0.3197
X1.2014 Y1.9008 Z-0.3188
X1.1991 Y1.9002 Z-0.3173
X1.1972 Y1.8997 Z-0.3153
X1.1957 Y1.8993 Z-0.3129
X1.1949 Y1.8991 Z-0.3103
X1.1946 Y1.899 Z-0.3075
X1.2008 Y1.8748
Z-0.3475
X1.2011 Y1.8749 Z-0.3503
X1.202 Y1.8751 Z-0.3529
X1.2034 Y1.8755 Z-0.3553
X1.2053 Y1.8759 Z-0.3573
X1.2076 Y1.8765 Z-0.3588
X1.2102 Y1.8772 Z-0.3597
X1.2129 Y1.8779 Z-0.36
X1.225 Y1.881
G3 X1.234 Y1.8962 I-0.0031 J0.0121
X1.1262 Y1.8685 I-0.0539 J-0.0138
X1.234 Y1.8962 I0.0539 J0.0139
X1.2188 Y1.9052 I-0.0121 J-0.0031
G1 X1.2067 Y1.9021
X1.204 Y1.9014 Z-0.3597
X1.2014 Y1.9008 Z-0.3588
X1.1991 Y1.9002 Z-0.3573
X1.1972 Y1.8997 Z-0.3553
X1.1957 Y1.8993 Z-0.3529
X1.1949 Y1.8991 Z-0.3503
X1.1946 Y1.899 Z-0.3475
X1.2008 Y1.8748
Z-0.3875
X1.2011 Y1.8749 Z-0.3903
X1.202 Y1.8751 Z-0.3929
X1.2034 Y1.8755 Z-0.3953
X1.2053 Y1.8759 Z-0.3973
X1.2076 Y1.8765 Z-0.3988
X1.2102 Y1.8772 Z-0.3997
X1.2129 Y1.8779 Z-0.4
X1.225 Y1.881
G3 X1.234 Y1.8962 I-0.0031 J0.0121
X1.1262 Y1.8685 I-0.0539 J-0.0138
X1.234 Y1.8962 I0.0539 J0.0139
X1.2188 Y1.9052 I-0.0121 J-0.0031
G1 X1.2067 Y1.9021
X1.204 Y1.9014 Z-0.3997
X1.2014 Y1.9008 Z-0.3988
X1.1991 Y1.9002 Z-0.3973
X1.1972 Y1.8997 Z-0.3953
X1.1957 Y1.8993 Z-0.3929
X1.1949 Y1.8991 Z-0.3903
X1.1946 Y1.899 Z-0.3875
X1.2008 Y1.8748
Z-0.4275
X1.2011 Y1.8749 Z-0.4303
X1.202 Y1.8751 Z-0.4329
X1.2034 Y1.8755 Z-0.4353
X1.2053 Y1.8759 Z-0.4373
X1.2076 Y1.8765 Z-0.4388
X1.2102 Y1.8772 Z-0.4397
X1.2129 Y1.8779 Z-0.44
X1.225 Y1.881
G3 X1.234 Y1.8962 I-0.0031 J0.0121
X1.1262 Y1.8685 I-0.0539 J-0.0138
X1.234 Y1.8962 I0.0539 J0.0139
X1.2188 Y1.9052 I-0.0121 J-0.0031
G1 X1.2067 Y1.9021
X1.204 Y1.9014 Z-0.4397
X1.2014 Y1.9008 Z-0.4388
X1.1991 Y1.9002 Z-0.4373
X1.1972 Y1.8997 Z-0.4353
X1.1957 Y1.8993 Z-0.4329
X1.1949 Y1.8991 Z-0.4303
X1.1946 Y1.899 Z-0.4275
X1.2008 Y1.8748
Z-0.4675
X1.2011 Y1.8749 Z-0.4703
X1.202 Y1.8751 Z-0.4729
X1.2034 Y1.8755 Z-0.4753
X1.2053 Y1.8759 Z-0.4773
X1.2076 Y1.8765 Z-0.4788
X1.2102 Y1.8772 Z-0.4797
X1.2129 Y1.8779 Z-0.48
X1.225 Y1.881
G3 X1.234 Y1.8962 I-0.0031 J0.0121
X1.1262 Y1.8685 I-0.0539 J-0.0138
X1.234 Y1.8962 I0.0539 J0.0139
X1.2188 Y1.9052 I-0.0121 J-0.0031
G1 X1.2067 Y1.9021
X1.204 Y1.9014 Z-0.4797
X1.2014 Y1.9008 Z-0.4788
X1.1991 Y1.9002 Z-0.4773
X1.1972 Y1.8997 Z-0.4753
X1.1957 Y1.8993 Z-0.4729
X1.1949 Y1.8991 Z-0.4703
X1.1946 Y1.899 Z-0.4675
X1.2008 Y1.8748
Z-0.498
X1.2011 Y1.8749 Z-0.5008
X1.202 Y1.8751 Z-0.5034
X1.2034 Y1.8755 Z-0.5058
X1.2053 Y1.8759 Z-0.5078
X1.2076 Y1.8765 Z-0.5093
X1.2102 Y1.8772 Z-0.5102
X1.2129 Y1.8779 Z-0.5105
X1.225 Y1.881
G3 X1.234 Y1.8962 I-0.0031 J0.0121
X1.1262 Y1.8685 I-0.0539 J-0.0138
X1.234 Y1.8962 I0.0539 J0.0139
X1.2188 Y1.9052 I-0.0121 J-0.0031
G1 X1.2067 Y1.9021
X1.204 Y1.9014 Z-0.5102
X1.2014 Y1.9008 Z-0.5093
X1.1991 Y1.9002 Z-0.5078
X1.1972 Y1.8997 Z-0.5058
X1.1957 Y1.8993 Z-0.5034
X1.1949 Y1.8991 Z-0.5008
X1.1946 Y1.899 Z-0.498
G0 Z0.75
X1.4602 Y1.8949
G1 Z-0.0275 F30
G18 G3 X1.4477 Z-0.04 I-0.0125 K0
G1 X1.4352
G17 G3 X1.4227 Y1.8824 I0 J-0.0125
G2 X0.9375 I-0.2426 J0
X1.4227 I0.2426 J0
G3 X1.4352 Y1.8699 I0.0125 J0
G1 X1.4477
G18 G2 X1.4602 Z-0.0275 I0 K0.0125
G1 Y1.8949
Z-0.0675
G3 X1.4477 Z-0.08 I-0.0125 K0
G1 X1.4352
G17 G3 X1.4227 Y1.8824 I0 J-0.0125
G2 X0.9375 I-0.2426 J0
X1.4227 I0.2426 J0
G3 X1.4352 Y1.8699 I0.0125 J0
G1 X1.4477
G18 G2 X1.4602 Z-0.0675 I0 K0.0125
G1 Y1.8949
Z-0.1075
G3 X1.4477 Z-0.12 I-0.0125 K0
G1 X1.4352
G17 G3 X1.4227 Y1.8824 I0 J-0.0125
G2 X0.9375 I-0.2426 J0
X1.4227 I0.2426 J0
G3 X1.4352 Y1.8699 I0.0125 J0
G1 X1.4477
G18 G2 X1.4602 Z-0.1075 I0 K0.0125
G1 Y1.8949
Z-0.1475
G3 X1.4477 Z-0.16 I-0.0125 K0
G1 X1.4352
G17 G3 X1.4227 Y1.8824 I0 J-0.0125
G2 X0.9375 I-0.2426 J0
X1.4227 I0.2426 J0
G3 X1.4352 Y1.8699 I0.0125 J0
G1 X1.4477
G18 G2 X1.4602 Z-0.1475 I0 K0.0125
G1 Y1.8949
Z-0.1875
G3 X1.4477 Z-0.2 I-0.0125 K0
G1 X1.4352
G17 G3 X1.4227 Y1.8824 I0 J-0.0125
G2 X0.9375 I-0.2426 J0
X1.4227 I0.2426 J0
G3 X1.4352 Y1.8699 I0.0125 J0
G1 X1.4477
G18 G2 X1.4602 Z-0.1875 I0 K0.0125
G1 Y1.8949
Z-0.2275
G3 X1.4477 Z-0.24 I-0.0125 K0
G1 X1.4352
G17 G3 X1.4227 Y1.8824 I0 J-0.0125
G2 X0.9375 I-0.2426 J0
X1.4227 I0.2426 J0
G3 X1.4352 Y1.8699 I0.0125 J0
G1 X1.4477
G18 G2 X1.4602 Z-0.2275 I0 K0.0125
G1 Y1.8949
Z-0.2675
G3 X1.4477 Z-0.28 I-0.0125 K0
G1 X1.4352
G17 G3 X1.4227 Y1.8824 I0 J-0.0125
G2 X0.9375 I-0.2426 J0
X1.4227 I0.2426 J0
G3 X1.4352 Y1.8699 I0.0125 J0
G1 X1.4477
G18 G2 X1.4602 Z-0.2675 I0 K0.0125
G1 Y1.8949
Z-0.3075
G3 X1.4477 Z-0.32 I-0.0125 K0
G1 X1.4352
G17 G3 X1.4227 Y1.8824 I0 J-0.0125
G2 X0.9375 I-0.2426 J0
X1.4227 I0.2426 J0
G3 X1.4352 Y1.8699 I0.0125 J0
G1 X1.4477
G18 G2 X1.4602 Z-0.3075 I0 K0.0125
G1 Y1.8949
Z-0.3475
G3 X1.4477 Z-0.36 I-0.0125 K0
G1 X1.4352
G17 G3 X1.4227 Y1.8824 I0 J-0.0125
G2 X0.9375 I-0.2426 J0
X1.4227 I0.2426 J0
G3 X1.4352 Y1.8699 I0.0125 J0
G1 X1.4477
G18 G2 X1.4602 Z-0.3475 I0 K0.0125
G1 Y1.8949
Z-0.3875
G3 X1.4477 Z-0.4 I-0.0125 K0
G1 X1.4352
G17 G3 X1.4227 Y1.8824 I0 J-0.0125
G2 X0.9375 I-0.2426 J0
X1.4227 I0.2426 J0
G3 X1.4352 Y1.8699 I0.0125 J0
G1 X1.4477
G18 G2 X1.4602 Z-0.3875 I0 K0.0125
G1 Y1.8949
Z-0.4275
G3 X1.4477 Z-0.44 I-0.0125 K0
G1 X1.4352
G17 G3 X1.4227 Y1.8824 I0 J-0.0125
G2 X0.9375 I-0.2426 J0
X1.4227 I0.2426 J0
G3 X1.4352 Y1.8699 I0.0125 J0
G1 X1.4477
G18 G2 X1.4602 Z-0.4275 I0 K0.0125
G1 Y1.8949
Z-0.4675
G3 X1.4477 Z-0.48 I-0.0125 K0
G1 X1.4352
G17 G3 X1.4227 Y1.8824 I0 J-0.0125
G2 X0.9375 I-0.2426 J0
X1.4227 I0.2426 J0
G3 X1.4352 Y1.8699 I0.0125 J0
G1 X1.4477
G18 G2 X1.4602 Z-0.4675 I0 K0.0125
G1 Y1.8949
Z-0.498
G3 X1.4477 Z-0.5105 I-0.0125 K0
G1 X1.4352
G17 G3 X1.4227 Y1.8824 I0 J-0.0125
G2 X0.9375 I-0.2426 J0
X1.4227 I0.2426 J0
G3 X1.4352 Y1.8699 I0.0125 J0
G1 X1.4477
G18 G2 X1.4602 Z-0.498 I0 K0.0125
G0 Z0.75
G17
G28 G91 Z0
G90
G28 G91 X0 Y0
G90
M30
%
