%
(Lense Coupler )
(T1  D=0.125 CR=0 - ZMIN=-0.6415 - ball end mill)
G90
G17
G20
G28 G91 Z0
G90

(2D Contour1)
T1 M6
S10000 M3
G54
G0 X1.1978 Y2.8152
Z0.75
G1 Z-0.0275 F30
X1.1981 Y2.8153 Z-0.0303
X1.199 Y2.8155 Z-0.0329
X1.2005 Y2.8159 Z-0.0353
X1.2024 Y2.8164 Z-0.0373
X1.2047 Y2.817 Z-0.0388
X1.2072 Y2.8176 Z-0.0397
X1.2099 Y2.8183 Z-0.04
X1.222 Y2.8214
G3 X1.2311 Y2.8367 I-0.0031 J0.0122
X1.1233 Y2.809 I-0.0539 J-0.0139
X1.2311 Y2.8367 I0.0539 J0.0138
X1.2158 Y2.8458 I-0.0122 J-0.0031
G1 X1.2037 Y2.8426
X1.201 Y2.8419 Z-0.0397
X1.1985 Y2.8412 Z-0.0388
X1.1962 Y2.8406 Z-0.0373
X1.1942 Y2.8401 Z-0.0353
X1.1928 Y2.8398 Z-0.0329
X1.1919 Y2.8395 Z-0.0303
X1.1916 Y2.8394 Z-0.0275
X1.1978 Y2.8152
Z-0.0675
X1.1981 Y2.8153 Z-0.0703
X1.199 Y2.8155 Z-0.0729
X1.2005 Y2.8159 Z-0.0753
X1.2024 Y2.8164 Z-0.0773
X1.2047 Y2.817 Z-0.0788
X1.2072 Y2.8176 Z-0.0797
X1.2099 Y2.8183 Z-0.08
X1.222 Y2.8214
G3 X1.2311 Y2.8367 I-0.0031 J0.0122
X1.1233 Y2.809 I-0.0539 J-0.0139
X1.2311 Y2.8367 I0.0539 J0.0138
X1.2158 Y2.8458 I-0.0122 J-0.0031
G1 X1.2037 Y2.8426
X1.201 Y2.8419 Z-0.0797
X1.1985 Y2.8412 Z-0.0788
X1.1962 Y2.8406 Z-0.0773
X1.1942 Y2.8401 Z-0.0753
X1.1928 Y2.8398 Z-0.0729
X1.1919 Y2.8395 Z-0.0703
X1.1916 Y2.8394 Z-0.0675
X1.1978 Y2.8152
Z-0.1075
X1.1981 Y2.8153 Z-0.1103
X1.199 Y2.8155 Z-0.1129
X1.2005 Y2.8159 Z-0.1153
X1.2024 Y2.8164 Z-0.1173
X1.2047 Y2.817 Z-0.1188
X1.2072 Y2.8176 Z-0.1197
X1.2099 Y2.8183 Z-0.12
X1.222 Y2.8214
G3 X1.2311 Y2.8367 I-0.0031 J0.0122
X1.1233 Y2.809 I-0.0539 J-0.0139
X1.2311 Y2.8367 I0.0539 J0.0138
X1.2158 Y2.8458 I-0.0122 J-0.0031
G1 X1.2037 Y2.8426
X1.201 Y2.8419 Z-0.1197
X1.1985 Y2.8412 Z-0.1188
X1.1962 Y2.8406 Z-0.1173
X1.1942 Y2.8401 Z-0.1153
X1.1928 Y2.8398 Z-0.1129
X1.1919 Y2.8395 Z-0.1103
X1.1916 Y2.8394 Z-0.1075
X1.1978 Y2.8152
Z-0.1475
X1.1981 Y2.8153 Z-0.1503
X1.199 Y2.8155 Z-0.1529
X1.2005 Y2.8159 Z-0.1553
X1.2024 Y2.8164 Z-0.1573
X1.2047 Y2.817 Z-0.1588
X1.2072 Y2.8176 Z-0.1597
X1.2099 Y2.8183 Z-0.16
X1.222 Y2.8214
G3 X1.2311 Y2.8367 I-0.0031 J0.0122
X1.1233 Y2.809 I-0.0539 J-0.0139
X1.2311 Y2.8367 I0.0539 J0.0138
X1.2158 Y2.8458 I-0.0122 J-0.0031
G1 X1.2037 Y2.8426
X1.201 Y2.8419 Z-0.1597
X1.1985 Y2.8412 Z-0.1588
X1.1962 Y2.8406 Z-0.1573
X1.1942 Y2.8401 Z-0.1553
X1.1928 Y2.8398 Z-0.1529
X1.1919 Y2.8395 Z-0.1503
X1.1916 Y2.8394 Z-0.1475
X1.1978 Y2.8152
Z-0.1875
X1.1981 Y2.8153 Z-0.1903
X1.199 Y2.8155 Z-0.1929
X1.2005 Y2.8159 Z-0.1953
X1.2024 Y2.8164 Z-0.1973
X1.2047 Y2.817 Z-0.1988
X1.2072 Y2.8176 Z-0.1997
X1.2099 Y2.8183 Z-0.2
X1.222 Y2.8214
G3 X1.2311 Y2.8367 I-0.0031 J0.0122
X1.1233 Y2.809 I-0.0539 J-0.0139
X1.2311 Y2.8367 I0.0539 J0.0138
X1.2158 Y2.8458 I-0.0122 J-0.0031
G1 X1.2037 Y2.8426
X1.201 Y2.8419 Z-0.1997
X1.1985 Y2.8412 Z-0.1988
X1.1962 Y2.8406 Z-0.1973
X1.1942 Y2.8401 Z-0.1953
X1.1928 Y2.8398 Z-0.1929
X1.1919 Y2.8395 Z-0.1903
X1.1916 Y2.8394 Z-0.1875
X1.1978 Y2.8152
Z-0.2275
X1.1981 Y2.8153 Z-0.2303
X1.199 Y2.8155 Z-0.2329
X1.2005 Y2.8159 Z-0.2353
X1.2024 Y2.8164 Z-0.2373
X1.2047 Y2.817 Z-0.2388
X1.2072 Y2.8176 Z-0.2397
X1.2099 Y2.8183 Z-0.24
X1.222 Y2.8214
G3 X1.2311 Y2.8367 I-0.0031 J0.0122
X1.1233 Y2.809 I-0.0539 J-0.0139
X1.2311 Y2.8367 I0.0539 J0.0138
X1.2158 Y2.8458 I-0.0122 J-0.0031
G1 X1.2037 Y2.8426
X1.201 Y2.8419 Z-0.2397
X1.1985 Y2.8412 Z-0.2388
X1.1962 Y2.8406 Z-0.2373
X1.1942 Y2.8401 Z-0.2353
X1.1928 Y2.8398 Z-0.2329
X1.1919 Y2.8395 Z-0.2303
X1.1916 Y2.8394 Z-0.2275
X1.1978 Y2.8152
Z-0.2675
X1.1981 Y2.8153 Z-0.2703
X1.199 Y2.8155 Z-0.2729
X1.2005 Y2.8159 Z-0.2753
X1.2024 Y2.8164 Z-0.2773
X1.2047 Y2.817 Z-0.2788
X1.2072 Y2.8176 Z-0.2797
X1.2099 Y2.8183 Z-0.28
X1.222 Y2.8214
G3 X1.2311 Y2.8367 I-0.0031 J0.0122
X1.1233 Y2.809 I-0.0539 J-0.0139
X1.2311 Y2.8367 I0.0539 J0.0138
X1.2158 Y2.8458 I-0.0122 J-0.0031
G1 X1.2037 Y2.8426
X1.201 Y2.8419 Z-0.2797
X1.1985 Y2.8412 Z-0.2788
X1.1962 Y2.8406 Z-0.2773
X1.1942 Y2.8401 Z-0.2753
X1.1928 Y2.8398 Z-0.2729
X1.1919 Y2.8395 Z-0.2703
X1.1916 Y2.8394 Z-0.2675
X1.1978 Y2.8152
Z-0.3075
X1.1981 Y2.8153 Z-0.3103
X1.199 Y2.8155 Z-0.3129
X1.2005 Y2.8159 Z-0.3153
X1.2024 Y2.8164 Z-0.3173
X1.2047 Y2.817 Z-0.3188
X1.2072 Y2.8176 Z-0.3197
X1.2099 Y2.8183 Z-0.32
X1.222 Y2.8214
G3 X1.2311 Y2.8367 I-0.0031 J0.0122
X1.1233 Y2.809 I-0.0539 J-0.0139
X1.2311 Y2.8367 I0.0539 J0.0138
X1.2158 Y2.8458 I-0.0122 J-0.0031
G1 X1.2037 Y2.8426
X1.201 Y2.8419 Z-0.3197
X1.1985 Y2.8412 Z-0.3188
X1.1962 Y2.8406 Z-0.3173
X1.1942 Y2.8401 Z-0.3153
X1.1928 Y2.8398 Z-0.3129
X1.1919 Y2.8395 Z-0.3103
X1.1916 Y2.8394 Z-0.3075
X1.1978 Y2.8152
Z-0.3475
X1.1981 Y2.8153 Z-0.3503
X1.199 Y2.8155 Z-0.3529
X1.2005 Y2.8159 Z-0.3553
X1.2024 Y2.8164 Z-0.3573
X1.2047 Y2.817 Z-0.3588
X1.2072 Y2.8176 Z-0.3597
X1.2099 Y2.8183 Z-0.36
X1.222 Y2.8214
G3 X1.2311 Y2.8367 I-0.0031 J0.0122
X1.1233 Y2.809 I-0.0539 J-0.0139
X1.2311 Y2.8367 I0.0539 J0.0138
X1.2158 Y2.8458 I-0.0122 J-0.0031
G1 X1.2037 Y2.8426
X1.201 Y2.8419 Z-0.3597
X1.1985 Y2.8412 Z-0.3588
X1.1962 Y2.8406 Z-0.3573
X1.1942 Y2.8401 Z-0.3553
X1.1928 Y2.8398 Z-0.3529
X1.1919 Y2.8395 Z-0.3503
X1.1916 Y2.8394 Z-0.3475
X1.1978 Y2.8152
Z-0.3875
X1.1981 Y2.8153 Z-0.3903
X1.199 Y2.8155 Z-0.3929
X1.2005 Y2.8159 Z-0.3953
X1.2024 Y2.8164 Z-0.3973
X1.2047 Y2.817 Z-0.3988
X1.2072 Y2.8176 Z-0.3997
X1.2099 Y2.8183 Z-0.4
X1.222 Y2.8214
G3 X1.2311 Y2.8367 I-0.0031 J0.0122
X1.1233 Y2.809 I-0.0539 J-0.0139
X1.2311 Y2.8367 I0.0539 J0.0138
X1.2158 Y2.8458 I-0.0122 J-0.0031
G1 X1.2037 Y2.8426
X1.201 Y2.8419 Z-0.3997
X1.1985 Y2.8412 Z-0.3988
X1.1962 Y2.8406 Z-0.3973
X1.1942 Y2.8401 Z-0.3953
X1.1928 Y2.8398 Z-0.3929
X1.1919 Y2.8395 Z-0.3903
X1.1916 Y2.8394 Z-0.3875
X1.1978 Y2.8152
Z-0.4275
X1.1981 Y2.8153 Z-0.4303
X1.199 Y2.8155 Z-0.4329
X1.2005 Y2.8159 Z-0.4353
X1.2024 Y2.8164 Z-0.4373
X1.2047 Y2.817 Z-0.4388
X1.2072 Y2.8176 Z-0.4397
X1.2099 Y2.8183 Z-0.44
X1.222 Y2.8214
G3 X1.2311 Y2.8367 I-0.0031 J0.0122
X1.1233 Y2.809 I-0.0539 J-0.0139
X1.2311 Y2.8367 I0.0539 J0.0138
X1.2158 Y2.8458 I-0.0122 J-0.0031
G1 X1.2037 Y2.8426
X1.201 Y2.8419 Z-0.4397
X1.1985 Y2.8412 Z-0.4388
X1.1962 Y2.8406 Z-0.4373
X1.1942 Y2.8401 Z-0.4353
X1.1928 Y2.8398 Z-0.4329
X1.1919 Y2.8395 Z-0.4303
X1.1916 Y2.8394 Z-0.4275
X1.1978 Y2.8152
Z-0.4675
X1.1981 Y2.8153 Z-0.4703
X1.199 Y2.8155 Z-0.4729
X1.2005 Y2.8159 Z-0.4753
X1.2024 Y2.8164 Z-0.4773
X1.2047 Y2.817 Z-0.4788
X1.2072 Y2.8176 Z-0.4797
X1.2099 Y2.8183 Z-0.48
X1.222 Y2.8214
G3 X1.2311 Y2.8367 I-0.0031 J0.0122
X1.1233 Y2.809 I-0.0539 J-0.0139
X1.2311 Y2.8367 I0.0539 J0.0138
X1.2158 Y2.8458 I-0.0122 J-0.0031
G1 X1.2037 Y2.8426
X1.201 Y2.8419 Z-0.4797
X1.1985 Y2.8412 Z-0.4788
X1.1962 Y2.8406 Z-0.4773
X1.1942 Y2.8401 Z-0.4753
X1.1928 Y2.8398 Z-0.4729
X1.1919 Y2.8395 Z-0.4703
X1.1916 Y2.8394 Z-0.4675
X1.1978 Y2.8152
Z-0.5075
X1.1981 Y2.8153 Z-0.5103
X1.199 Y2.8155 Z-0.5129
X1.2005 Y2.8159 Z-0.5153
X1.2024 Y2.8164 Z-0.5173
X1.2047 Y2.817 Z-0.5188
X1.2072 Y2.8176 Z-0.5197
X1.2099 Y2.8183 Z-0.52
X1.222 Y2.8214
G3 X1.2311 Y2.8367 I-0.0031 J0.0122
X1.1233 Y2.809 I-0.0539 J-0.0139
X1.2311 Y2.8367 I0.0539 J0.0138
X1.2158 Y2.8458 I-0.0122 J-0.0031
G1 X1.2037 Y2.8426
X1.201 Y2.8419 Z-0.5197
X1.1985 Y2.8412 Z-0.5188
X1.1962 Y2.8406 Z-0.5173
X1.1942 Y2.8401 Z-0.5153
X1.1928 Y2.8398 Z-0.5129
X1.1919 Y2.8395 Z-0.5103
X1.1916 Y2.8394 Z-0.5075
X1.1978 Y2.8152
Z-0.5475
X1.1981 Y2.8153 Z-0.5503
X1.199 Y2.8155 Z-0.5529
X1.2005 Y2.8159 Z-0.5553
X1.2024 Y2.8164 Z-0.5573
X1.2047 Y2.817 Z-0.5588
X1.2072 Y2.8176 Z-0.5597
X1.2099 Y2.8183 Z-0.56
X1.222 Y2.8214
G3 X1.2311 Y2.8367 I-0.0031 J0.0122
X1.1233 Y2.809 I-0.0539 J-0.0139
X1.2311 Y2.8367 I0.0539 J0.0138
X1.2158 Y2.8458 I-0.0122 J-0.0031
G1 X1.2037 Y2.8426
X1.201 Y2.8419 Z-0.5597
X1.1985 Y2.8412 Z-0.5588
X1.1962 Y2.8406 Z-0.5573
X1.1942 Y2.8401 Z-0.5553
X1.1928 Y2.8398 Z-0.5529
X1.1919 Y2.8395 Z-0.5503
X1.1916 Y2.8394 Z-0.5475
X1.1978 Y2.8152
Z-0.5875
X1.1981 Y2.8153 Z-0.5903
X1.199 Y2.8155 Z-0.5929
X1.2005 Y2.8159 Z-0.5953
X1.2024 Y2.8164 Z-0.5973
X1.2047 Y2.817 Z-0.5988
X1.2072 Y2.8176 Z-0.5997
X1.2099 Y2.8183 Z-0.6
X1.222 Y2.8214
G3 X1.2311 Y2.8367 I-0.0031 J0.0122
X1.1233 Y2.809 I-0.0539 J-0.0139
X1.2311 Y2.8367 I0.0539 J0.0138
X1.2158 Y2.8458 I-0.0122 J-0.0031
G1 X1.2037 Y2.8426
X1.201 Y2.8419 Z-0.5997
X1.1985 Y2.8412 Z-0.5988
X1.1962 Y2.8406 Z-0.5973
X1.1942 Y2.8401 Z-0.5953
X1.1928 Y2.8398 Z-0.5929
X1.1919 Y2.8395 Z-0.5903
X1.1916 Y2.8394 Z-0.5875
X1.1978 Y2.8152
Z-0.6083
X1.1981 Y2.8153 Z-0.611
X1.199 Y2.8155 Z-0.6137
X1.2005 Y2.8159 Z-0.616
X1.2024 Y2.8164 Z-0.618
X1.2047 Y2.817 Z-0.6195
X1.2072 Y2.8176 Z-0.6204
X1.2099 Y2.8183 Z-0.6207
X1.222 Y2.8214
G3 X1.2311 Y2.8367 I-0.0031 J0.0122
X1.1233 Y2.809 I-0.0539 J-0.0139
X1.2311 Y2.8367 I0.0539 J0.0138
X1.2158 Y2.8458 I-0.0122 J-0.0031
G1 X1.2037 Y2.8426
X1.201 Y2.8419 Z-0.6204
X1.1985 Y2.8412 Z-0.6195
X1.1962 Y2.8406 Z-0.618
X1.1942 Y2.8401 Z-0.616
X1.1928 Y2.8398 Z-0.6137
X1.1919 Y2.8395 Z-0.611
X1.1916 Y2.8394 Z-0.6083
X1.1978 Y2.8152
Z-0.629
X1.1981 Y2.8153 Z-0.6318
X1.199 Y2.8155 Z-0.6344
X1.2005 Y2.8159 Z-0.6368
X1.2024 Y2.8164 Z-0.6388
X1.2047 Y2.817 Z-0.6403
X1.2072 Y2.8176 Z-0.6412
X1.2099 Y2.8183 Z-0.6415
X1.222 Y2.8214
G3 X1.2311 Y2.8367 I-0.0031 J0.0122
X1.1233 Y2.809 I-0.0539 J-0.0139
X1.2311 Y2.8367 I0.0539 J0.0138
X1.2158 Y2.8458 I-0.0122 J-0.0031
G1 X1.2037 Y2.8426
X1.201 Y2.8419 Z-0.6412
X1.1985 Y2.8412 Z-0.6403
X1.1962 Y2.8406 Z-0.6388
X1.1942 Y2.8401 Z-0.6368
X1.1928 Y2.8398 Z-0.6344
X1.1919 Y2.8395 Z-0.6318
X1.1916 Y2.8394 Z-0.629
G0 Z0.75
X1.4543 Y2.8353
G1 Z-0.0275 F30
G18 G3 X1.4418 Z-0.04 I-0.0125 K0
G1 X1.4293
G17 G3 X1.4168 Y2.8228 I0 J-0.0125
G2 X0.9376 I-0.2396 J0
X1.4168 I0.2396 J0
G3 X1.4293 Y2.8103 I0.0125 J0
G1 X1.4418
G18 G2 X1.4543 Z-0.0275 I0 K0.0125
G1 Y2.8353
Z-0.0675
G3 X1.4418 Z-0.08 I-0.0125 K0
G1 X1.4293
G17 G3 X1.4168 Y2.8228 I0 J-0.0125
G2 X0.9376 I-0.2396 J0
X1.4168 I0.2396 J0
G3 X1.4293 Y2.8103 I0.0125 J0
G1 X1.4418
G18 G2 X1.4543 Z-0.0675 I0 K0.0125
G1 Y2.8353
Z-0.1075
G3 X1.4418 Z-0.12 I-0.0125 K0
G1 X1.4293
G17 G3 X1.4168 Y2.8228 I0 J-0.0125
G2 X0.9376 I-0.2396 J0
X1.4168 I0.2396 J0
G3 X1.4293 Y2.8103 I0.0125 J0
G1 X1.4418
G18 G2 X1.4543 Z-0.1075 I0 K0.0125
G1 Y2.8353
Z-0.1475
G3 X1.4418 Z-0.16 I-0.0125 K0
G1 X1.4293
G17 G3 X1.4168 Y2.8228 I0 J-0.0125
G2 X0.9376 I-0.2396 J0
X1.4168 I0.2396 J0
G3 X1.4293 Y2.8103 I0.0125 J0
G1 X1.4418
G18 G2 X1.4543 Z-0.1475 I0 K0.0125
G1 Y2.8353
Z-0.1875
G3 X1.4418 Z-0.2 I-0.0125 K0
G1 X1.4293
G17 G3 X1.4168 Y2.8228 I0 J-0.0125
G2 X0.9376 I-0.2396 J0
X1.4168 I0.2396 J0
G3 X1.4293 Y2.8103 I0.0125 J0
G1 X1.4418
G18 G2 X1.4543 Z-0.1875 I0 K0.0125
G1 Y2.8353
Z-0.2275
G3 X1.4418 Z-0.24 I-0.0125 K0
G1 X1.4293
G17 G3 X1.4168 Y2.8228 I0 J-0.0125
G2 X0.9376 I-0.2396 J0
X1.4168 I0.2396 J0
G3 X1.4293 Y2.8103 I0.0125 J0
G1 X1.4418
G18 G2 X1.4543 Z-0.2275 I0 K0.0125
G1 Y2.8353
Z-0.2675
G3 X1.4418 Z-0.28 I-0.0125 K0
G1 X1.4293
G17 G3 X1.4168 Y2.8228 I0 J-0.0125
G2 X0.9376 I-0.2396 J0
X1.4168 I0.2396 J0
G3 X1.4293 Y2.8103 I0.0125 J0
G1 X1.4418
G18 G2 X1.4543 Z-0.2675 I0 K0.0125
G1 Y2.8353
Z-0.3075
G3 X1.4418 Z-0.32 I-0.0125 K0
G1 X1.4293
G17 G3 X1.4168 Y2.8228 I0 J-0.0125
G2 X0.9376 I-0.2396 J0
X1.4168 I0.2396 J0
G3 X1.4293 Y2.8103 I0.0125 J0
G1 X1.4418
G18 G2 X1.4543 Z-0.3075 I0 K0.0125
G1 Y2.8353
Z-0.3475
G3 X1.4418 Z-0.36 I-0.0125 K0
G1 X1.4293
G17 G3 X1.4168 Y2.8228 I0 J-0.0125
G2 X0.9376 I-0.2396 J0
X1.4168 I0.2396 J0
G3 X1.4293 Y2.8103 I0.0125 J0
G1 X1.4418
G18 G2 X1.4543 Z-0.3475 I0 K0.0125
G1 Y2.8353
Z-0.3875
G3 X1.4418 Z-0.4 I-0.0125 K0
G1 X1.4293
G17 G3 X1.4168 Y2.8228 I0 J-0.0125
G2 X0.9376 I-0.2396 J0
X1.4168 I0.2396 J0
G3 X1.4293 Y2.8103 I0.0125 J0
G1 X1.4418
G18 G2 X1.4543 Z-0.3875 I0 K0.0125
G1 Y2.8353
Z-0.4275
G3 X1.4418 Z-0.44 I-0.0125 K0
G1 X1.4293
G17 G3 X1.4168 Y2.8228 I0 J-0.0125
G2 X0.9376 I-0.2396 J0
X1.4168 I0.2396 J0
G3 X1.4293 Y2.8103 I0.0125 J0
G1 X1.4418
G18 G2 X1.4543 Z-0.4275 I0 K0.0125
G1 Y2.8353
Z-0.4675
G3 X1.4418 Z-0.48 I-0.0125 K0
G1 X1.4293
G17 G3 X1.4168 Y2.8228 I0 J-0.0125
G2 X0.9376 I-0.2396 J0
X1.4168 I0.2396 J0
G3 X1.4293 Y2.8103 I0.0125 J0
G1 X1.4418
G18 G2 X1.4543 Z-0.4675 I0 K0.0125
G1 Y2.8353
Z-0.5075
G3 X1.4418 Z-0.52 I-0.0125 K0
G1 X1.4293
G17 G3 X1.4168 Y2.8228 I0 J-0.0125
G2 X0.9376 I-0.2396 J0
X1.4168 I0.2396 J0
G3 X1.4293 Y2.8103 I0.0125 J0
G1 X1.4418
G18 G2 X1.4543 Z-0.5075 I0 K0.0125
G1 Y2.8353
Z-0.5475
G3 X1.4418 Z-0.56 I-0.0125 K0
G1 X1.4293
G17 G3 X1.4168 Y2.8228 I0 J-0.0125
G2 X0.9376 I-0.2396 J0
X1.4168 I0.2396 J0
G3 X1.4293 Y2.8103 I0.0125 J0
G1 X1.4418
G18 G2 X1.4543 Z-0.5475 I0 K0.0125
G1 Y2.8353
Z-0.5875
G3 X1.4418 Z-0.6 I-0.0125 K0
G1 X1.4293
G17 G3 X1.4168 Y2.8228 I0 J-0.0125
G2 X0.9376 I-0.2396 J0
X1.4168 I0.2396 J0
G3 X1.4293 Y2.8103 I0.0125 J0
G1 X1.4418
G18 G2 X1.4543 Z-0.5875 I0 K0.0125
G1 Y2.8353
Z-0.6083
G3 X1.4418 Z-0.6207 I-0.0125 K0.0001
G1 X1.4293
G17 G3 X1.4168 Y2.8228 I0 J-0.0125
G2 X0.9376 I-0.2396 J0
X1.4168 I0.2396 J0
G3 X1.4293 Y2.8103 I0.0125 J0
G1 X1.4418
G18 G2 X1.4543 Z-0.6082 I0 K0.0125
G1 Y2.8353 Z-0.6083
Z-0.629
G3 X1.4418 Z-0.6415 I-0.0125 K0
G1 X1.4293
G17 G3 X1.4168 Y2.8228 I0 J-0.0125
G2 X0.9376 I-0.2396 J0
X1.4168 I0.2396 J0
G3 X1.4293 Y2.8103 I0.0125 J0
G1 X1.4418
G18 G2 X1.4543 Z-0.629 I0 K0.0125
G0 Z0.75
G17
G28 G91 Z0
G90
G28 G91 X0 Y0
G90
M30
%
