%
(middleDelrinFacing)
(T1  D=0.25 CR=0 - ZMIN=-1.4033 - flat end mill)
G90
G17
G20
G28 G91 Z0
G90

(Face3)
T1 M6
S10000 M3
G54
G0 X1.2638 Y1.8233
Z0.6
Z0.2
G1 Z-0.0033 F30
X1.1263 F60
X0.4485
G2 Y2.0169 I0 J0.0968
G1 X1.1263
G3 Y2.2105 I0 J0.0968
G1 X0.4485
G2 Y2.4041 I0 J0.0968
G1 X1.1263
G3 Y2.5977 I0 J0.0968
G1 X0.4485
G0 Z0.2
X0.311 Y1.8233
G1 Z-0.0433 F30
X0.4485 F60
X1.1263
G3 Y2.0169 I0 J0.0968
G1 X0.4485
G2 Y2.2105 I0 J0.0968
G1 X1.1263
G3 Y2.4041 I0 J0.0968
G1 X0.4485
G2 Y2.5977 I0 J0.0968
G1 X1.1263
G0 Z0.2
X1.2638 Y1.8233
G1 Z-0.0833 F30
X1.1263 F60
X0.4485
G2 Y2.0169 I0 J0.0968
G1 X1.1263
G3 Y2.2105 I0 J0.0968
G1 X0.4485
G2 Y2.4041 I0 J0.0968
G1 X1.1263
G3 Y2.5977 I0 J0.0968
G1 X0.4485
G0 Z0.2
X0.311 Y1.8233
G1 Z-0.1233 F30
X0.4485 F60
X1.1263
G3 Y2.0169 I0 J0.0968
G1 X0.4485
G2 Y2.2105 I0 J0.0968
G1 X1.1263
G3 Y2.4041 I0 J0.0968
G1 X0.4485
G2 Y2.5977 I0 J0.0968
G1 X1.1263
G0 Z0.2
X1.2638 Y1.8233
G1 Z-0.1633 F30
X1.1263 F60
X0.4485
G2 Y2.0169 I0 J0.0968
G1 X1.1263
G3 Y2.2105 I0 J0.0968
G1 X0.4485
G2 Y2.4041 I0 J0.0968
G1 X1.1263
G3 Y2.5977 I0 J0.0968
G1 X0.4485
G0 Z0.2
X0.311 Y1.8233
G1 Z-0.2033 F30
X0.4485 F60
X1.1263
G3 Y2.0169 I0 J0.0968
G1 X0.4485
G2 Y2.2105 I0 J0.0968
G1 X1.1263
G3 Y2.4041 I0 J0.0968
G1 X0.4485
G2 Y2.5977 I0 J0.0968
G1 X1.1263
G0 Z0.2
X1.2638 Y1.8233
G1 Z-0.2433 F30
X1.1263 F60
X0.4485
G2 Y2.0169 I0 J0.0968
G1 X1.1263
G3 Y2.2105 I0 J0.0968
G1 X0.4485
G2 Y2.4041 I0 J0.0968
G1 X1.1263
G3 Y2.5977 I0 J0.0968
G1 X0.4485
G0 Z0.2
X0.311 Y1.8233
G1 Z-0.2833 F30
X0.4485 F60
X1.1263
G3 Y2.0169 I0 J0.0968
G1 X0.4485
G2 Y2.2105 I0 J0.0968
G1 X1.1263
G3 Y2.4041 I0 J0.0968
G1 X0.4485
G2 Y2.5977 I0 J0.0968
G1 X1.1263
G0 Z0.2
X1.2638 Y1.8233
G1 Z-0.3233 F30
X1.1263 F60
X0.4485
G2 Y2.0169 I0 J0.0968
G1 X1.1263
G3 Y2.2105 I0 J0.0968
G1 X0.4485
G2 Y2.4041 I0 J0.0968
G1 X1.1263
G3 Y2.5977 I0 J0.0968
G1 X0.4485
G0 Z0.2
X0.311 Y1.8233
G1 Z-0.3633 F30
X0.4485 F60
X1.1263
G3 Y2.0169 I0 J0.0968
G1 X0.4485
G2 Y2.2105 I0 J0.0968
G1 X1.1263
G3 Y2.4041 I0 J0.0968
G1 X0.4485
G2 Y2.5977 I0 J0.0968
G1 X1.1263
G0 Z0.2
X1.2638 Y1.8233
G1 Z-0.4033 F30
X1.1263 F60
X0.4485
G2 Y2.0169 I0 J0.0968
G1 X1.1263
G3 Y2.2105 I0 J0.0968
G1 X0.4485
G2 Y2.4041 I0 J0.0968
G1 X1.1263
G3 Y2.5977 I0 J0.0968
G1 X0.4485
G0 Z0.2
X0.311 Y1.8233
G1 Z-0.4433 F30
X0.4485 F60
X1.1263
G3 Y2.0169 I0 J0.0968
G1 X0.4485
G2 Y2.2105 I0 J0.0968
G1 X1.1263
G3 Y2.4041 I0 J0.0968
G1 X0.4485
G2 Y2.5977 I0 J0.0968
G1 X1.1263
G0 Z0.2
X1.2638 Y1.8233
G1 Z-0.4833 F30
X1.1263 F60
X0.4485
G2 Y2.0169 I0 J0.0968
G1 X1.1263
G3 Y2.2105 I0 J0.0968
G1 X0.4485
G2 Y2.4041 I0 J0.0968
G1 X1.1263
G3 Y2.5977 I0 J0.0968
G1 X0.4485
G0 Z0.2
X0.311 Y1.8233
G1 Z-0.5233 F30
X0.4485 F60
X1.1263
G3 Y2.0169 I0 J0.0968
G1 X0.4485
G2 Y2.2105 I0 J0.0968
G1 X1.1263
G3 Y2.4041 I0 J0.0968
G1 X0.4485
G2 Y2.5977 I0 J0.0968
G1 X1.1263
G0 Z0.2
X1.2638 Y1.8233
G1 Z-0.5633 F30
X1.1263 F60
X0.4485
G2 Y2.0169 I0 J0.0968
G1 X1.1263
G3 Y2.2105 I0 J0.0968
G1 X0.4485
G2 Y2.4041 I0 J0.0968
G1 X1.1263
G3 Y2.5977 I0 J0.0968
G1 X0.4485
G0 Z0.2
X0.311 Y1.8233
G1 Z-0.6033 F30
X0.4485 F60
X1.1263
G3 Y2.0169 I0 J0.0968
G1 X0.4485
G2 Y2.2105 I0 J0.0968
G1 X1.1263
G3 Y2.4041 I0 J0.0968
G1 X0.4485
G2 Y2.5977 I0 J0.0968
G1 X1.1263
G0 Z0.2
X1.2638 Y1.8233
G1 Z-0.6433 F30
X1.1263 F60
X0.4485
G2 Y2.0169 I0 J0.0968
G1 X1.1263
G3 Y2.2105 I0 J0.0968
G1 X0.4485
G2 Y2.4041 I0 J0.0968
G1 X1.1263
G3 Y2.5977 I0 J0.0968
G1 X0.4485
G0 Z0.2
X0.311 Y1.8233
G1 Z-0.6833 F30
X0.4485 F60
X1.1263
G3 Y2.0169 I0 J0.0968
G1 X0.4485
G2 Y2.2105 I0 J0.0968
G1 X1.1263
G3 Y2.4041 I0 J0.0968
G1 X0.4485
G2 Y2.5977 I0 J0.0968
G1 X1.1263
G0 Z0.2
X1.2638 Y1.8233
G1 Z-0.7233 F30
X1.1263 F60
X0.4485
G2 Y2.0169 I0 J0.0968
G1 X1.1263
G3 Y2.2105 I0 J0.0968
G1 X0.4485
G2 Y2.4041 I0 J0.0968
G1 X1.1263
G3 Y2.5977 I0 J0.0968
G1 X0.4485
G0 Z0.2
X0.311 Y1.8233
G1 Z-0.7633 F30
X0.4485 F60
X1.1263
G3 Y2.0169 I0 J0.0968
G1 X0.4485
G2 Y2.2105 I0 J0.0968
G1 X1.1263
G3 Y2.4041 I0 J0.0968
G1 X0.4485
G2 Y2.5977 I0 J0.0968
G1 X1.1263
G0 Z0.2
X1.2638 Y1.8233
G1 Z-0.8033 F30
X1.1263 F60
X0.4485
G2 Y2.0169 I0 J0.0968
G1 X1.1263
G3 Y2.2105 I0 J0.0968
G1 X0.4485
G2 Y2.4041 I0 J0.0968
G1 X1.1263
G3 Y2.5977 I0 J0.0968
G1 X0.4485
G0 Z0.2
X0.311 Y1.8233
G1 Z-0.8433 F30
X0.4485 F60
X1.1263
G3 Y2.0169 I0 J0.0968
G1 X0.4485
G2 Y2.2105 I0 J0.0968
G1 X1.1263
G3 Y2.4041 I0 J0.0968
G1 X0.4485
G2 Y2.5977 I0 J0.0968
G1 X1.1263
G0 Z0.2
X1.2638 Y1.8233
G1 Z-0.8833 F30
X1.1263 F60
X0.4485
G2 Y2.0169 I0 J0.0968
G1 X1.1263
G3 Y2.2105 I0 J0.0968
G1 X0.4485
G2 Y2.4041 I0 J0.0968
G1 X1.1263
G3 Y2.5977 I0 J0.0968
G1 X0.4485
G0 Z0.2
X0.311 Y1.8233
G1 Z-0.9233 F30
X0.4485 F60
X1.1263
G3 Y2.0169 I0 J0.0968
G1 X0.4485
G2 Y2.2105 I0 J0.0968
G1 X1.1263
G3 Y2.4041 I0 J0.0968
G1 X0.4485
G2 Y2.5977 I0 J0.0968
G1 X1.1263
G0 Z0.2
X1.2638 Y1.8233
G1 Z-0.9633 F30
X1.1263 F60
X0.4485
G2 Y2.0169 I0 J0.0968
G1 X1.1263
G3 Y2.2105 I0 J0.0968
G1 X0.4485
G2 Y2.4041 I0 J0.0968
G1 X1.1263
G3 Y2.5977 I0 J0.0968
G1 X0.4485
G0 Z0.2
X0.311 Y1.8233
G1 Z-1.0033 F30
X0.4485 F60
X1.1263
G3 Y2.0169 I0 J0.0968
G1 X0.4485
G2 Y2.2105 I0 J0.0968
G1 X1.1263
G3 Y2.4041 I0 J0.0968
G1 X0.4485
G2 Y2.5977 I0 J0.0968
G1 X1.1263
G0 Z0.2
X1.2638 Y1.8233
G1 Z-1.0433 F30
X1.1263 F60
X0.4485
G2 Y2.0169 I0 J0.0968
G1 X1.1263
G3 Y2.2105 I0 J0.0968
G1 X0.4485
G2 Y2.4041 I0 J0.0968
G1 X1.1263
G3 Y2.5977 I0 J0.0968
G1 X0.4485
G0 Z0.2
X0.311 Y1.8233
G1 Z-1.0833 F30
X0.4485 F60
X1.1263
G3 Y2.0169 I0 J0.0968
G1 X0.4485
G2 Y2.2105 I0 J0.0968
G1 X1.1263
G3 Y2.4041 I0 J0.0968
G1 X0.4485
G2 Y2.5977 I0 J0.0968
G1 X1.1263
G0 Z0.2
X1.2638 Y1.8233
G1 Z-1.1233 F30
X1.1263 F60
X0.4485
G2 Y2.0169 I0 J0.0968
G1 X1.1263
G3 Y2.2105 I0 J0.0968
G1 X0.4485
G2 Y2.4041 I0 J0.0968
G1 X1.1263
G3 Y2.5977 I0 J0.0968
G1 X0.4485
G0 Z0.2
X0.311 Y1.8233
G1 Z-1.1633 F30
X0.4485 F60
X1.1263
G3 Y2.0169 I0 J0.0968
G1 X0.4485
G2 Y2.2105 I0 J0.0968
G1 X1.1263
G3 Y2.4041 I0 J0.0968
G1 X0.4485
G2 Y2.5977 I0 J0.0968
G1 X1.1263
G0 Z0.2
X1.2638 Y1.8233
G1 Z-1.2033 F30
X1.1263 F60
X0.4485
G2 Y2.0169 I0 J0.0968
G1 X1.1263
G3 Y2.2105 I0 J0.0968
G1 X0.4485
G2 Y2.4041 I0 J0.0968
G1 X1.1263
G3 Y2.5977 I0 J0.0968
G1 X0.4485
G0 Z0.2
X0.311 Y1.8233
G1 Z-1.2433 F30
X0.4485 F60
X1.1263
G3 Y2.0169 I0 J0.0968
G1 X0.4485
G2 Y2.2105 I0 J0.0968
G1 X1.1263
G3 Y2.4041 I0 J0.0968
G1 X0.4485
G2 Y2.5977 I0 J0.0968
G1 X1.1263
G0 Z0.2
X1.2638 Y1.8233
G1 Z-1.2833 F30
X1.1263 F60
X0.4485
G2 Y2.0169 I0 J0.0968
G1 X1.1263
G3 Y2.2105 I0 J0.0968
G1 X0.4485
G2 Y2.4041 I0 J0.0968
G1 X1.1263
G3 Y2.5977 I0 J0.0968
G1 X0.4485
G0 Z0.2
X0.311 Y1.8233
G1 Z-1.3233 F30
X0.4485 F60
X1.1263
G3 Y2.0169 I0 J0.0968
G1 X0.4485
G2 Y2.2105 I0 J0.0968
G1 X1.1263
G3 Y2.4041 I0 J0.0968
G1 X0.4485
G2 Y2.5977 I0 J0.0968
G1 X1.1263
G0 Z0.2
X1.2638 Y1.8233
G1 Z-1.3633 F30
X1.1263 F60
X0.4485
G2 Y2.0169 I0 J0.0968
G1 X1.1263
G3 Y2.2105 I0 J0.0968
G1 X0.4485
G2 Y2.4041 I0 J0.0968
G1 X1.1263
G3 Y2.5977 I0 J0.0968
G1 X0.4485
G0 Z0.2
X0.311 Y1.8233
G1 Z-1.4033 F30
X0.4485 F60
X1.1263
G3 Y2.0169 I0 J0.0968
G1 X0.4485
G2 Y2.2105 I0 J0.0968
G1 X1.1263
G3 Y2.4041 I0 J0.0968
G1 X0.4485
G2 Y2.5977 I0 J0.0968
G1 X1.1263
G0 Z0.6
G28 G91 Z0
G90
G28 G91 X0 Y0
G90
M30
%
