%
(Plastic Boards)
(T2  D=0.125 CR=0 - ZMIN=-0.75 - flat end mill)
G90
G17
G20
G28 G91 Z0
G90

(2D Contour2)
T2 M6
S10000 M3
G54
M7
G0 X12.0875 Y1.425
Z1.25
G1 Z-0.0275 F30
G18 G2 X12.1 Z-0.04 I0.0125 K0
G1 X12.1125
G17 G3 X12.125 Y1.4375 I0 J0.0125
X12 I-0.0625 J0
X12.125 I0.0625 J0
X12.1125 Y1.45 I-0.0125 J0
G1 X12.1
G18 G3 X12.0875 Z-0.0275 I0 K0.0125
G1 Y1.425
Z-0.0675
G2 X12.1 Z-0.08 I0.0125 K0
G1 X12.1125
G17 G3 X12.125 Y1.4375 I0 J0.0125
X12 I-0.0625 J0
X12.125 I0.0625 J0
X12.1125 Y1.45 I-0.0125 J0
G1 X12.1
G18 G3 X12.0875 Z-0.0675 I0 K0.0125
G1 Y1.425
Z-0.1075
G2 X12.1 Z-0.12 I0.0125 K0
G1 X12.1125
G17 G3 X12.125 Y1.4375 I0 J0.0125
X12 I-0.0625 J0
X12.125 I0.0625 J0
X12.1125 Y1.45 I-0.0125 J0
G1 X12.1
G18 G3 X12.0875 Z-0.1075 I0 K0.0125
G1 Y1.425
Z-0.1475
G2 X12.1 Z-0.16 I0.0125 K0
G1 X12.1125
G17 G3 X12.125 Y1.4375 I0 J0.0125
X12 I-0.0625 J0
X12.125 I0.0625 J0
X12.1125 Y1.45 I-0.0125 J0
G1 X12.1
G18 G3 X12.0875 Z-0.1475 I0 K0.0125
G1 Y1.425
Z-0.1875
G2 X12.1 Z-0.2 I0.0125 K0
G1 X12.1125
G17 G3 X12.125 Y1.4375 I0 J0.0125
X12 I-0.0625 J0
X12.125 I0.0625 J0
X12.1125 Y1.45 I-0.0125 J0
G1 X12.1
G18 G3 X12.0875 Z-0.1875 I0 K0.0125
G1 Y1.425
Z-0.2275
G2 X12.1 Z-0.24 I0.0125 K0
G1 X12.1125
G17 G3 X12.125 Y1.4375 I0 J0.0125
X12 I-0.0625 J0
X12.125 I0.0625 J0
X12.1125 Y1.45 I-0.0125 J0
G1 X12.1
G18 G3 X12.0875 Z-0.2275 I0 K0.0125
G1 Y1.425
Z-0.2675
G2 X12.1 Z-0.28 I0.0125 K0
G1 X12.1125
G17 G3 X12.125 Y1.4375 I0 J0.0125
X12 I-0.0625 J0
X12.125 I0.0625 J0
X12.1125 Y1.45 I-0.0125 J0
G1 X12.1
G18 G3 X12.0875 Z-0.2675 I0 K0.0125
G1 Y1.425
Z-0.3075
G2 X12.1 Z-0.32 I0.0125 K0
G1 X12.1125
G17 G3 X12.125 Y1.4375 I0 J0.0125
X12 I-0.0625 J0
X12.125 I0.0625 J0
X12.1125 Y1.45 I-0.0125 J0
G1 X12.1
G18 G3 X12.0875 Z-0.3075 I0 K0.0125
G1 Y1.425
Z-0.3475
G2 X12.1 Z-0.36 I0.0125 K0
G1 X12.1125
G17 G3 X12.125 Y1.4375 I0 J0.0125
X12 I-0.0625 J0
X12.125 I0.0625 J0
X12.1125 Y1.45 I-0.0125 J0
G1 X12.1
G18 G3 X12.0875 Z-0.3475 I0 K0.0125
G1 Y1.425
Z-0.3875
G2 X12.1 Z-0.4 I0.0125 K0
G1 X12.1125
G17 G3 X12.125 Y1.4375 I0 J0.0125
X12 I-0.0625 J0
X12.125 I0.0625 J0
X12.1125 Y1.45 I-0.0125 J0
G1 X12.1
G18 G3 X12.0875 Z-0.3875 I0 K0.0125
G1 Y1.425
Z-0.4275
G2 X12.1 Z-0.44 I0.0125 K0
G1 X12.1125
G17 G3 X12.125 Y1.4375 I0 J0.0125
X12 I-0.0625 J0
X12.125 I0.0625 J0
X12.1125 Y1.45 I-0.0125 J0
G1 X12.1
G18 G3 X12.0875 Z-0.4275 I0 K0.0125
G1 Y1.425
Z-0.4675
G2 X12.1 Z-0.48 I0.0125 K0
G1 X12.1125
G17 G3 X12.125 Y1.4375 I0 J0.0125
X12 I-0.0625 J0
X12.125 I0.0625 J0
X12.1125 Y1.45 I-0.0125 J0
G1 X12.1
G18 G3 X12.0875 Z-0.4675 I0 K0.0125
G1 Y1.425
Z-0.5075
G2 X12.1 Z-0.52 I0.0125 K0
G1 X12.1125
G17 G3 X12.125 Y1.4375 I0 J0.0125
X12 I-0.0625 J0
X12.125 I0.0625 J0
X12.1125 Y1.45 I-0.0125 J0
G1 X12.1
G18 G3 X12.0875 Z-0.5075 I0 K0.0125
G1 Y1.425
Z-0.5475
G2 X12.1 Z-0.56 I0.0125 K0
G1 X12.1125
G17 G3 X12.125 Y1.4375 I0 J0.0125
X12 I-0.0625 J0
X12.125 I0.0625 J0
X12.1125 Y1.45 I-0.0125 J0
G1 X12.1
G18 G3 X12.0875 Z-0.5475 I0 K0.0125
G1 Y1.425
Z-0.5875
G2 X12.1 Z-0.6 I0.0125 K0
G1 X12.1125
G17 G3 X12.125 Y1.4375 I0 J0.0125
X12 I-0.0625 J0
X12.125 I0.0625 J0
X12.1125 Y1.45 I-0.0125 J0
G1 X12.1
G18 G3 X12.0875 Z-0.5875 I0 K0.0125
G1 Y1.425
Z-0.6275
G2 X12.1 Z-0.64 I0.0125 K0
G1 X12.1125
G17 G3 X12.125 Y1.4375 I0 J0.0125
X12 I-0.0625 J0
X12.125 I0.0625 J0
X12.1125 Y1.45 I-0.0125 J0
G1 X12.1
G18 G3 X12.0875 Z-0.6275 I0 K0.0125
G1 Y1.425
Z-0.6675
G2 X12.1 Z-0.68 I0.0125 K0
G1 X12.1125
G17 G3 X12.125 Y1.4375 I0 J0.0125
X12 I-0.0625 J0
X12.125 I0.0625 J0
X12.1125 Y1.45 I-0.0125 J0
G1 X12.1
G18 G3 X12.0875 Z-0.6675 I0 K0.0125
G1 Y1.425
Z-0.7075
G2 X12.1 Z-0.72 I0.0125 K0
G1 X12.1125
G17 G3 X12.125 Y1.4375 I0 J0.0125
X12 I-0.0625 J0
X12.125 I0.0625 J0
X12.1125 Y1.45 I-0.0125 J0
G1 X12.1
G18 G3 X12.0875 Z-0.7075 I0 K0.0125
G1 Y1.425
Z-0.7375
G2 X12.1 Z-0.75 I0.0125 K0
G1 X12.1125
G17 G3 X12.125 Y1.4375 I0 J0.0125
X12 I-0.0625 J0
X12.125 I0.0625 J0
X12.1125 Y1.45 I-0.0125 J0
G1 X12.1
G18 G3 X12.0875 Z-0.7375 I0 K0.0125
G0 Z1.25
X22.8927 Y1.4159
G1 Z-0.0275 F30
X22.893 Y1.4158 Z-0.0303
X22.8939 Y1.4154 Z-0.0329
X22.8952 Y1.4148 Z-0.0353
X22.897 Y1.414 Z-0.0373
X22.8992 Y1.413 Z-0.0388
X22.9016 Y1.412 Z-0.0397
X22.9042 Y1.4108 Z-0.04
X22.9156 Y1.4057
G17 G3 X22.9322 Y1.412 I0.0051 J0.0115
X22.8178 Y1.463 I-0.0572 J0.0255
X22.9322 Y1.412 I0.0572 J-0.0255
X22.9258 Y1.4287 I-0.0115 J0.0052
G1 X22.9143 Y1.4337
X22.9118 Y1.4348 Z-0.0397
X22.9094 Y1.4359 Z-0.0388
X22.9072 Y1.4368 Z-0.0373
X22.9054 Y1.4376 Z-0.0353
X22.9041 Y1.4382 Z-0.0329
X22.9032 Y1.4386 Z-0.0303
X22.9029 Y1.4387 Z-0.0275
X22.8927 Y1.4159
Z-0.0675
X22.893 Y1.4158 Z-0.0703
X22.8939 Y1.4154 Z-0.0729
X22.8952 Y1.4148 Z-0.0753
X22.897 Y1.414 Z-0.0773
X22.8992 Y1.413 Z-0.0788
X22.9016 Y1.412 Z-0.0797
X22.9042 Y1.4108 Z-0.08
X22.9156 Y1.4057
G3 X22.9322 Y1.412 I0.0051 J0.0115
X22.8178 Y1.463 I-0.0572 J0.0255
X22.9322 Y1.412 I0.0572 J-0.0255
X22.9258 Y1.4287 I-0.0115 J0.0052
G1 X22.9143 Y1.4337
X22.9118 Y1.4348 Z-0.0797
X22.9094 Y1.4359 Z-0.0788
X22.9072 Y1.4368 Z-0.0773
X22.9054 Y1.4376 Z-0.0753
X22.9041 Y1.4382 Z-0.0729
X22.9032 Y1.4386 Z-0.0703
X22.9029 Y1.4387 Z-0.0675
X22.8927 Y1.4159
Z-0.1075
X22.893 Y1.4158 Z-0.1103
X22.8939 Y1.4154 Z-0.1129
X22.8952 Y1.4148 Z-0.1153
X22.897 Y1.414 Z-0.1173
X22.8992 Y1.413 Z-0.1188
X22.9016 Y1.412 Z-0.1197
X22.9042 Y1.4108 Z-0.12
X22.9156 Y1.4057
G3 X22.9322 Y1.412 I0.0051 J0.0115
X22.8178 Y1.463 I-0.0572 J0.0255
X22.9322 Y1.412 I0.0572 J-0.0255
X22.9258 Y1.4287 I-0.0115 J0.0052
G1 X22.9143 Y1.4337
X22.9118 Y1.4348 Z-0.1197
X22.9094 Y1.4359 Z-0.1188
X22.9072 Y1.4368 Z-0.1173
X22.9054 Y1.4376 Z-0.1153
X22.9041 Y1.4382 Z-0.1129
X22.9032 Y1.4386 Z-0.1103
X22.9029 Y1.4387 Z-0.1075
X22.8927 Y1.4159
Z-0.1475
X22.893 Y1.4158 Z-0.1503
X22.8939 Y1.4154 Z-0.1529
X22.8952 Y1.4148 Z-0.1553
X22.897 Y1.414 Z-0.1573
X22.8992 Y1.413 Z-0.1588
X22.9016 Y1.412 Z-0.1597
X22.9042 Y1.4108 Z-0.16
X22.9156 Y1.4057
G3 X22.9322 Y1.412 I0.0051 J0.0115
X22.8178 Y1.463 I-0.0572 J0.0255
X22.9322 Y1.412 I0.0572 J-0.0255
X22.9258 Y1.4287 I-0.0115 J0.0052
G1 X22.9143 Y1.4337
X22.9118 Y1.4348 Z-0.1597
X22.9094 Y1.4359 Z-0.1588
X22.9072 Y1.4368 Z-0.1573
X22.9054 Y1.4376 Z-0.1553
X22.9041 Y1.4382 Z-0.1529
X22.9032 Y1.4386 Z-0.1503
X22.9029 Y1.4387 Z-0.1475
X22.8927 Y1.4159
Z-0.1875
X22.893 Y1.4158 Z-0.1903
X22.8939 Y1.4154 Z-0.1929
X22.8952 Y1.4148 Z-0.1953
X22.897 Y1.414 Z-0.1973
X22.8992 Y1.413 Z-0.1988
X22.9016 Y1.412 Z-0.1997
X22.9042 Y1.4108 Z-0.2
X22.9156 Y1.4057
G3 X22.9322 Y1.412 I0.0051 J0.0115
X22.8178 Y1.463 I-0.0572 J0.0255
X22.9322 Y1.412 I0.0572 J-0.0255
X22.9258 Y1.4287 I-0.0115 J0.0052
G1 X22.9143 Y1.4337
X22.9118 Y1.4348 Z-0.1997
X22.9094 Y1.4359 Z-0.1988
X22.9072 Y1.4368 Z-0.1973
X22.9054 Y1.4376 Z-0.1953
X22.9041 Y1.4382 Z-0.1929
X22.9032 Y1.4386 Z-0.1903
X22.9029 Y1.4387 Z-0.1875
X22.8927 Y1.4159
Z-0.2275
X22.893 Y1.4158 Z-0.2303
X22.8939 Y1.4154 Z-0.2329
X22.8952 Y1.4148 Z-0.2353
X22.897 Y1.414 Z-0.2373
X22.8992 Y1.413 Z-0.2388
X22.9016 Y1.412 Z-0.2397
X22.9042 Y1.4108 Z-0.24
X22.9156 Y1.4057
G3 X22.9322 Y1.412 I0.0051 J0.0115
X22.8178 Y1.463 I-0.0572 J0.0255
X22.9322 Y1.412 I0.0572 J-0.0255
X22.9258 Y1.4287 I-0.0115 J0.0052
G1 X22.9143 Y1.4337
X22.9118 Y1.4348 Z-0.2397
X22.9094 Y1.4359 Z-0.2388
X22.9072 Y1.4368 Z-0.2373
X22.9054 Y1.4376 Z-0.2353
X22.9041 Y1.4382 Z-0.2329
X22.9032 Y1.4386 Z-0.2303
X22.9029 Y1.4387 Z-0.2275
X22.8927 Y1.4159
Z-0.2675
X22.893 Y1.4158 Z-0.2703
X22.8939 Y1.4154 Z-0.2729
X22.8952 Y1.4148 Z-0.2753
X22.897 Y1.414 Z-0.2773
X22.8992 Y1.413 Z-0.2788
X22.9016 Y1.412 Z-0.2797
X22.9042 Y1.4108 Z-0.28
X22.9156 Y1.4057
G3 X22.9322 Y1.412 I0.0051 J0.0115
X22.8178 Y1.463 I-0.0572 J0.0255
X22.9322 Y1.412 I0.0572 J-0.0255
X22.9258 Y1.4287 I-0.0115 J0.0052
G1 X22.9143 Y1.4337
X22.9118 Y1.4348 Z-0.2797
X22.9094 Y1.4359 Z-0.2788
X22.9072 Y1.4368 Z-0.2773
X22.9054 Y1.4376 Z-0.2753
X22.9041 Y1.4382 Z-0.2729
X22.9032 Y1.4386 Z-0.2703
X22.9029 Y1.4387 Z-0.2675
X22.8927 Y1.4159
Z-0.3075
X22.893 Y1.4158 Z-0.3103
X22.8939 Y1.4154 Z-0.3129
X22.8952 Y1.4148 Z-0.3153
X22.897 Y1.414 Z-0.3173
X22.8992 Y1.413 Z-0.3188
X22.9016 Y1.412 Z-0.3197
X22.9042 Y1.4108 Z-0.32
X22.9156 Y1.4057
G3 X22.9322 Y1.412 I0.0051 J0.0115
X22.8178 Y1.463 I-0.0572 J0.0255
X22.9322 Y1.412 I0.0572 J-0.0255
X22.9258 Y1.4287 I-0.0115 J0.0052
G1 X22.9143 Y1.4337
X22.9118 Y1.4348 Z-0.3197
X22.9094 Y1.4359 Z-0.3188
X22.9072 Y1.4368 Z-0.3173
X22.9054 Y1.4376 Z-0.3153
X22.9041 Y1.4382 Z-0.3129
X22.9032 Y1.4386 Z-0.3103
X22.9029 Y1.4387 Z-0.3075
X22.8927 Y1.4159
Z-0.3475
X22.893 Y1.4158 Z-0.3503
X22.8939 Y1.4154 Z-0.3529
X22.8952 Y1.4148 Z-0.3553
X22.897 Y1.414 Z-0.3573
X22.8992 Y1.413 Z-0.3588
X22.9016 Y1.412 Z-0.3597
X22.9042 Y1.4108 Z-0.36
X22.9156 Y1.4057
G3 X22.9322 Y1.412 I0.0051 J0.0115
X22.8178 Y1.463 I-0.0572 J0.0255
X22.9322 Y1.412 I0.0572 J-0.0255
X22.9258 Y1.4287 I-0.0115 J0.0052
G1 X22.9143 Y1.4337
X22.9118 Y1.4348 Z-0.3597
X22.9094 Y1.4359 Z-0.3588
X22.9072 Y1.4368 Z-0.3573
X22.9054 Y1.4376 Z-0.3553
X22.9041 Y1.4382 Z-0.3529
X22.9032 Y1.4386 Z-0.3503
X22.9029 Y1.4387 Z-0.3475
X22.8927 Y1.4159
Z-0.3875
X22.893 Y1.4158 Z-0.3903
X22.8939 Y1.4154 Z-0.3929
X22.8952 Y1.4148 Z-0.3953
X22.897 Y1.414 Z-0.3973
X22.8992 Y1.413 Z-0.3988
X22.9016 Y1.412 Z-0.3997
X22.9042 Y1.4108 Z-0.4
X22.9156 Y1.4057
G3 X22.9322 Y1.412 I0.0051 J0.0115
X22.8178 Y1.463 I-0.0572 J0.0255
X22.9322 Y1.412 I0.0572 J-0.0255
X22.9258 Y1.4287 I-0.0115 J0.0052
G1 X22.9143 Y1.4337
X22.9118 Y1.4348 Z-0.3997
X22.9094 Y1.4359 Z-0.3988
X22.9072 Y1.4368 Z-0.3973
X22.9054 Y1.4376 Z-0.3953
X22.9041 Y1.4382 Z-0.3929
X22.9032 Y1.4386 Z-0.3903
X22.9029 Y1.4387 Z-0.3875
X22.8927 Y1.4159
Z-0.4275
X22.893 Y1.4158 Z-0.4303
X22.8939 Y1.4154 Z-0.4329
X22.8952 Y1.4148 Z-0.4353
X22.897 Y1.414 Z-0.4373
X22.8992 Y1.413 Z-0.4388
X22.9016 Y1.412 Z-0.4397
X22.9042 Y1.4108 Z-0.44
X22.9156 Y1.4057
G3 X22.9322 Y1.412 I0.0051 J0.0115
X22.8178 Y1.463 I-0.0572 J0.0255
X22.9322 Y1.412 I0.0572 J-0.0255
X22.9258 Y1.4287 I-0.0115 J0.0052
G1 X22.9143 Y1.4337
X22.9118 Y1.4348 Z-0.4397
X22.9094 Y1.4359 Z-0.4388
X22.9072 Y1.4368 Z-0.4373
X22.9054 Y1.4376 Z-0.4353
X22.9041 Y1.4382 Z-0.4329
X22.9032 Y1.4386 Z-0.4303
X22.9029 Y1.4387 Z-0.4275
X22.8927 Y1.4159
Z-0.4675
X22.893 Y1.4158 Z-0.4703
X22.8939 Y1.4154 Z-0.4729
X22.8952 Y1.4148 Z-0.4753
X22.897 Y1.414 Z-0.4773
X22.8992 Y1.413 Z-0.4788
X22.9016 Y1.412 Z-0.4797
X22.9042 Y1.4108 Z-0.48
X22.9156 Y1.4057
G3 X22.9322 Y1.412 I0.0051 J0.0115
X22.8178 Y1.463 I-0.0572 J0.0255
X22.9322 Y1.412 I0.0572 J-0.0255
X22.9258 Y1.4287 I-0.0115 J0.0052
G1 X22.9143 Y1.4337
X22.9118 Y1.4348 Z-0.4797
X22.9094 Y1.4359 Z-0.4788
X22.9072 Y1.4368 Z-0.4773
X22.9054 Y1.4376 Z-0.4753
X22.9041 Y1.4382 Z-0.4729
X22.9032 Y1.4386 Z-0.4703
X22.9029 Y1.4387 Z-0.4675
X22.8927 Y1.4159
Z-0.5075
X22.893 Y1.4158 Z-0.5103
X22.8939 Y1.4154 Z-0.5129
X22.8952 Y1.4148 Z-0.5153
X22.897 Y1.414 Z-0.5173
X22.8992 Y1.413 Z-0.5188
X22.9016 Y1.412 Z-0.5197
X22.9042 Y1.4108 Z-0.52
X22.9156 Y1.4057
G3 X22.9322 Y1.412 I0.0051 J0.0115
X22.8178 Y1.463 I-0.0572 J0.0255
X22.9322 Y1.412 I0.0572 J-0.0255
X22.9258 Y1.4287 I-0.0115 J0.0052
G1 X22.9143 Y1.4337
X22.9118 Y1.4348 Z-0.5197
X22.9094 Y1.4359 Z-0.5188
X22.9072 Y1.4368 Z-0.5173
X22.9054 Y1.4376 Z-0.5153
X22.9041 Y1.4382 Z-0.5129
X22.9032 Y1.4386 Z-0.5103
X22.9029 Y1.4387 Z-0.5075
X22.8927 Y1.4159
Z-0.5475
X22.893 Y1.4158 Z-0.5503
X22.8939 Y1.4154 Z-0.5529
X22.8952 Y1.4148 Z-0.5553
X22.897 Y1.414 Z-0.5573
X22.8992 Y1.413 Z-0.5588
X22.9016 Y1.412 Z-0.5597
X22.9042 Y1.4108 Z-0.56
X22.9156 Y1.4057
G3 X22.9322 Y1.412 I0.0051 J0.0115
X22.8178 Y1.463 I-0.0572 J0.0255
X22.9322 Y1.412 I0.0572 J-0.0255
X22.9258 Y1.4287 I-0.0115 J0.0052
G1 X22.9143 Y1.4337
X22.9118 Y1.4348 Z-0.5597
X22.9094 Y1.4359 Z-0.5588
X22.9072 Y1.4368 Z-0.5573
X22.9054 Y1.4376 Z-0.5553
X22.9041 Y1.4382 Z-0.5529
X22.9032 Y1.4386 Z-0.5503
X22.9029 Y1.4387 Z-0.5475
X22.8927 Y1.4159
Z-0.5875
X22.893 Y1.4158 Z-0.5903
X22.8939 Y1.4154 Z-0.5929
X22.8952 Y1.4148 Z-0.5953
X22.897 Y1.414 Z-0.5973
X22.8992 Y1.413 Z-0.5988
X22.9016 Y1.412 Z-0.5997
X22.9042 Y1.4108 Z-0.6
X22.9156 Y1.4057
G3 X22.9322 Y1.412 I0.0051 J0.0115
X22.8178 Y1.463 I-0.0572 J0.0255
X22.9322 Y1.412 I0.0572 J-0.0255
X22.9258 Y1.4287 I-0.0115 J0.0052
G1 X22.9143 Y1.4337
X22.9118 Y1.4348 Z-0.5997
X22.9094 Y1.4359 Z-0.5988
X22.9072 Y1.4368 Z-0.5973
X22.9054 Y1.4376 Z-0.5953
X22.9041 Y1.4382 Z-0.5929
X22.9032 Y1.4386 Z-0.5903
X22.9029 Y1.4387 Z-0.5875
X22.8927 Y1.4159
Z-0.6275
X22.893 Y1.4158 Z-0.6303
X22.8939 Y1.4154 Z-0.6329
X22.8952 Y1.4148 Z-0.6353
X22.897 Y1.414 Z-0.6373
X22.8992 Y1.413 Z-0.6388
X22.9016 Y1.412 Z-0.6397
X22.9042 Y1.4108 Z-0.64
X22.9156 Y1.4057
G3 X22.9322 Y1.412 I0.0051 J0.0115
X22.8178 Y1.463 I-0.0572 J0.0255
X22.9322 Y1.412 I0.0572 J-0.0255
X22.9258 Y1.4287 I-0.0115 J0.0052
G1 X22.9143 Y1.4337
X22.9118 Y1.4348 Z-0.6397
X22.9094 Y1.4359 Z-0.6388
X22.9072 Y1.4368 Z-0.6373
X22.9054 Y1.4376 Z-0.6353
X22.9041 Y1.4382 Z-0.6329
X22.9032 Y1.4386 Z-0.6303
X22.9029 Y1.4387 Z-0.6275
X22.8927 Y1.4159
Z-0.6675
X22.893 Y1.4158 Z-0.6703
X22.8939 Y1.4154 Z-0.6729
X22.8952 Y1.4148 Z-0.6753
X22.897 Y1.414 Z-0.6773
X22.8992 Y1.413 Z-0.6788
X22.9016 Y1.412 Z-0.6797
X22.9042 Y1.4108 Z-0.68
X22.9156 Y1.4057
G3 X22.9322 Y1.412 I0.0051 J0.0115
X22.8178 Y1.463 I-0.0572 J0.0255
X22.9322 Y1.412 I0.0572 J-0.0255
X22.9258 Y1.4287 I-0.0115 J0.0052
G1 X22.9143 Y1.4337
X22.9118 Y1.4348 Z-0.6797
X22.9094 Y1.4359 Z-0.6788
X22.9072 Y1.4368 Z-0.6773
X22.9054 Y1.4376 Z-0.6753
X22.9041 Y1.4382 Z-0.6729
X22.9032 Y1.4386 Z-0.6703
X22.9029 Y1.4387 Z-0.6675
X22.8927 Y1.4159
Z-0.7075
X22.893 Y1.4158 Z-0.7103
X22.8939 Y1.4154 Z-0.7129
X22.8952 Y1.4148 Z-0.7153
X22.897 Y1.414 Z-0.7173
X22.8992 Y1.413 Z-0.7188
X22.9016 Y1.412 Z-0.7197
X22.9042 Y1.4108 Z-0.72
X22.9156 Y1.4057
G3 X22.9322 Y1.412 I0.0051 J0.0115
X22.8178 Y1.463 I-0.0572 J0.0255
X22.9322 Y1.412 I0.0572 J-0.0255
X22.9258 Y1.4287 I-0.0115 J0.0052
G1 X22.9143 Y1.4337
X22.9118 Y1.4348 Z-0.7197
X22.9094 Y1.4359 Z-0.7188
X22.9072 Y1.4368 Z-0.7173
X22.9054 Y1.4376 Z-0.7153
X22.9041 Y1.4382 Z-0.7129
X22.9032 Y1.4386 Z-0.7103
X22.9029 Y1.4387 Z-0.7075
X22.8927 Y1.4159
Z-0.7375
X22.893 Y1.4158 Z-0.7403
X22.8939 Y1.4154 Z-0.7429
X22.8952 Y1.4148 Z-0.7453
X22.897 Y1.414 Z-0.7473
X22.8992 Y1.413 Z-0.7488
X22.9016 Y1.412 Z-0.7497
X22.9042 Y1.4108 Z-0.75
X22.9156 Y1.4057
G3 X22.9322 Y1.412 I0.0051 J0.0115
X22.8178 Y1.463 I-0.0572 J0.0255
X22.9322 Y1.412 I0.0572 J-0.0255
X22.9258 Y1.4287 I-0.0115 J0.0052
G1 X22.9143 Y1.4337
X22.9118 Y1.4348 Z-0.7497
X22.9094 Y1.4359 Z-0.7488
X22.9072 Y1.4368 Z-0.7473
X22.9054 Y1.4376 Z-0.7453
X22.9041 Y1.4382 Z-0.7429
X22.9032 Y1.4386 Z-0.7403
X22.9029 Y1.4387 Z-0.7375
G0 Z1.25
X1.275 Y1.425
G1 Z-0.0275 F30
G18 G2 X1.2875 Z-0.04 I0.0125 K0
G1 X1.3
G17 G3 X1.3125 Y1.4375 I0 J0.0125
X1.1875 I-0.0625 J0
X1.3125 I0.0625 J0
X1.3 Y1.45 I-0.0125 J0
G1 X1.2875
G18 G3 X1.275 Z-0.0275 I0 K0.0125
G1 Y1.425
Z-0.0675
G2 X1.2875 Z-0.08 I0.0125 K0
G1 X1.3
G17 G3 X1.3125 Y1.4375 I0 J0.0125
X1.1875 I-0.0625 J0
X1.3125 I0.0625 J0
X1.3 Y1.45 I-0.0125 J0
G1 X1.2875
G18 G3 X1.275 Z-0.0675 I0 K0.0125
G1 Y1.425
Z-0.1075
G2 X1.2875 Z-0.12 I0.0125 K0
G1 X1.3
G17 G3 X1.3125 Y1.4375 I0 J0.0125
X1.1875 I-0.0625 J0
X1.3125 I0.0625 J0
X1.3 Y1.45 I-0.0125 J0
G1 X1.2875
G18 G3 X1.275 Z-0.1075 I0 K0.0125
G1 Y1.425
Z-0.1475
G2 X1.2875 Z-0.16 I0.0125 K0
G1 X1.3
G17 G3 X1.3125 Y1.4375 I0 J0.0125
X1.1875 I-0.0625 J0
X1.3125 I0.0625 J0
X1.3 Y1.45 I-0.0125 J0
G1 X1.2875
G18 G3 X1.275 Z-0.1475 I0 K0.0125
G1 Y1.425
Z-0.1875
G2 X1.2875 Z-0.2 I0.0125 K0
G1 X1.3
G17 G3 X1.3125 Y1.4375 I0 J0.0125
X1.1875 I-0.0625 J0
X1.3125 I0.0625 J0
X1.3 Y1.45 I-0.0125 J0
G1 X1.2875
G18 G3 X1.275 Z-0.1875 I0 K0.0125
G1 Y1.425
Z-0.2275
G2 X1.2875 Z-0.24 I0.0125 K0
G1 X1.3
G17 G3 X1.3125 Y1.4375 I0 J0.0125
X1.1875 I-0.0625 J0
X1.3125 I0.0625 J0
X1.3 Y1.45 I-0.0125 J0
G1 X1.2875
G18 G3 X1.275 Z-0.2275 I0 K0.0125
G1 Y1.425
Z-0.2675
G2 X1.2875 Z-0.28 I0.0125 K0
G1 X1.3
G17 G3 X1.3125 Y1.4375 I0 J0.0125
X1.1875 I-0.0625 J0
X1.3125 I0.0625 J0
X1.3 Y1.45 I-0.0125 J0
G1 X1.2875
G18 G3 X1.275 Z-0.2675 I0 K0.0125
G1 Y1.425
Z-0.3075
G2 X1.2875 Z-0.32 I0.0125 K0
G1 X1.3
G17 G3 X1.3125 Y1.4375 I0 J0.0125
X1.1875 I-0.0625 J0
X1.3125 I0.0625 J0
X1.3 Y1.45 I-0.0125 J0
G1 X1.2875
G18 G3 X1.275 Z-0.3075 I0 K0.0125
G1 Y1.425
Z-0.3475
G2 X1.2875 Z-0.36 I0.0125 K0
G1 X1.3
G17 G3 X1.3125 Y1.4375 I0 J0.0125
X1.1875 I-0.0625 J0
X1.3125 I0.0625 J0
X1.3 Y1.45 I-0.0125 J0
G1 X1.2875
G18 G3 X1.275 Z-0.3475 I0 K0.0125
G1 Y1.425
Z-0.3875
G2 X1.2875 Z-0.4 I0.0125 K0
G1 X1.3
G17 G3 X1.3125 Y1.4375 I0 J0.0125
X1.1875 I-0.0625 J0
X1.3125 I0.0625 J0
X1.3 Y1.45 I-0.0125 J0
G1 X1.2875
G18 G3 X1.275 Z-0.3875 I0 K0.0125
G1 Y1.425
Z-0.4275
G2 X1.2875 Z-0.44 I0.0125 K0
G1 X1.3
G17 G3 X1.3125 Y1.4375 I0 J0.0125
X1.1875 I-0.0625 J0
X1.3125 I0.0625 J0
X1.3 Y1.45 I-0.0125 J0
G1 X1.2875
G18 G3 X1.275 Z-0.4275 I0 K0.0125
G1 Y1.425
Z-0.4675
G2 X1.2875 Z-0.48 I0.0125 K0
G1 X1.3
G17 G3 X1.3125 Y1.4375 I0 J0.0125
X1.1875 I-0.0625 J0
X1.3125 I0.0625 J0
X1.3 Y1.45 I-0.0125 J0
G1 X1.2875
G18 G3 X1.275 Z-0.4675 I0 K0.0125
G1 Y1.425
Z-0.5075
G2 X1.2875 Z-0.52 I0.0125 K0
G1 X1.3
G17 G3 X1.3125 Y1.4375 I0 J0.0125
X1.1875 I-0.0625 J0
X1.3125 I0.0625 J0
X1.3 Y1.45 I-0.0125 J0
G1 X1.2875
G18 G3 X1.275 Z-0.5075 I0 K0.0125
G1 Y1.425
Z-0.5475
G2 X1.2875 Z-0.56 I0.0125 K0
G1 X1.3
G17 G3 X1.3125 Y1.4375 I0 J0.0125
X1.1875 I-0.0625 J0
X1.3125 I0.0625 J0
X1.3 Y1.45 I-0.0125 J0
G1 X1.2875
G18 G3 X1.275 Z-0.5475 I0 K0.0125
G1 Y1.425
Z-0.5875
G2 X1.2875 Z-0.6 I0.0125 K0
G1 X1.3
G17 G3 X1.3125 Y1.4375 I0 J0.0125
X1.1875 I-0.0625 J0
X1.3125 I0.0625 J0
X1.3 Y1.45 I-0.0125 J0
G1 X1.2875
G18 G3 X1.275 Z-0.5875 I0 K0.0125
G1 Y1.425
Z-0.6275
G2 X1.2875 Z-0.64 I0.0125 K0
G1 X1.3
G17 G3 X1.3125 Y1.4375 I0 J0.0125
X1.1875 I-0.0625 J0
X1.3125 I0.0625 J0
X1.3 Y1.45 I-0.0125 J0
G1 X1.2875
G18 G3 X1.275 Z-0.6275 I0 K0.0125
G1 Y1.425
Z-0.6675
G2 X1.2875 Z-0.68 I0.0125 K0
G1 X1.3
G17 G3 X1.3125 Y1.4375 I0 J0.0125
X1.1875 I-0.0625 J0
X1.3125 I0.0625 J0
X1.3 Y1.45 I-0.0125 J0
G1 X1.2875
G18 G3 X1.275 Z-0.6675 I0 K0.0125
G1 Y1.425
Z-0.7075
G2 X1.2875 Z-0.72 I0.0125 K0
G1 X1.3
G17 G3 X1.3125 Y1.4375 I0 J0.0125
X1.1875 I-0.0625 J0
X1.3125 I0.0625 J0
X1.3 Y1.45 I-0.0125 J0
G1 X1.2875
G18 G3 X1.275 Z-0.7075 I0 K0.0125
G1 Y1.425
Z-0.7375
G2 X1.2875 Z-0.75 I0.0125 K0
G1 X1.3
G17 G3 X1.3125 Y1.4375 I0 J0.0125
X1.1875 I-0.0625 J0
X1.3125 I0.0625 J0
X1.3 Y1.45 I-0.0125 J0
G1 X1.2875
G18 G3 X1.275 Z-0.7375 I0 K0.0125
G0 Z1.25
G17
M9
G28 G91 Z0
G90
G28 G91 X0 Y0
G90
M30
%
