%
(Plastic Boards)
(T1  D=0.25 CR=0 - ZMIN=-0.375 - flat end mill)
(T2  D=0.125 CR=0 - ZMIN=-0.75 - flat end mill)
G90
G17
G20
G28 G91 Z0
G90

(2D Contour2)
T2 M6
S10000 M3
G54
M7
G0 X12.0875 Y1.425
Z1.25
G1 Z-0.0275 F30
G18 G2 X12.1 Z-0.04 I0.0125 K0
G1 X12.1125
G17 G3 X12.125 Y1.4375 I0 J0.0125
X12 I-0.0625 J0
X12.125 I0.0625 J0
X12.1125 Y1.45 I-0.0125 J0
G1 X12.1
G18 G3 X12.0875 Z-0.0275 I0 K0.0125
G1 Y1.425
Z-0.0675
G2 X12.1 Z-0.08 I0.0125 K0
G1 X12.1125
G17 G3 X12.125 Y1.4375 I0 J0.0125
X12 I-0.0625 J0
X12.125 I0.0625 J0
X12.1125 Y1.45 I-0.0125 J0
G1 X12.1
G18 G3 X12.0875 Z-0.0675 I0 K0.0125
G1 Y1.425
Z-0.1075
G2 X12.1 Z-0.12 I0.0125 K0
G1 X12.1125
G17 G3 X12.125 Y1.4375 I0 J0.0125
X12 I-0.0625 J0
X12.125 I0.0625 J0
X12.1125 Y1.45 I-0.0125 J0
G1 X12.1
G18 G3 X12.0875 Z-0.1075 I0 K0.0125
G1 Y1.425
Z-0.1475
G2 X12.1 Z-0.16 I0.0125 K0
G1 X12.1125
G17 G3 X12.125 Y1.4375 I0 J0.0125
X12 I-0.0625 J0
X12.125 I0.0625 J0
X12.1125 Y1.45 I-0.0125 J0
G1 X12.1
G18 G3 X12.0875 Z-0.1475 I0 K0.0125
G1 Y1.425
Z-0.1875
G2 X12.1 Z-0.2 I0.0125 K0
G1 X12.1125
G17 G3 X12.125 Y1.4375 I0 J0.0125
X12 I-0.0625 J0
X12.125 I0.0625 J0
X12.1125 Y1.45 I-0.0125 J0
G1 X12.1
G18 G3 X12.0875 Z-0.1875 I0 K0.0125
G1 Y1.425
Z-0.2275
G2 X12.1 Z-0.24 I0.0125 K0
G1 X12.1125
G17 G3 X12.125 Y1.4375 I0 J0.0125
X12 I-0.0625 J0
X12.125 I0.0625 J0
X12.1125 Y1.45 I-0.0125 J0
G1 X12.1
G18 G3 X12.0875 Z-0.2275 I0 K0.0125
G1 Y1.425
Z-0.2675
G2 X12.1 Z-0.28 I0.0125 K0
G1 X12.1125
G17 G3 X12.125 Y1.4375 I0 J0.0125
X12 I-0.0625 J0
X12.125 I0.0625 J0
X12.1125 Y1.45 I-0.0125 J0
G1 X12.1
G18 G3 X12.0875 Z-0.2675 I0 K0.0125
G1 Y1.425
Z-0.3075
G2 X12.1 Z-0.32 I0.0125 K0
G1 X12.1125
G17 G3 X12.125 Y1.4375 I0 J0.0125
X12 I-0.0625 J0
X12.125 I0.0625 J0
X12.1125 Y1.45 I-0.0125 J0
G1 X12.1
G18 G3 X12.0875 Z-0.3075 I0 K0.0125
G1 Y1.425
Z-0.3475
G2 X12.1 Z-0.36 I0.0125 K0
G1 X12.1125
G17 G3 X12.125 Y1.4375 I0 J0.0125
X12 I-0.0625 J0
X12.125 I0.0625 J0
X12.1125 Y1.45 I-0.0125 J0
G1 X12.1
G18 G3 X12.0875 Z-0.3475 I0 K0.0125
G1 Y1.425
Z-0.3875
G2 X12.1 Z-0.4 I0.0125 K0
G1 X12.1125
G17 G3 X12.125 Y1.4375 I0 J0.0125
X12 I-0.0625 J0
X12.125 I0.0625 J0
X12.1125 Y1.45 I-0.0125 J0
G1 X12.1
G18 G3 X12.0875 Z-0.3875 I0 K0.0125
G1 Y1.425
Z-0.4275
G2 X12.1 Z-0.44 I0.0125 K0
G1 X12.1125
G17 G3 X12.125 Y1.4375 I0 J0.0125
X12 I-0.0625 J0
X12.125 I0.0625 J0
X12.1125 Y1.45 I-0.0125 J0
G1 X12.1
G18 G3 X12.0875 Z-0.4275 I0 K0.0125
G1 Y1.425
Z-0.4675
G2 X12.1 Z-0.48 I0.0125 K0
G1 X12.1125
G17 G3 X12.125 Y1.4375 I0 J0.0125
X12 I-0.0625 J0
X12.125 I0.0625 J0
X12.1125 Y1.45 I-0.0125 J0
G1 X12.1
G18 G3 X12.0875 Z-0.4675 I0 K0.0125
G1 Y1.425
Z-0.5075
G2 X12.1 Z-0.52 I0.0125 K0
G1 X12.1125
G17 G3 X12.125 Y1.4375 I0 J0.0125
X12 I-0.0625 J0
X12.125 I0.0625 J0
X12.1125 Y1.45 I-0.0125 J0
G1 X12.1
G18 G3 X12.0875 Z-0.5075 I0 K0.0125
G1 Y1.425
Z-0.5475
G2 X12.1 Z-0.56 I0.0125 K0
G1 X12.1125
G17 G3 X12.125 Y1.4375 I0 J0.0125
X12 I-0.0625 J0
X12.125 I0.0625 J0
X12.1125 Y1.45 I-0.0125 J0
G1 X12.1
G18 G3 X12.0875 Z-0.5475 I0 K0.0125
G1 Y1.425
Z-0.5875
G2 X12.1 Z-0.6 I0.0125 K0
G1 X12.1125
G17 G3 X12.125 Y1.4375 I0 J0.0125
X12 I-0.0625 J0
X12.125 I0.0625 J0
X12.1125 Y1.45 I-0.0125 J0
G1 X12.1
G18 G3 X12.0875 Z-0.5875 I0 K0.0125
G1 Y1.425
Z-0.6275
G2 X12.1 Z-0.64 I0.0125 K0
G1 X12.1125
G17 G3 X12.125 Y1.4375 I0 J0.0125
X12 I-0.0625 J0
X12.125 I0.0625 J0
X12.1125 Y1.45 I-0.0125 J0
G1 X12.1
G18 G3 X12.0875 Z-0.6275 I0 K0.0125
G1 Y1.425
Z-0.6675
G2 X12.1 Z-0.68 I0.0125 K0
G1 X12.1125
G17 G3 X12.125 Y1.4375 I0 J0.0125
X12 I-0.0625 J0
X12.125 I0.0625 J0
X12.1125 Y1.45 I-0.0125 J0
G1 X12.1
G18 G3 X12.0875 Z-0.6675 I0 K0.0125
G1 Y1.425
Z-0.7075
G2 X12.1 Z-0.72 I0.0125 K0
G1 X12.1125
G17 G3 X12.125 Y1.4375 I0 J0.0125
X12 I-0.0625 J0
X12.125 I0.0625 J0
X12.1125 Y1.45 I-0.0125 J0
G1 X12.1
G18 G3 X12.0875 Z-0.7075 I0 K0.0125
G1 Y1.425
Z-0.7375
G2 X12.1 Z-0.75 I0.0125 K0
G1 X12.1125
G17 G3 X12.125 Y1.4375 I0 J0.0125
X12 I-0.0625 J0
X12.125 I0.0625 J0
X12.1125 Y1.45 I-0.0125 J0
G1 X12.1
G18 G3 X12.0875 Z-0.7375 I0 K0.0125
G0 Z1.25
X22.8927 Y1.4159
G1 Z-0.0275 F30
X22.893 Y1.4158 Z-0.0303
X22.8939 Y1.4154 Z-0.0329
X22.8952 Y1.4148 Z-0.0353
X22.897 Y1.414 Z-0.0373
X22.8992 Y1.413 Z-0.0388
X22.9016 Y1.412 Z-0.0397
X22.9042 Y1.4108 Z-0.04
X22.9156 Y1.4057
G17 G3 X22.9322 Y1.412 I0.0051 J0.0115
X22.8178 Y1.463 I-0.0572 J0.0255
X22.9322 Y1.412 I0.0572 J-0.0255
X22.9258 Y1.4287 I-0.0115 J0.0052
G1 X22.9143 Y1.4337
X22.9118 Y1.4348 Z-0.0397
X22.9094 Y1.4359 Z-0.0388
X22.9072 Y1.4368 Z-0.0373
X22.9054 Y1.4376 Z-0.0353
X22.9041 Y1.4382 Z-0.0329
X22.9032 Y1.4386 Z-0.0303
X22.9029 Y1.4387 Z-0.0275
X22.8927 Y1.4159
Z-0.0675
X22.893 Y1.4158 Z-0.0703
X22.8939 Y1.4154 Z-0.0729
X22.8952 Y1.4148 Z-0.0753
X22.897 Y1.414 Z-0.0773
X22.8992 Y1.413 Z-0.0788
X22.9016 Y1.412 Z-0.0797
X22.9042 Y1.4108 Z-0.08
X22.9156 Y1.4057
G3 X22.9322 Y1.412 I0.0051 J0.0115
X22.8178 Y1.463 I-0.0572 J0.0255
X22.9322 Y1.412 I0.0572 J-0.0255
X22.9258 Y1.4287 I-0.0115 J0.0052
G1 X22.9143 Y1.4337
X22.9118 Y1.4348 Z-0.0797
X22.9094 Y1.4359 Z-0.0788
X22.9072 Y1.4368 Z-0.0773
X22.9054 Y1.4376 Z-0.0753
X22.9041 Y1.4382 Z-0.0729
X22.9032 Y1.4386 Z-0.0703
X22.9029 Y1.4387 Z-0.0675
X22.8927 Y1.4159
Z-0.1075
X22.893 Y1.4158 Z-0.1103
X22.8939 Y1.4154 Z-0.1129
X22.8952 Y1.4148 Z-0.1153
X22.897 Y1.414 Z-0.1173
X22.8992 Y1.413 Z-0.1188
X22.9016 Y1.412 Z-0.1197
X22.9042 Y1.4108 Z-0.12
X22.9156 Y1.4057
G3 X22.9322 Y1.412 I0.0051 J0.0115
X22.8178 Y1.463 I-0.0572 J0.0255
X22.9322 Y1.412 I0.0572 J-0.0255
X22.9258 Y1.4287 I-0.0115 J0.0052
G1 X22.9143 Y1.4337
X22.9118 Y1.4348 Z-0.1197
X22.9094 Y1.4359 Z-0.1188
X22.9072 Y1.4368 Z-0.1173
X22.9054 Y1.4376 Z-0.1153
X22.9041 Y1.4382 Z-0.1129
X22.9032 Y1.4386 Z-0.1103
X22.9029 Y1.4387 Z-0.1075
X22.8927 Y1.4159
Z-0.1475
X22.893 Y1.4158 Z-0.1503
X22.8939 Y1.4154 Z-0.1529
X22.8952 Y1.4148 Z-0.1553
X22.897 Y1.414 Z-0.1573
X22.8992 Y1.413 Z-0.1588
X22.9016 Y1.412 Z-0.1597
X22.9042 Y1.4108 Z-0.16
X22.9156 Y1.4057
G3 X22.9322 Y1.412 I0.0051 J0.0115
X22.8178 Y1.463 I-0.0572 J0.0255
X22.9322 Y1.412 I0.0572 J-0.0255
X22.9258 Y1.4287 I-0.0115 J0.0052
G1 X22.9143 Y1.4337
X22.9118 Y1.4348 Z-0.1597
X22.9094 Y1.4359 Z-0.1588
X22.9072 Y1.4368 Z-0.1573
X22.9054 Y1.4376 Z-0.1553
X22.9041 Y1.4382 Z-0.1529
X22.9032 Y1.4386 Z-0.1503
X22.9029 Y1.4387 Z-0.1475
X22.8927 Y1.4159
Z-0.1875
X22.893 Y1.4158 Z-0.1903
X22.8939 Y1.4154 Z-0.1929
X22.8952 Y1.4148 Z-0.1953
X22.897 Y1.414 Z-0.1973
X22.8992 Y1.413 Z-0.1988
X22.9016 Y1.412 Z-0.1997
X22.9042 Y1.4108 Z-0.2
X22.9156 Y1.4057
G3 X22.9322 Y1.412 I0.0051 J0.0115
X22.8178 Y1.463 I-0.0572 J0.0255
X22.9322 Y1.412 I0.0572 J-0.0255
X22.9258 Y1.4287 I-0.0115 J0.0052
G1 X22.9143 Y1.4337
X22.9118 Y1.4348 Z-0.1997
X22.9094 Y1.4359 Z-0.1988
X22.9072 Y1.4368 Z-0.1973
X22.9054 Y1.4376 Z-0.1953
X22.9041 Y1.4382 Z-0.1929
X22.9032 Y1.4386 Z-0.1903
X22.9029 Y1.4387 Z-0.1875
X22.8927 Y1.4159
Z-0.2275
X22.893 Y1.4158 Z-0.2303
X22.8939 Y1.4154 Z-0.2329
X22.8952 Y1.4148 Z-0.2353
X22.897 Y1.414 Z-0.2373
X22.8992 Y1.413 Z-0.2388
X22.9016 Y1.412 Z-0.2397
X22.9042 Y1.4108 Z-0.24
X22.9156 Y1.4057
G3 X22.9322 Y1.412 I0.0051 J0.0115
X22.8178 Y1.463 I-0.0572 J0.0255
X22.9322 Y1.412 I0.0572 J-0.0255
X22.9258 Y1.4287 I-0.0115 J0.0052
G1 X22.9143 Y1.4337
X22.9118 Y1.4348 Z-0.2397
X22.9094 Y1.4359 Z-0.2388
X22.9072 Y1.4368 Z-0.2373
X22.9054 Y1.4376 Z-0.2353
X22.9041 Y1.4382 Z-0.2329
X22.9032 Y1.4386 Z-0.2303
X22.9029 Y1.4387 Z-0.2275
X22.8927 Y1.4159
Z-0.2675
X22.893 Y1.4158 Z-0.2703
X22.8939 Y1.4154 Z-0.2729
X22.8952 Y1.4148 Z-0.2753
X22.897 Y1.414 Z-0.2773
X22.8992 Y1.413 Z-0.2788
X22.9016 Y1.412 Z-0.2797
X22.9042 Y1.4108 Z-0.28
X22.9156 Y1.4057
G3 X22.9322 Y1.412 I0.0051 J0.0115
X22.8178 Y1.463 I-0.0572 J0.0255
X22.9322 Y1.412 I0.0572 J-0.0255
X22.9258 Y1.4287 I-0.0115 J0.0052
G1 X22.9143 Y1.4337
X22.9118 Y1.4348 Z-0.2797
X22.9094 Y1.4359 Z-0.2788
X22.9072 Y1.4368 Z-0.2773
X22.9054 Y1.4376 Z-0.2753
X22.9041 Y1.4382 Z-0.2729
X22.9032 Y1.4386 Z-0.2703
X22.9029 Y1.4387 Z-0.2675
X22.8927 Y1.4159
Z-0.3075
X22.893 Y1.4158 Z-0.3103
X22.8939 Y1.4154 Z-0.3129
X22.8952 Y1.4148 Z-0.3153
X22.897 Y1.414 Z-0.3173
X22.8992 Y1.413 Z-0.3188
X22.9016 Y1.412 Z-0.3197
X22.9042 Y1.4108 Z-0.32
X22.9156 Y1.4057
G3 X22.9322 Y1.412 I0.0051 J0.0115
X22.8178 Y1.463 I-0.0572 J0.0255
X22.9322 Y1.412 I0.0572 J-0.0255
X22.9258 Y1.4287 I-0.0115 J0.0052
G1 X22.9143 Y1.4337
X22.9118 Y1.4348 Z-0.3197
X22.9094 Y1.4359 Z-0.3188
X22.9072 Y1.4368 Z-0.3173
X22.9054 Y1.4376 Z-0.3153
X22.9041 Y1.4382 Z-0.3129
X22.9032 Y1.4386 Z-0.3103
X22.9029 Y1.4387 Z-0.3075
X22.8927 Y1.4159
Z-0.3475
X22.893 Y1.4158 Z-0.3503
X22.8939 Y1.4154 Z-0.3529
X22.8952 Y1.4148 Z-0.3553
X22.897 Y1.414 Z-0.3573
X22.8992 Y1.413 Z-0.3588
X22.9016 Y1.412 Z-0.3597
X22.9042 Y1.4108 Z-0.36
X22.9156 Y1.4057
G3 X22.9322 Y1.412 I0.0051 J0.0115
X22.8178 Y1.463 I-0.0572 J0.0255
X22.9322 Y1.412 I0.0572 J-0.0255
X22.9258 Y1.4287 I-0.0115 J0.0052
G1 X22.9143 Y1.4337
X22.9118 Y1.4348 Z-0.3597
X22.9094 Y1.4359 Z-0.3588
X22.9072 Y1.4368 Z-0.3573
X22.9054 Y1.4376 Z-0.3553
X22.9041 Y1.4382 Z-0.3529
X22.9032 Y1.4386 Z-0.3503
X22.9029 Y1.4387 Z-0.3475
X22.8927 Y1.4159
Z-0.3875
X22.893 Y1.4158 Z-0.3903
X22.8939 Y1.4154 Z-0.3929
X22.8952 Y1.4148 Z-0.3953
X22.897 Y1.414 Z-0.3973
X22.8992 Y1.413 Z-0.3988
X22.9016 Y1.412 Z-0.3997
X22.9042 Y1.4108 Z-0.4
X22.9156 Y1.4057
G3 X22.9322 Y1.412 I0.0051 J0.0115
X22.8178 Y1.463 I-0.0572 J0.0255
X22.9322 Y1.412 I0.0572 J-0.0255
X22.9258 Y1.4287 I-0.0115 J0.0052
G1 X22.9143 Y1.4337
X22.9118 Y1.4348 Z-0.3997
X22.9094 Y1.4359 Z-0.3988
X22.9072 Y1.4368 Z-0.3973
X22.9054 Y1.4376 Z-0.3953
X22.9041 Y1.4382 Z-0.3929
X22.9032 Y1.4386 Z-0.3903
X22.9029 Y1.4387 Z-0.3875
X22.8927 Y1.4159
Z-0.4275
X22.893 Y1.4158 Z-0.4303
X22.8939 Y1.4154 Z-0.4329
X22.8952 Y1.4148 Z-0.4353
X22.897 Y1.414 Z-0.4373
X22.8992 Y1.413 Z-0.4388
X22.9016 Y1.412 Z-0.4397
X22.9042 Y1.4108 Z-0.44
X22.9156 Y1.4057
G3 X22.9322 Y1.412 I0.0051 J0.0115
X22.8178 Y1.463 I-0.0572 J0.0255
X22.9322 Y1.412 I0.0572 J-0.0255
X22.9258 Y1.4287 I-0.0115 J0.0052
G1 X22.9143 Y1.4337
X22.9118 Y1.4348 Z-0.4397
X22.9094 Y1.4359 Z-0.4388
X22.9072 Y1.4368 Z-0.4373
X22.9054 Y1.4376 Z-0.4353
X22.9041 Y1.4382 Z-0.4329
X22.9032 Y1.4386 Z-0.4303
X22.9029 Y1.4387 Z-0.4275
X22.8927 Y1.4159
Z-0.4675
X22.893 Y1.4158 Z-0.4703
X22.8939 Y1.4154 Z-0.4729
X22.8952 Y1.4148 Z-0.4753
X22.897 Y1.414 Z-0.4773
X22.8992 Y1.413 Z-0.4788
X22.9016 Y1.412 Z-0.4797
X22.9042 Y1.4108 Z-0.48
X22.9156 Y1.4057
G3 X22.9322 Y1.412 I0.0051 J0.0115
X22.8178 Y1.463 I-0.0572 J0.0255
X22.9322 Y1.412 I0.0572 J-0.0255
X22.9258 Y1.4287 I-0.0115 J0.0052
G1 X22.9143 Y1.4337
X22.9118 Y1.4348 Z-0.4797
X22.9094 Y1.4359 Z-0.4788
X22.9072 Y1.4368 Z-0.4773
X22.9054 Y1.4376 Z-0.4753
X22.9041 Y1.4382 Z-0.4729
X22.9032 Y1.4386 Z-0.4703
X22.9029 Y1.4387 Z-0.4675
X22.8927 Y1.4159
Z-0.5075
X22.893 Y1.4158 Z-0.5103
X22.8939 Y1.4154 Z-0.5129
X22.8952 Y1.4148 Z-0.5153
X22.897 Y1.414 Z-0.5173
X22.8992 Y1.413 Z-0.5188
X22.9016 Y1.412 Z-0.5197
X22.9042 Y1.4108 Z-0.52
X22.9156 Y1.4057
G3 X22.9322 Y1.412 I0.0051 J0.0115
X22.8178 Y1.463 I-0.0572 J0.0255
X22.9322 Y1.412 I0.0572 J-0.0255
X22.9258 Y1.4287 I-0.0115 J0.0052
G1 X22.9143 Y1.4337
X22.9118 Y1.4348 Z-0.5197
X22.9094 Y1.4359 Z-0.5188
X22.9072 Y1.4368 Z-0.5173
X22.9054 Y1.4376 Z-0.5153
X22.9041 Y1.4382 Z-0.5129
X22.9032 Y1.4386 Z-0.5103
X22.9029 Y1.4387 Z-0.5075
X22.8927 Y1.4159
Z-0.5475
X22.893 Y1.4158 Z-0.5503
X22.8939 Y1.4154 Z-0.5529
X22.8952 Y1.4148 Z-0.5553
X22.897 Y1.414 Z-0.5573
X22.8992 Y1.413 Z-0.5588
X22.9016 Y1.412 Z-0.5597
X22.9042 Y1.4108 Z-0.56
X22.9156 Y1.4057
G3 X22.9322 Y1.412 I0.0051 J0.0115
X22.8178 Y1.463 I-0.0572 J0.0255
X22.9322 Y1.412 I0.0572 J-0.0255
X22.9258 Y1.4287 I-0.0115 J0.0052
G1 X22.9143 Y1.4337
X22.9118 Y1.4348 Z-0.5597
X22.9094 Y1.4359 Z-0.5588
X22.9072 Y1.4368 Z-0.5573
X22.9054 Y1.4376 Z-0.5553
X22.9041 Y1.4382 Z-0.5529
X22.9032 Y1.4386 Z-0.5503
X22.9029 Y1.4387 Z-0.5475
X22.8927 Y1.4159
Z-0.5875
X22.893 Y1.4158 Z-0.5903
X22.8939 Y1.4154 Z-0.5929
X22.8952 Y1.4148 Z-0.5953
X22.897 Y1.414 Z-0.5973
X22.8992 Y1.413 Z-0.5988
X22.9016 Y1.412 Z-0.5997
X22.9042 Y1.4108 Z-0.6
X22.9156 Y1.4057
G3 X22.9322 Y1.412 I0.0051 J0.0115
X22.8178 Y1.463 I-0.0572 J0.0255
X22.9322 Y1.412 I0.0572 J-0.0255
X22.9258 Y1.4287 I-0.0115 J0.0052
G1 X22.9143 Y1.4337
X22.9118 Y1.4348 Z-0.5997
X22.9094 Y1.4359 Z-0.5988
X22.9072 Y1.4368 Z-0.5973
X22.9054 Y1.4376 Z-0.5953
X22.9041 Y1.4382 Z-0.5929
X22.9032 Y1.4386 Z-0.5903
X22.9029 Y1.4387 Z-0.5875
X22.8927 Y1.4159
Z-0.6275
X22.893 Y1.4158 Z-0.6303
X22.8939 Y1.4154 Z-0.6329
X22.8952 Y1.4148 Z-0.6353
X22.897 Y1.414 Z-0.6373
X22.8992 Y1.413 Z-0.6388
X22.9016 Y1.412 Z-0.6397
X22.9042 Y1.4108 Z-0.64
X22.9156 Y1.4057
G3 X22.9322 Y1.412 I0.0051 J0.0115
X22.8178 Y1.463 I-0.0572 J0.0255
X22.9322 Y1.412 I0.0572 J-0.0255
X22.9258 Y1.4287 I-0.0115 J0.0052
G1 X22.9143 Y1.4337
X22.9118 Y1.4348 Z-0.6397
X22.9094 Y1.4359 Z-0.6388
X22.9072 Y1.4368 Z-0.6373
X22.9054 Y1.4376 Z-0.6353
X22.9041 Y1.4382 Z-0.6329
X22.9032 Y1.4386 Z-0.6303
X22.9029 Y1.4387 Z-0.6275
X22.8927 Y1.4159
Z-0.6675
X22.893 Y1.4158 Z-0.6703
X22.8939 Y1.4154 Z-0.6729
X22.8952 Y1.4148 Z-0.6753
X22.897 Y1.414 Z-0.6773
X22.8992 Y1.413 Z-0.6788
X22.9016 Y1.412 Z-0.6797
X22.9042 Y1.4108 Z-0.68
X22.9156 Y1.4057
G3 X22.9322 Y1.412 I0.0051 J0.0115
X22.8178 Y1.463 I-0.0572 J0.0255
X22.9322 Y1.412 I0.0572 J-0.0255
X22.9258 Y1.4287 I-0.0115 J0.0052
G1 X22.9143 Y1.4337
X22.9118 Y1.4348 Z-0.6797
X22.9094 Y1.4359 Z-0.6788
X22.9072 Y1.4368 Z-0.6773
X22.9054 Y1.4376 Z-0.6753
X22.9041 Y1.4382 Z-0.6729
X22.9032 Y1.4386 Z-0.6703
X22.9029 Y1.4387 Z-0.6675
X22.8927 Y1.4159
Z-0.7075
X22.893 Y1.4158 Z-0.7103
X22.8939 Y1.4154 Z-0.7129
X22.8952 Y1.4148 Z-0.7153
X22.897 Y1.414 Z-0.7173
X22.8992 Y1.413 Z-0.7188
X22.9016 Y1.412 Z-0.7197
X22.9042 Y1.4108 Z-0.72
X22.9156 Y1.4057
G3 X22.9322 Y1.412 I0.0051 J0.0115
X22.8178 Y1.463 I-0.0572 J0.0255
X22.9322 Y1.412 I0.0572 J-0.0255
X22.9258 Y1.4287 I-0.0115 J0.0052
G1 X22.9143 Y1.4337
X22.9118 Y1.4348 Z-0.7197
X22.9094 Y1.4359 Z-0.7188
X22.9072 Y1.4368 Z-0.7173
X22.9054 Y1.4376 Z-0.7153
X22.9041 Y1.4382 Z-0.7129
X22.9032 Y1.4386 Z-0.7103
X22.9029 Y1.4387 Z-0.7075
X22.8927 Y1.4159
Z-0.7375
X22.893 Y1.4158 Z-0.7403
X22.8939 Y1.4154 Z-0.7429
X22.8952 Y1.4148 Z-0.7453
X22.897 Y1.414 Z-0.7473
X22.8992 Y1.413 Z-0.7488
X22.9016 Y1.412 Z-0.7497
X22.9042 Y1.4108 Z-0.75
X22.9156 Y1.4057
G3 X22.9322 Y1.412 I0.0051 J0.0115
X22.8178 Y1.463 I-0.0572 J0.0255
X22.9322 Y1.412 I0.0572 J-0.0255
X22.9258 Y1.4287 I-0.0115 J0.0052
G1 X22.9143 Y1.4337
X22.9118 Y1.4348 Z-0.7497
X22.9094 Y1.4359 Z-0.7488
X22.9072 Y1.4368 Z-0.7473
X22.9054 Y1.4376 Z-0.7453
X22.9041 Y1.4382 Z-0.7429
X22.9032 Y1.4386 Z-0.7403
X22.9029 Y1.4387 Z-0.7375
G0 Z1.25
X1.275 Y1.425
G1 Z-0.0275 F30
G18 G2 X1.2875 Z-0.04 I0.0125 K0
G1 X1.3
G17 G3 X1.3125 Y1.4375 I0 J0.0125
X1.1875 I-0.0625 J0
X1.3125 I0.0625 J0
X1.3 Y1.45 I-0.0125 J0
G1 X1.2875
G18 G3 X1.275 Z-0.0275 I0 K0.0125
G1 Y1.425
Z-0.0675
G2 X1.2875 Z-0.08 I0.0125 K0
G1 X1.3
G17 G3 X1.3125 Y1.4375 I0 J0.0125
X1.1875 I-0.0625 J0
X1.3125 I0.0625 J0
X1.3 Y1.45 I-0.0125 J0
G1 X1.2875
G18 G3 X1.275 Z-0.0675 I0 K0.0125
G1 Y1.425
Z-0.1075
G2 X1.2875 Z-0.12 I0.0125 K0
G1 X1.3
G17 G3 X1.3125 Y1.4375 I0 J0.0125
X1.1875 I-0.0625 J0
X1.3125 I0.0625 J0
X1.3 Y1.45 I-0.0125 J0
G1 X1.2875
G18 G3 X1.275 Z-0.1075 I0 K0.0125
G1 Y1.425
Z-0.1475
G2 X1.2875 Z-0.16 I0.0125 K0
G1 X1.3
G17 G3 X1.3125 Y1.4375 I0 J0.0125
X1.1875 I-0.0625 J0
X1.3125 I0.0625 J0
X1.3 Y1.45 I-0.0125 J0
G1 X1.2875
G18 G3 X1.275 Z-0.1475 I0 K0.0125
G1 Y1.425
Z-0.1875
G2 X1.2875 Z-0.2 I0.0125 K0
G1 X1.3
G17 G3 X1.3125 Y1.4375 I0 J0.0125
X1.1875 I-0.0625 J0
X1.3125 I0.0625 J0
X1.3 Y1.45 I-0.0125 J0
G1 X1.2875
G18 G3 X1.275 Z-0.1875 I0 K0.0125
G1 Y1.425
Z-0.2275
G2 X1.2875 Z-0.24 I0.0125 K0
G1 X1.3
G17 G3 X1.3125 Y1.4375 I0 J0.0125
X1.1875 I-0.0625 J0
X1.3125 I0.0625 J0
X1.3 Y1.45 I-0.0125 J0
G1 X1.2875
G18 G3 X1.275 Z-0.2275 I0 K0.0125
G1 Y1.425
Z-0.2675
G2 X1.2875 Z-0.28 I0.0125 K0
G1 X1.3
G17 G3 X1.3125 Y1.4375 I0 J0.0125
X1.1875 I-0.0625 J0
X1.3125 I0.0625 J0
X1.3 Y1.45 I-0.0125 J0
G1 X1.2875
G18 G3 X1.275 Z-0.2675 I0 K0.0125
G1 Y1.425
Z-0.3075
G2 X1.2875 Z-0.32 I0.0125 K0
G1 X1.3
G17 G3 X1.3125 Y1.4375 I0 J0.0125
X1.1875 I-0.0625 J0
X1.3125 I0.0625 J0
X1.3 Y1.45 I-0.0125 J0
G1 X1.2875
G18 G3 X1.275 Z-0.3075 I0 K0.0125
G1 Y1.425
Z-0.3475
G2 X1.2875 Z-0.36 I0.0125 K0
G1 X1.3
G17 G3 X1.3125 Y1.4375 I0 J0.0125
X1.1875 I-0.0625 J0
X1.3125 I0.0625 J0
X1.3 Y1.45 I-0.0125 J0
G1 X1.2875
G18 G3 X1.275 Z-0.3475 I0 K0.0125
G1 Y1.425
Z-0.3875
G2 X1.2875 Z-0.4 I0.0125 K0
G1 X1.3
G17 G3 X1.3125 Y1.4375 I0 J0.0125
X1.1875 I-0.0625 J0
X1.3125 I0.0625 J0
X1.3 Y1.45 I-0.0125 J0
G1 X1.2875
G18 G3 X1.275 Z-0.3875 I0 K0.0125
G1 Y1.425
Z-0.4275
G2 X1.2875 Z-0.44 I0.0125 K0
G1 X1.3
G17 G3 X1.3125 Y1.4375 I0 J0.0125
X1.1875 I-0.0625 J0
X1.3125 I0.0625 J0
X1.3 Y1.45 I-0.0125 J0
G1 X1.2875
G18 G3 X1.275 Z-0.4275 I0 K0.0125
G1 Y1.425
Z-0.4675
G2 X1.2875 Z-0.48 I0.0125 K0
G1 X1.3
G17 G3 X1.3125 Y1.4375 I0 J0.0125
X1.1875 I-0.0625 J0
X1.3125 I0.0625 J0
X1.3 Y1.45 I-0.0125 J0
G1 X1.2875
G18 G3 X1.275 Z-0.4675 I0 K0.0125
G1 Y1.425
Z-0.5075
G2 X1.2875 Z-0.52 I0.0125 K0
G1 X1.3
G17 G3 X1.3125 Y1.4375 I0 J0.0125
X1.1875 I-0.0625 J0
X1.3125 I0.0625 J0
X1.3 Y1.45 I-0.0125 J0
G1 X1.2875
G18 G3 X1.275 Z-0.5075 I0 K0.0125
G1 Y1.425
Z-0.5475
G2 X1.2875 Z-0.56 I0.0125 K0
G1 X1.3
G17 G3 X1.3125 Y1.4375 I0 J0.0125
X1.1875 I-0.0625 J0
X1.3125 I0.0625 J0
X1.3 Y1.45 I-0.0125 J0
G1 X1.2875
G18 G3 X1.275 Z-0.5475 I0 K0.0125
G1 Y1.425
Z-0.5875
G2 X1.2875 Z-0.6 I0.0125 K0
G1 X1.3
G17 G3 X1.3125 Y1.4375 I0 J0.0125
X1.1875 I-0.0625 J0
X1.3125 I0.0625 J0
X1.3 Y1.45 I-0.0125 J0
G1 X1.2875
G18 G3 X1.275 Z-0.5875 I0 K0.0125
G1 Y1.425
Z-0.6275
G2 X1.2875 Z-0.64 I0.0125 K0
G1 X1.3
G17 G3 X1.3125 Y1.4375 I0 J0.0125
X1.1875 I-0.0625 J0
X1.3125 I0.0625 J0
X1.3 Y1.45 I-0.0125 J0
G1 X1.2875
G18 G3 X1.275 Z-0.6275 I0 K0.0125
G1 Y1.425
Z-0.6675
G2 X1.2875 Z-0.68 I0.0125 K0
G1 X1.3
G17 G3 X1.3125 Y1.4375 I0 J0.0125
X1.1875 I-0.0625 J0
X1.3125 I0.0625 J0
X1.3 Y1.45 I-0.0125 J0
G1 X1.2875
G18 G3 X1.275 Z-0.6675 I0 K0.0125
G1 Y1.425
Z-0.7075
G2 X1.2875 Z-0.72 I0.0125 K0
G1 X1.3
G17 G3 X1.3125 Y1.4375 I0 J0.0125
X1.1875 I-0.0625 J0
X1.3125 I0.0625 J0
X1.3 Y1.45 I-0.0125 J0
G1 X1.2875
G18 G3 X1.275 Z-0.7075 I0 K0.0125
G1 Y1.425
Z-0.7375
G2 X1.2875 Z-0.75 I0.0125 K0
G1 X1.3
G17 G3 X1.3125 Y1.4375 I0 J0.0125
X1.1875 I-0.0625 J0
X1.3125 I0.0625 J0
X1.3 Y1.45 I-0.0125 J0
G1 X1.2875
G18 G3 X1.275 Z-0.7375 I0 K0.0125
G0 Z1.25
G17
M9
M5
G28 G91 Z0
G90

(2D Contour1)
T1 M6
S10000 M3
G54
G0 X12.095 Y1.392
Z1
G1 Z-0.015 F30
X12.0953 Y1.3919 Z-0.0189 F60
X12.0961 Y1.3915 Z-0.0227
X12.0974 Y1.3908 Z-0.0263
X12.0992 Y1.3898 Z-0.0297
X12.1015 Y1.3886 Z-0.0327
X12.1041 Y1.3872 Z-0.0352
X12.1071 Y1.3856 Z-0.0373
X12.1103 Y1.384 Z-0.0388
X12.1137 Y1.3822 Z-0.0397
X12.1171 Y1.3803 Z-0.04
X12.1392 Y1.3687
G3 X12.173 Y1.3791 I0.0117 J0.0221
X11.952 Y1.4959 I-0.1105 J0.0584
X12.173 Y1.3791 I0.1105 J-0.0584
X12.1626 Y1.4129 I-0.0221 J0.0117
G1 X12.1405 Y1.4245
X12.137 Y1.4264 Z-0.0397
X12.1337 Y1.4282 Z-0.0388
X12.1305 Y1.4298 Z-0.0373
X12.1275 Y1.4314 Z-0.0352
X12.1249 Y1.4328 Z-0.0327
X12.1226 Y1.434 Z-0.0297
X12.1208 Y1.435 Z-0.0263
X12.1195 Y1.4357 Z-0.0227
X12.1187 Y1.4361 Z-0.0189
X12.1184 Y1.4362 Z-0.015
X12.095 Y1.392
Z-0.055 F30
X12.0953 Y1.3919 Z-0.0589 F60
X12.0961 Y1.3915 Z-0.0627
X12.0974 Y1.3908 Z-0.0663
X12.0992 Y1.3898 Z-0.0697
X12.1015 Y1.3886 Z-0.0727
X12.1041 Y1.3872 Z-0.0752
X12.1071 Y1.3856 Z-0.0773
X12.1103 Y1.384 Z-0.0788
X12.1137 Y1.3822 Z-0.0797
X12.1171 Y1.3803 Z-0.08
X12.1392 Y1.3687
G3 X12.173 Y1.3791 I0.0117 J0.0221
X11.952 Y1.4959 I-0.1105 J0.0584
X12.173 Y1.3791 I0.1105 J-0.0584
X12.1626 Y1.4129 I-0.0221 J0.0117
G1 X12.1405 Y1.4245
X12.137 Y1.4264 Z-0.0797
X12.1337 Y1.4282 Z-0.0788
X12.1305 Y1.4298 Z-0.0773
X12.1275 Y1.4314 Z-0.0752
X12.1249 Y1.4328 Z-0.0727
X12.1226 Y1.434 Z-0.0697
X12.1208 Y1.435 Z-0.0663
X12.1195 Y1.4357 Z-0.0627
X12.1187 Y1.4361 Z-0.0589
X12.1184 Y1.4362 Z-0.055
X12.095 Y1.392
Z-0.095 F30
X12.0953 Y1.3919 Z-0.0989 F60
X12.0961 Y1.3915 Z-0.1027
X12.0974 Y1.3908 Z-0.1063
X12.0992 Y1.3898 Z-0.1097
X12.1015 Y1.3886 Z-0.1127
X12.1041 Y1.3872 Z-0.1152
X12.1071 Y1.3856 Z-0.1173
X12.1103 Y1.384 Z-0.1188
X12.1137 Y1.3822 Z-0.1197
X12.1171 Y1.3803 Z-0.12
X12.1392 Y1.3687
G3 X12.173 Y1.3791 I0.0117 J0.0221
X11.952 Y1.4959 I-0.1105 J0.0584
X12.173 Y1.3791 I0.1105 J-0.0584
X12.1626 Y1.4129 I-0.0221 J0.0117
G1 X12.1405 Y1.4245
X12.137 Y1.4264 Z-0.1197
X12.1337 Y1.4282 Z-0.1188
X12.1305 Y1.4298 Z-0.1173
X12.1275 Y1.4314 Z-0.1152
X12.1249 Y1.4328 Z-0.1127
X12.1226 Y1.434 Z-0.1097
X12.1208 Y1.435 Z-0.1063
X12.1195 Y1.4357 Z-0.1027
X12.1187 Y1.4361 Z-0.0989
X12.1184 Y1.4362 Z-0.095
X12.095 Y1.392
Z-0.135 F30
X12.0953 Y1.3919 Z-0.1389 F60
X12.0961 Y1.3915 Z-0.1427
X12.0974 Y1.3908 Z-0.1463
X12.0992 Y1.3898 Z-0.1497
X12.1015 Y1.3886 Z-0.1527
X12.1041 Y1.3872 Z-0.1552
X12.1071 Y1.3856 Z-0.1573
X12.1103 Y1.384 Z-0.1588
X12.1137 Y1.3822 Z-0.1597
X12.1171 Y1.3803 Z-0.16
X12.1392 Y1.3687
G3 X12.173 Y1.3791 I0.0117 J0.0221
X11.952 Y1.4959 I-0.1105 J0.0584
X12.173 Y1.3791 I0.1105 J-0.0584
X12.1626 Y1.4129 I-0.0221 J0.0117
G1 X12.1405 Y1.4245
X12.137 Y1.4264 Z-0.1597
X12.1337 Y1.4282 Z-0.1588
X12.1305 Y1.4298 Z-0.1573
X12.1275 Y1.4314 Z-0.1552
X12.1249 Y1.4328 Z-0.1527
X12.1226 Y1.434 Z-0.1497
X12.1208 Y1.435 Z-0.1463
X12.1195 Y1.4357 Z-0.1427
X12.1187 Y1.4361 Z-0.1389
X12.1184 Y1.4362 Z-0.135
X12.095 Y1.392
Z-0.175 F30
X12.0953 Y1.3919 Z-0.1789 F60
X12.0961 Y1.3915 Z-0.1827
X12.0974 Y1.3908 Z-0.1863
X12.0992 Y1.3898 Z-0.1897
X12.1015 Y1.3886 Z-0.1927
X12.1041 Y1.3872 Z-0.1952
X12.1071 Y1.3856 Z-0.1973
X12.1103 Y1.384 Z-0.1988
X12.1137 Y1.3822 Z-0.1997
X12.1171 Y1.3803 Z-0.2
X12.1392 Y1.3687
G3 X12.173 Y1.3791 I0.0117 J0.0221
X11.952 Y1.4959 I-0.1105 J0.0584
X12.173 Y1.3791 I0.1105 J-0.0584
X12.1626 Y1.4129 I-0.0221 J0.0117
G1 X12.1405 Y1.4245
X12.137 Y1.4264 Z-0.1997
X12.1337 Y1.4282 Z-0.1988
X12.1305 Y1.4298 Z-0.1973
X12.1275 Y1.4314 Z-0.1952
X12.1249 Y1.4328 Z-0.1927
X12.1226 Y1.434 Z-0.1897
X12.1208 Y1.435 Z-0.1863
X12.1195 Y1.4357 Z-0.1827
X12.1187 Y1.4361 Z-0.1789
X12.1184 Y1.4362 Z-0.175
X12.095 Y1.392
Z-0.215 F30
X12.0953 Y1.3919 Z-0.2189 F60
X12.0961 Y1.3915 Z-0.2227
X12.0974 Y1.3908 Z-0.2263
X12.0992 Y1.3898 Z-0.2297
X12.1015 Y1.3886 Z-0.2327
X12.1041 Y1.3872 Z-0.2352
X12.1071 Y1.3856 Z-0.2373
X12.1103 Y1.384 Z-0.2388
X12.1137 Y1.3822 Z-0.2397
X12.1171 Y1.3803 Z-0.24
X12.1392 Y1.3687
G3 X12.173 Y1.3791 I0.0117 J0.0221
X11.952 Y1.4959 I-0.1105 J0.0584
X12.173 Y1.3791 I0.1105 J-0.0584
X12.1626 Y1.4129 I-0.0221 J0.0117
G1 X12.1405 Y1.4245
X12.137 Y1.4264 Z-0.2397
X12.1337 Y1.4282 Z-0.2388
X12.1305 Y1.4298 Z-0.2373
X12.1275 Y1.4314 Z-0.2352
X12.1249 Y1.4328 Z-0.2327
X12.1226 Y1.434 Z-0.2297
X12.1208 Y1.435 Z-0.2263
X12.1195 Y1.4357 Z-0.2227
X12.1187 Y1.4361 Z-0.2189
X12.1184 Y1.4362 Z-0.215
X12.095 Y1.392
Z-0.255 F30
X12.0953 Y1.3919 Z-0.2589 F60
X12.0961 Y1.3915 Z-0.2627
X12.0974 Y1.3908 Z-0.2663
X12.0992 Y1.3898 Z-0.2697
X12.1015 Y1.3886 Z-0.2727
X12.1041 Y1.3872 Z-0.2752
X12.1071 Y1.3856 Z-0.2773
X12.1103 Y1.384 Z-0.2788
X12.1137 Y1.3822 Z-0.2797
X12.1171 Y1.3803 Z-0.28
X12.1392 Y1.3687
G3 X12.173 Y1.3791 I0.0117 J0.0221
X11.952 Y1.4959 I-0.1105 J0.0584
X12.173 Y1.3791 I0.1105 J-0.0584
X12.1626 Y1.4129 I-0.0221 J0.0117
G1 X12.1405 Y1.4245
X12.137 Y1.4264 Z-0.2797
X12.1337 Y1.4282 Z-0.2788
X12.1305 Y1.4298 Z-0.2773
X12.1275 Y1.4314 Z-0.2752
X12.1249 Y1.4328 Z-0.2727
X12.1226 Y1.434 Z-0.2697
X12.1208 Y1.435 Z-0.2663
X12.1195 Y1.4357 Z-0.2627
X12.1187 Y1.4361 Z-0.2589
X12.1184 Y1.4362 Z-0.255
X12.095 Y1.392
Z-0.295 F30
X12.0953 Y1.3919 Z-0.2989 F60
X12.0961 Y1.3915 Z-0.3027
X12.0974 Y1.3908 Z-0.3063
X12.0992 Y1.3898 Z-0.3097
X12.1015 Y1.3886 Z-0.3127
X12.1041 Y1.3872 Z-0.3152
X12.1071 Y1.3856 Z-0.3173
X12.1103 Y1.384 Z-0.3188
X12.1137 Y1.3822 Z-0.3197
X12.1171 Y1.3803 Z-0.32
X12.1392 Y1.3687
G3 X12.173 Y1.3791 I0.0117 J0.0221
X11.952 Y1.4959 I-0.1105 J0.0584
X12.173 Y1.3791 I0.1105 J-0.0584
X12.1626 Y1.4129 I-0.0221 J0.0117
G1 X12.1405 Y1.4245
X12.137 Y1.4264 Z-0.3197
X12.1337 Y1.4282 Z-0.3188
X12.1305 Y1.4298 Z-0.3173
X12.1275 Y1.4314 Z-0.3152
X12.1249 Y1.4328 Z-0.3127
X12.1226 Y1.434 Z-0.3097
X12.1208 Y1.435 Z-0.3063
X12.1195 Y1.4357 Z-0.3027
X12.1187 Y1.4361 Z-0.2989
X12.1184 Y1.4362 Z-0.295
X12.095 Y1.392
Z-0.335 F30
X12.0953 Y1.3919 Z-0.3389 F60
X12.0961 Y1.3915 Z-0.3427
X12.0974 Y1.3908 Z-0.3463
X12.0992 Y1.3898 Z-0.3497
X12.1015 Y1.3886 Z-0.3527
X12.1041 Y1.3872 Z-0.3552
X12.1071 Y1.3856 Z-0.3573
X12.1103 Y1.384 Z-0.3588
X12.1137 Y1.3822 Z-0.3597
X12.1171 Y1.3803 Z-0.36
X12.1392 Y1.3687
G3 X12.173 Y1.3791 I0.0117 J0.0221
X11.952 Y1.4959 I-0.1105 J0.0584
X12.173 Y1.3791 I0.1105 J-0.0584
X12.1626 Y1.4129 I-0.0221 J0.0117
G1 X12.1405 Y1.4245
X12.137 Y1.4264 Z-0.3597
X12.1337 Y1.4282 Z-0.3588
X12.1305 Y1.4298 Z-0.3573
X12.1275 Y1.4314 Z-0.3552
X12.1249 Y1.4328 Z-0.3527
X12.1226 Y1.434 Z-0.3497
X12.1208 Y1.435 Z-0.3463
X12.1195 Y1.4357 Z-0.3427
X12.1187 Y1.4361 Z-0.3389
X12.1184 Y1.4362 Z-0.335
X12.095 Y1.392
Z-0.35 F30
X12.0953 Y1.3919 Z-0.3539 F60
X12.0961 Y1.3915 Z-0.3577
X12.0974 Y1.3908 Z-0.3613
X12.0992 Y1.3898 Z-0.3647
X12.1015 Y1.3886 Z-0.3677
X12.1041 Y1.3872 Z-0.3702
X12.1071 Y1.3856 Z-0.3723
X12.1103 Y1.384 Z-0.3738
X12.1137 Y1.3822 Z-0.3747
X12.1171 Y1.3803 Z-0.375
X12.1392 Y1.3687
G3 X12.173 Y1.3791 I0.0117 J0.0221
X11.952 Y1.4959 I-0.1105 J0.0584
X12.173 Y1.3791 I0.1105 J-0.0584
X12.1626 Y1.4129 I-0.0221 J0.0117
G1 X12.1405 Y1.4245
X12.137 Y1.4264 Z-0.3747
X12.1337 Y1.4282 Z-0.3738
X12.1305 Y1.4298 Z-0.3723
X12.1275 Y1.4314 Z-0.3702
X12.1249 Y1.4328 Z-0.3677
X12.1226 Y1.434 Z-0.3647
X12.1208 Y1.435 Z-0.3613
X12.1195 Y1.4357 Z-0.3577
X12.1187 Y1.4361 Z-0.3539
X12.1184 Y1.4362 Z-0.35
G0 Z1
X22.9075 Y1.392
G1 Z-0.015 F30
X22.9078 Y1.3919 Z-0.0189 F60
X22.9086 Y1.3915 Z-0.0227
X22.9099 Y1.3908 Z-0.0264
X22.9117 Y1.3898 Z-0.0297
X22.914 Y1.3886 Z-0.0327
X22.9166 Y1.3872 Z-0.0352
X22.9196 Y1.3856 Z-0.0373
X22.9228 Y1.384 Z-0.0388
X22.9262 Y1.3822 Z-0.0397
X22.9296 Y1.3803 Z-0.04
X22.9517 Y1.3687
G3 X22.9855 Y1.3791 I0.0117 J0.0221
X22.7645 Y1.4959 I-0.1105 J0.0584
X22.9855 Y1.3791 I0.1105 J-0.0584
X22.9751 Y1.4129 I-0.0221 J0.0117
G1 X22.953 Y1.4245
X22.9495 Y1.4264 Z-0.0397
X22.9462 Y1.4282 Z-0.0388
X22.943 Y1.4298 Z-0.0373
X22.94 Y1.4314 Z-0.0352
X22.9374 Y1.4328 Z-0.0327
X22.9351 Y1.434 Z-0.0297
X22.9333 Y1.435 Z-0.0263
X22.932 Y1.4357 Z-0.0227
X22.9312 Y1.4361 Z-0.0189
X22.9309 Y1.4362 Z-0.015
X22.9075 Y1.392
Z-0.055 F30
X22.9078 Y1.3919 Z-0.0589 F60
X22.9086 Y1.3915 Z-0.0627
X22.9099 Y1.3908 Z-0.0664
X22.9117 Y1.3898 Z-0.0697
X22.914 Y1.3886 Z-0.0727
X22.9166 Y1.3872 Z-0.0752
X22.9196 Y1.3856 Z-0.0773
X22.9228 Y1.384 Z-0.0788
X22.9262 Y1.3822 Z-0.0797
X22.9296 Y1.3803 Z-0.08
X22.9517 Y1.3687
G3 X22.9855 Y1.3791 I0.0117 J0.0221
X22.7645 Y1.4959 I-0.1105 J0.0584
X22.9855 Y1.3791 I0.1105 J-0.0584
X22.9751 Y1.4129 I-0.0221 J0.0117
G1 X22.953 Y1.4245
X22.9495 Y1.4264 Z-0.0797
X22.9462 Y1.4282 Z-0.0788
X22.943 Y1.4298 Z-0.0773
X22.94 Y1.4314 Z-0.0752
X22.9374 Y1.4328 Z-0.0727
X22.9351 Y1.434 Z-0.0697
X22.9333 Y1.435 Z-0.0663
X22.932 Y1.4357 Z-0.0627
X22.9312 Y1.4361 Z-0.0589
X22.9309 Y1.4362 Z-0.055
X22.9075 Y1.392
Z-0.095 F30
X22.9078 Y1.3919 Z-0.0989 F60
X22.9086 Y1.3915 Z-0.1027
X22.9099 Y1.3908 Z-0.1064
X22.9117 Y1.3898 Z-0.1097
X22.914 Y1.3886 Z-0.1127
X22.9166 Y1.3872 Z-0.1152
X22.9196 Y1.3856 Z-0.1173
X22.9228 Y1.384 Z-0.1188
X22.9262 Y1.3822 Z-0.1197
X22.9296 Y1.3803 Z-0.12
X22.9517 Y1.3687
G3 X22.9855 Y1.3791 I0.0117 J0.0221
X22.7645 Y1.4959 I-0.1105 J0.0584
X22.9855 Y1.3791 I0.1105 J-0.0584
X22.9751 Y1.4129 I-0.0221 J0.0117
G1 X22.953 Y1.4245
X22.9495 Y1.4264 Z-0.1197
X22.9462 Y1.4282 Z-0.1188
X22.943 Y1.4298 Z-0.1173
X22.94 Y1.4314 Z-0.1152
X22.9374 Y1.4328 Z-0.1127
X22.9351 Y1.434 Z-0.1097
X22.9333 Y1.435 Z-0.1063
X22.932 Y1.4357 Z-0.1027
X22.9312 Y1.4361 Z-0.0989
X22.9309 Y1.4362 Z-0.095
X22.9075 Y1.392
Z-0.135 F30
X22.9078 Y1.3919 Z-0.1389 F60
X22.9086 Y1.3915 Z-0.1427
X22.9099 Y1.3908 Z-0.1464
X22.9117 Y1.3898 Z-0.1497
X22.914 Y1.3886 Z-0.1527
X22.9166 Y1.3872 Z-0.1552
X22.9196 Y1.3856 Z-0.1573
X22.9228 Y1.384 Z-0.1588
X22.9262 Y1.3822 Z-0.1597
X22.9296 Y1.3803 Z-0.16
X22.9517 Y1.3687
G3 X22.9855 Y1.3791 I0.0117 J0.0221
X22.7645 Y1.4959 I-0.1105 J0.0584
X22.9855 Y1.3791 I0.1105 J-0.0584
X22.9751 Y1.4129 I-0.0221 J0.0117
G1 X22.953 Y1.4245
X22.9495 Y1.4264 Z-0.1597
X22.9462 Y1.4282 Z-0.1588
X22.943 Y1.4298 Z-0.1573
X22.94 Y1.4314 Z-0.1552
X22.9374 Y1.4328 Z-0.1527
X22.9351 Y1.434 Z-0.1497
X22.9333 Y1.435 Z-0.1463
X22.932 Y1.4357 Z-0.1427
X22.9312 Y1.4361 Z-0.1389
X22.9309 Y1.4362 Z-0.135
X22.9075 Y1.392
Z-0.175 F30
X22.9078 Y1.3919 Z-0.1789 F60
X22.9086 Y1.3915 Z-0.1827
X22.9099 Y1.3908 Z-0.1864
X22.9117 Y1.3898 Z-0.1897
X22.914 Y1.3886 Z-0.1927
X22.9166 Y1.3872 Z-0.1952
X22.9196 Y1.3856 Z-0.1973
X22.9228 Y1.384 Z-0.1988
X22.9262 Y1.3822 Z-0.1997
X22.9296 Y1.3803 Z-0.2
X22.9517 Y1.3687
G3 X22.9855 Y1.3791 I0.0117 J0.0221
X22.7645 Y1.4959 I-0.1105 J0.0584
X22.9855 Y1.3791 I0.1105 J-0.0584
X22.9751 Y1.4129 I-0.0221 J0.0117
G1 X22.953 Y1.4245
X22.9495 Y1.4264 Z-0.1997
X22.9462 Y1.4282 Z-0.1988
X22.943 Y1.4298 Z-0.1973
X22.94 Y1.4314 Z-0.1952
X22.9374 Y1.4328 Z-0.1927
X22.9351 Y1.434 Z-0.1897
X22.9333 Y1.435 Z-0.1863
X22.932 Y1.4357 Z-0.1827
X22.9312 Y1.4361 Z-0.1789
X22.9309 Y1.4362 Z-0.175
X22.9075 Y1.392
Z-0.215 F30
X22.9078 Y1.3919 Z-0.2189 F60
X22.9086 Y1.3915 Z-0.2227
X22.9099 Y1.3908 Z-0.2264
X22.9117 Y1.3898 Z-0.2297
X22.914 Y1.3886 Z-0.2327
X22.9166 Y1.3872 Z-0.2352
X22.9196 Y1.3856 Z-0.2373
X22.9228 Y1.384 Z-0.2388
X22.9262 Y1.3822 Z-0.2397
X22.9296 Y1.3803 Z-0.24
X22.9517 Y1.3687
G3 X22.9855 Y1.3791 I0.0117 J0.0221
X22.7645 Y1.4959 I-0.1105 J0.0584
X22.9855 Y1.3791 I0.1105 J-0.0584
X22.9751 Y1.4129 I-0.0221 J0.0117
G1 X22.953 Y1.4245
X22.9495 Y1.4264 Z-0.2397
X22.9462 Y1.4282 Z-0.2388
X22.943 Y1.4298 Z-0.2373
X22.94 Y1.4314 Z-0.2352
X22.9374 Y1.4328 Z-0.2327
X22.9351 Y1.434 Z-0.2297
X22.9333 Y1.435 Z-0.2263
X22.932 Y1.4357 Z-0.2227
X22.9312 Y1.4361 Z-0.2189
X22.9309 Y1.4362 Z-0.215
X22.9075 Y1.392
Z-0.255 F30
X22.9078 Y1.3919 Z-0.2589 F60
X22.9086 Y1.3915 Z-0.2627
X22.9099 Y1.3908 Z-0.2664
X22.9117 Y1.3898 Z-0.2697
X22.914 Y1.3886 Z-0.2727
X22.9166 Y1.3872 Z-0.2752
X22.9196 Y1.3856 Z-0.2773
X22.9228 Y1.384 Z-0.2788
X22.9262 Y1.3822 Z-0.2797
X22.9296 Y1.3803 Z-0.28
X22.9517 Y1.3687
G3 X22.9855 Y1.3791 I0.0117 J0.0221
X22.7645 Y1.4959 I-0.1105 J0.0584
X22.9855 Y1.3791 I0.1105 J-0.0584
X22.9751 Y1.4129 I-0.0221 J0.0117
G1 X22.953 Y1.4245
X22.9495 Y1.4264 Z-0.2797
X22.9462 Y1.4282 Z-0.2788
X22.943 Y1.4298 Z-0.2773
X22.94 Y1.4314 Z-0.2752
X22.9374 Y1.4328 Z-0.2727
X22.9351 Y1.434 Z-0.2697
X22.9333 Y1.435 Z-0.2663
X22.932 Y1.4357 Z-0.2627
X22.9312 Y1.4361 Z-0.2589
X22.9309 Y1.4362 Z-0.255
X22.9075 Y1.392
Z-0.295 F30
X22.9078 Y1.3919 Z-0.2989 F60
X22.9086 Y1.3915 Z-0.3027
X22.9099 Y1.3908 Z-0.3064
X22.9117 Y1.3898 Z-0.3097
X22.914 Y1.3886 Z-0.3127
X22.9166 Y1.3872 Z-0.3152
X22.9196 Y1.3856 Z-0.3173
X22.9228 Y1.384 Z-0.3188
X22.9262 Y1.3822 Z-0.3197
X22.9296 Y1.3803 Z-0.32
X22.9517 Y1.3687
G3 X22.9855 Y1.3791 I0.0117 J0.0221
X22.7645 Y1.4959 I-0.1105 J0.0584
X22.9855 Y1.3791 I0.1105 J-0.0584
X22.9751 Y1.4129 I-0.0221 J0.0117
G1 X22.953 Y1.4245
X22.9495 Y1.4264 Z-0.3197
X22.9462 Y1.4282 Z-0.3188
X22.943 Y1.4298 Z-0.3173
X22.94 Y1.4314 Z-0.3152
X22.9374 Y1.4328 Z-0.3127
X22.9351 Y1.434 Z-0.3097
X22.9333 Y1.435 Z-0.3063
X22.932 Y1.4357 Z-0.3027
X22.9312 Y1.4361 Z-0.2989
X22.9309 Y1.4362 Z-0.295
X22.9075 Y1.392
Z-0.335 F30
X22.9078 Y1.3919 Z-0.3389 F60
X22.9086 Y1.3915 Z-0.3427
X22.9099 Y1.3908 Z-0.3464
X22.9117 Y1.3898 Z-0.3497
X22.914 Y1.3886 Z-0.3527
X22.9166 Y1.3872 Z-0.3552
X22.9196 Y1.3856 Z-0.3573
X22.9228 Y1.384 Z-0.3588
X22.9262 Y1.3822 Z-0.3597
X22.9296 Y1.3803 Z-0.36
X22.9517 Y1.3687
G3 X22.9855 Y1.3791 I0.0117 J0.0221
X22.7645 Y1.4959 I-0.1105 J0.0584
X22.9855 Y1.3791 I0.1105 J-0.0584
X22.9751 Y1.4129 I-0.0221 J0.0117
G1 X22.953 Y1.4245
X22.9495 Y1.4264 Z-0.3597
X22.9462 Y1.4282 Z-0.3588
X22.943 Y1.4298 Z-0.3573
X22.94 Y1.4314 Z-0.3552
X22.9374 Y1.4328 Z-0.3527
X22.9351 Y1.434 Z-0.3497
X22.9333 Y1.435 Z-0.3463
X22.932 Y1.4357 Z-0.3427
X22.9312 Y1.4361 Z-0.3389
X22.9309 Y1.4362 Z-0.335
X22.9075 Y1.392
Z-0.35 F30
X22.9078 Y1.3919 Z-0.3539 F60
X22.9086 Y1.3915 Z-0.3577
X22.9099 Y1.3908 Z-0.3614
X22.9117 Y1.3898 Z-0.3647
X22.914 Y1.3886 Z-0.3677
X22.9166 Y1.3872 Z-0.3702
X22.9196 Y1.3856 Z-0.3723
X22.9228 Y1.384 Z-0.3738
X22.9262 Y1.3822 Z-0.3747
X22.9296 Y1.3803 Z-0.375
X22.9517 Y1.3687
G3 X22.9855 Y1.3791 I0.0117 J0.0221
X22.7645 Y1.4959 I-0.1105 J0.0584
X22.9855 Y1.3791 I0.1105 J-0.0584
X22.9751 Y1.4129 I-0.0221 J0.0117
G1 X22.953 Y1.4245
X22.9495 Y1.4264 Z-0.3747
X22.9462 Y1.4282 Z-0.3738
X22.943 Y1.4298 Z-0.3723
X22.94 Y1.4314 Z-0.3702
X22.9374 Y1.4328 Z-0.3677
X22.9351 Y1.434 Z-0.3647
X22.9333 Y1.435 Z-0.3613
X22.932 Y1.4357 Z-0.3577
X22.9312 Y1.4361 Z-0.3539
X22.9309 Y1.4362 Z-0.35
G0 Z1
X1.275 Y1.3875
G1 Z-0.015 F30
X1.2752 Y1.3873 Z-0.0189 F60
X1.276 Y1.3868 Z-0.0227
X1.2772 Y1.3859 Z-0.0263
X1.2788 Y1.3846 Z-0.0297
X1.2809 Y1.3831 Z-0.0327
X1.2832 Y1.3813 Z-0.0352
X1.2859 Y1.3793 Z-0.0373
X1.2888 Y1.3771 Z-0.0388
X1.2919 Y1.3748 Z-0.0397
X1.295 Y1.3725 Z-0.04
X1.315 Y1.3575
G3 X1.35 Y1.3625 I0.015 J0.02
X1.15 Y1.5125 I-0.1 J0.075
X1.35 Y1.3625 I0.1 J-0.075
X1.345 Y1.3975 I-0.02 J0.015
G1 X1.325 Y1.4125
X1.3219 Y1.4148 Z-0.0397
X1.3188 Y1.4171 Z-0.0388
X1.3159 Y1.4193 Z-0.0373
X1.3132 Y1.4213 Z-0.0352
X1.3109 Y1.4231 Z-0.0327
X1.3088 Y1.4246 Z-0.0297
X1.3072 Y1.4259 Z-0.0263
X1.306 Y1.4268 Z-0.0227
X1.3052 Y1.4273 Z-0.0189
X1.305 Y1.4275 Z-0.015
X1.275 Y1.3875
Z-0.055 F30
X1.2752 Y1.3873 Z-0.0589 F60
X1.276 Y1.3868 Z-0.0627
X1.2772 Y1.3859 Z-0.0663
X1.2788 Y1.3846 Z-0.0697
X1.2809 Y1.3831 Z-0.0727
X1.2832 Y1.3813 Z-0.0752
X1.2859 Y1.3793 Z-0.0773
X1.2888 Y1.3771 Z-0.0788
X1.2919 Y1.3748 Z-0.0797
X1.295 Y1.3725 Z-0.08
X1.315 Y1.3575
G3 X1.35 Y1.3625 I0.015 J0.02
X1.15 Y1.5125 I-0.1 J0.075
X1.35 Y1.3625 I0.1 J-0.075
X1.345 Y1.3975 I-0.02 J0.015
G1 X1.325 Y1.4125
X1.3219 Y1.4148 Z-0.0797
X1.3188 Y1.4171 Z-0.0788
X1.3159 Y1.4193 Z-0.0773
X1.3132 Y1.4213 Z-0.0752
X1.3109 Y1.4231 Z-0.0727
X1.3088 Y1.4246 Z-0.0697
X1.3072 Y1.4259 Z-0.0663
X1.306 Y1.4268 Z-0.0627
X1.3052 Y1.4273 Z-0.0589
X1.305 Y1.4275 Z-0.055
X1.275 Y1.3875
Z-0.095 F30
X1.2752 Y1.3873 Z-0.0989 F60
X1.276 Y1.3868 Z-0.1027
X1.2772 Y1.3859 Z-0.1063
X1.2788 Y1.3846 Z-0.1097
X1.2809 Y1.3831 Z-0.1127
X1.2832 Y1.3813 Z-0.1152
X1.2859 Y1.3793 Z-0.1173
X1.2888 Y1.3771 Z-0.1188
X1.2919 Y1.3748 Z-0.1197
X1.295 Y1.3725 Z-0.12
X1.315 Y1.3575
G3 X1.35 Y1.3625 I0.015 J0.02
X1.15 Y1.5125 I-0.1 J0.075
X1.35 Y1.3625 I0.1 J-0.075
X1.345 Y1.3975 I-0.02 J0.015
G1 X1.325 Y1.4125
X1.3219 Y1.4148 Z-0.1197
X1.3188 Y1.4171 Z-0.1188
X1.3159 Y1.4193 Z-0.1173
X1.3132 Y1.4213 Z-0.1152
X1.3109 Y1.4231 Z-0.1127
X1.3088 Y1.4246 Z-0.1097
X1.3072 Y1.4259 Z-0.1063
X1.306 Y1.4268 Z-0.1027
X1.3052 Y1.4273 Z-0.0989
X1.305 Y1.4275 Z-0.095
X1.275 Y1.3875
Z-0.135 F30
X1.2752 Y1.3873 Z-0.1389 F60
X1.276 Y1.3868 Z-0.1427
X1.2772 Y1.3859 Z-0.1463
X1.2788 Y1.3846 Z-0.1497
X1.2809 Y1.3831 Z-0.1527
X1.2832 Y1.3813 Z-0.1552
X1.2859 Y1.3793 Z-0.1573
X1.2888 Y1.3771 Z-0.1588
X1.2919 Y1.3748 Z-0.1597
X1.295 Y1.3725 Z-0.16
X1.315 Y1.3575
G3 X1.35 Y1.3625 I0.015 J0.02
X1.15 Y1.5125 I-0.1 J0.075
X1.35 Y1.3625 I0.1 J-0.075
X1.345 Y1.3975 I-0.02 J0.015
G1 X1.325 Y1.4125
X1.3219 Y1.4148 Z-0.1597
X1.3188 Y1.4171 Z-0.1588
X1.3159 Y1.4193 Z-0.1573
X1.3132 Y1.4213 Z-0.1552
X1.3109 Y1.4231 Z-0.1527
X1.3088 Y1.4246 Z-0.1497
X1.3072 Y1.4259 Z-0.1463
X1.306 Y1.4268 Z-0.1427
X1.3052 Y1.4273 Z-0.1389
X1.305 Y1.4275 Z-0.135
X1.275 Y1.3875
Z-0.175 F30
X1.2752 Y1.3873 Z-0.1789 F60
X1.276 Y1.3868 Z-0.1827
X1.2772 Y1.3859 Z-0.1863
X1.2788 Y1.3846 Z-0.1897
X1.2809 Y1.3831 Z-0.1927
X1.2832 Y1.3813 Z-0.1952
X1.2859 Y1.3793 Z-0.1973
X1.2888 Y1.3771 Z-0.1988
X1.2919 Y1.3748 Z-0.1997
X1.295 Y1.3725 Z-0.2
X1.315 Y1.3575
G3 X1.35 Y1.3625 I0.015 J0.02
X1.15 Y1.5125 I-0.1 J0.075
X1.35 Y1.3625 I0.1 J-0.075
X1.345 Y1.3975 I-0.02 J0.015
G1 X1.325 Y1.4125
X1.3219 Y1.4148 Z-0.1997
X1.3188 Y1.4171 Z-0.1988
X1.3159 Y1.4193 Z-0.1973
X1.3132 Y1.4213 Z-0.1952
X1.3109 Y1.4231 Z-0.1927
X1.3088 Y1.4246 Z-0.1897
X1.3072 Y1.4259 Z-0.1863
X1.306 Y1.4268 Z-0.1827
X1.3052 Y1.4273 Z-0.1789
X1.305 Y1.4275 Z-0.175
X1.275 Y1.3875
Z-0.215 F30
X1.2752 Y1.3873 Z-0.2189 F60
X1.276 Y1.3868 Z-0.2227
X1.2772 Y1.3859 Z-0.2263
X1.2788 Y1.3846 Z-0.2297
X1.2809 Y1.3831 Z-0.2327
X1.2832 Y1.3813 Z-0.2352
X1.2859 Y1.3793 Z-0.2373
X1.2888 Y1.3771 Z-0.2388
X1.2919 Y1.3748 Z-0.2397
X1.295 Y1.3725 Z-0.24
X1.315 Y1.3575
G3 X1.35 Y1.3625 I0.015 J0.02
X1.15 Y1.5125 I-0.1 J0.075
X1.35 Y1.3625 I0.1 J-0.075
X1.345 Y1.3975 I-0.02 J0.015
G1 X1.325 Y1.4125
X1.3219 Y1.4148 Z-0.2397
X1.3188 Y1.4171 Z-0.2388
X1.3159 Y1.4193 Z-0.2373
X1.3132 Y1.4213 Z-0.2352
X1.3109 Y1.4231 Z-0.2327
X1.3088 Y1.4246 Z-0.2297
X1.3072 Y1.4259 Z-0.2263
X1.306 Y1.4268 Z-0.2227
X1.3052 Y1.4273 Z-0.2189
X1.305 Y1.4275 Z-0.215
X1.275 Y1.3875
Z-0.255 F30
X1.2752 Y1.3873 Z-0.2589 F60
X1.276 Y1.3868 Z-0.2627
X1.2772 Y1.3859 Z-0.2663
X1.2788 Y1.3846 Z-0.2697
X1.2809 Y1.3831 Z-0.2727
X1.2832 Y1.3813 Z-0.2752
X1.2859 Y1.3793 Z-0.2773
X1.2888 Y1.3771 Z-0.2788
X1.2919 Y1.3748 Z-0.2797
X1.295 Y1.3725 Z-0.28
X1.315 Y1.3575
G3 X1.35 Y1.3625 I0.015 J0.02
X1.15 Y1.5125 I-0.1 J0.075
X1.35 Y1.3625 I0.1 J-0.075
X1.345 Y1.3975 I-0.02 J0.015
G1 X1.325 Y1.4125
X1.3219 Y1.4148 Z-0.2797
X1.3188 Y1.4171 Z-0.2788
X1.3159 Y1.4193 Z-0.2773
X1.3132 Y1.4213 Z-0.2752
X1.3109 Y1.4231 Z-0.2727
X1.3088 Y1.4246 Z-0.2697
X1.3072 Y1.4259 Z-0.2663
X1.306 Y1.4268 Z-0.2627
X1.3052 Y1.4273 Z-0.2589
X1.305 Y1.4275 Z-0.255
X1.275 Y1.3875
Z-0.295 F30
X1.2752 Y1.3873 Z-0.2989 F60
X1.276 Y1.3868 Z-0.3027
X1.2772 Y1.3859 Z-0.3063
X1.2788 Y1.3846 Z-0.3097
X1.2809 Y1.3831 Z-0.3127
X1.2832 Y1.3813 Z-0.3152
X1.2859 Y1.3793 Z-0.3173
X1.2888 Y1.3771 Z-0.3188
X1.2919 Y1.3748 Z-0.3197
X1.295 Y1.3725 Z-0.32
X1.315 Y1.3575
G3 X1.35 Y1.3625 I0.015 J0.02
X1.15 Y1.5125 I-0.1 J0.075
X1.35 Y1.3625 I0.1 J-0.075
X1.345 Y1.3975 I-0.02 J0.015
G1 X1.325 Y1.4125
X1.3219 Y1.4148 Z-0.3197
X1.3188 Y1.4171 Z-0.3188
X1.3159 Y1.4193 Z-0.3173
X1.3132 Y1.4213 Z-0.3152
X1.3109 Y1.4231 Z-0.3127
X1.3088 Y1.4246 Z-0.3097
X1.3072 Y1.4259 Z-0.3063
X1.306 Y1.4268 Z-0.3027
X1.3052 Y1.4273 Z-0.2989
X1.305 Y1.4275 Z-0.295
X1.275 Y1.3875
Z-0.335 F30
X1.2752 Y1.3873 Z-0.3389 F60
X1.276 Y1.3868 Z-0.3427
X1.2772 Y1.3859 Z-0.3463
X1.2788 Y1.3846 Z-0.3497
X1.2809 Y1.3831 Z-0.3527
X1.2832 Y1.3813 Z-0.3552
X1.2859 Y1.3793 Z-0.3573
X1.2888 Y1.3771 Z-0.3588
X1.2919 Y1.3748 Z-0.3597
X1.295 Y1.3725 Z-0.36
X1.315 Y1.3575
G3 X1.35 Y1.3625 I0.015 J0.02
X1.15 Y1.5125 I-0.1 J0.075
X1.35 Y1.3625 I0.1 J-0.075
X1.345 Y1.3975 I-0.02 J0.015
G1 X1.325 Y1.4125
X1.3219 Y1.4148 Z-0.3597
X1.3188 Y1.4171 Z-0.3588
X1.3159 Y1.4193 Z-0.3573
X1.3132 Y1.4213 Z-0.3552
X1.3109 Y1.4231 Z-0.3527
X1.3088 Y1.4246 Z-0.3497
X1.3072 Y1.4259 Z-0.3463
X1.306 Y1.4268 Z-0.3427
X1.3052 Y1.4273 Z-0.3389
X1.305 Y1.4275 Z-0.335
X1.275 Y1.3875
Z-0.35 F30
X1.2752 Y1.3873 Z-0.3539 F60
X1.276 Y1.3868 Z-0.3577
X1.2772 Y1.3859 Z-0.3613
X1.2788 Y1.3846 Z-0.3647
X1.2809 Y1.3831 Z-0.3677
X1.2832 Y1.3813 Z-0.3702
X1.2859 Y1.3793 Z-0.3723
X1.2888 Y1.3771 Z-0.3738
X1.2919 Y1.3748 Z-0.3747
X1.295 Y1.3725 Z-0.375
X1.315 Y1.3575
G3 X1.35 Y1.3625 I0.015 J0.02
X1.15 Y1.5125 I-0.1 J0.075
X1.35 Y1.3625 I0.1 J-0.075
X1.345 Y1.3975 I-0.02 J0.015
G1 X1.325 Y1.4125
X1.3219 Y1.4148 Z-0.3747
X1.3188 Y1.4171 Z-0.3738
X1.3159 Y1.4193 Z-0.3723
X1.3132 Y1.4213 Z-0.3702
X1.3109 Y1.4231 Z-0.3677
X1.3088 Y1.4246 Z-0.3647
X1.3072 Y1.4259 Z-0.3613
X1.306 Y1.4268 Z-0.3577
X1.3052 Y1.4273 Z-0.3539
X1.305 Y1.4275 Z-0.35
G0 Z1
G28 G91 Z0
G90
G28 G91 X0 Y0
G90
M30
%
