%
(Plastic Boards)
(T1  D=0.25 CR=0 - ZMIN=-0.8 - flat end mill)
G90
G17
G20
G28 G91 Z0
G90

(Drill1)
T1 M6
S10000 M3
G54
G0 X1.25 Y1.4688
Z0.6
Z0.2
Z-0.175
G1 Z-0.8 F30
G0 Z0.2
X12.0625
Z-0.175
G1 Z-0.8 F30
G0 Z0.2
X22.875
Z-0.175
G1 Z-0.8 F30
G0 Z0.2
Z0.6

(2D Contour1)
X12.095 Y1.4233
Z0.6
Z0.2
G1 Z0.08 F30
Z-0.015
X12.0953 Y1.4231 Z-0.0189 F60
X12.0961 Y1.4227 Z-0.0227
X12.0974 Y1.422 Z-0.0263
X12.0992 Y1.421 Z-0.0297
X12.1015 Y1.4199 Z-0.0327
X12.1041 Y1.4185 Z-0.0352
X12.1071 Y1.4169 Z-0.0373
X12.1103 Y1.4152 Z-0.0388
X12.1137 Y1.4134 Z-0.0397
X12.1171 Y1.4116 Z-0.04
X12.1392 Y1.3999
G3 X12.173 Y1.4103 I0.0117 J0.0221
X11.952 Y1.5272 I-0.1105 J0.0585
X12.173 Y1.4103 I0.1105 J-0.0584
X12.1626 Y1.4441 I-0.0221 J0.0117
G1 X12.1405 Y1.4558
X12.137 Y1.4576 Z-0.0397
X12.1337 Y1.4594 Z-0.0388
X12.1305 Y1.4611 Z-0.0373
X12.1275 Y1.4627 Z-0.0352
X12.1249 Y1.4641 Z-0.0327
X12.1226 Y1.4652 Z-0.0297
X12.1208 Y1.4662 Z-0.0263
X12.1195 Y1.4669 Z-0.0227
X12.1187 Y1.4673 Z-0.0189
X12.1184 Y1.4675 Z-0.015
X12.095 Y1.4233
Z-0.055 F30
X12.0953 Y1.4231 Z-0.0589 F60
X12.0961 Y1.4227 Z-0.0627
X12.0974 Y1.422 Z-0.0663
X12.0992 Y1.421 Z-0.0697
X12.1015 Y1.4199 Z-0.0727
X12.1041 Y1.4185 Z-0.0752
X12.1071 Y1.4169 Z-0.0773
X12.1103 Y1.4152 Z-0.0788
X12.1137 Y1.4134 Z-0.0797
X12.1171 Y1.4116 Z-0.08
X12.1392 Y1.3999
G3 X12.173 Y1.4103 I0.0117 J0.0221
X11.952 Y1.5272 I-0.1105 J0.0585
X12.173 Y1.4103 I0.1105 J-0.0584
X12.1626 Y1.4441 I-0.0221 J0.0117
G1 X12.1405 Y1.4558
X12.137 Y1.4576 Z-0.0797
X12.1337 Y1.4594 Z-0.0788
X12.1305 Y1.4611 Z-0.0773
X12.1275 Y1.4627 Z-0.0752
X12.1249 Y1.4641 Z-0.0727
X12.1226 Y1.4652 Z-0.0697
X12.1208 Y1.4662 Z-0.0663
X12.1195 Y1.4669 Z-0.0627
X12.1187 Y1.4673 Z-0.0589
X12.1184 Y1.4675 Z-0.055
X12.095 Y1.4233
Z-0.095 F30
X12.0953 Y1.4231 Z-0.0989 F60
X12.0961 Y1.4227 Z-0.1027
X12.0974 Y1.422 Z-0.1063
X12.0992 Y1.421 Z-0.1097
X12.1015 Y1.4199 Z-0.1127
X12.1041 Y1.4185 Z-0.1152
X12.1071 Y1.4169 Z-0.1173
X12.1103 Y1.4152 Z-0.1188
X12.1137 Y1.4134 Z-0.1197
X12.1171 Y1.4116 Z-0.12
X12.1392 Y1.3999
G3 X12.173 Y1.4103 I0.0117 J0.0221
X11.952 Y1.5272 I-0.1105 J0.0585
X12.173 Y1.4103 I0.1105 J-0.0584
X12.1626 Y1.4441 I-0.0221 J0.0117
G1 X12.1405 Y1.4558
X12.137 Y1.4576 Z-0.1197
X12.1337 Y1.4594 Z-0.1188
X12.1305 Y1.4611 Z-0.1173
X12.1275 Y1.4627 Z-0.1152
X12.1249 Y1.4641 Z-0.1127
X12.1226 Y1.4652 Z-0.1097
X12.1208 Y1.4662 Z-0.1063
X12.1195 Y1.4669 Z-0.1027
X12.1187 Y1.4673 Z-0.0989
X12.1184 Y1.4675 Z-0.095
X12.095 Y1.4233
Z-0.135 F30
X12.0953 Y1.4231 Z-0.1389 F60
X12.0961 Y1.4227 Z-0.1427
X12.0974 Y1.422 Z-0.1463
X12.0992 Y1.421 Z-0.1497
X12.1015 Y1.4199 Z-0.1527
X12.1041 Y1.4185 Z-0.1552
X12.1071 Y1.4169 Z-0.1573
X12.1103 Y1.4152 Z-0.1588
X12.1137 Y1.4134 Z-0.1597
X12.1171 Y1.4116 Z-0.16
X12.1392 Y1.3999
G3 X12.173 Y1.4103 I0.0117 J0.0221
X11.952 Y1.5272 I-0.1105 J0.0585
X12.173 Y1.4103 I0.1105 J-0.0584
X12.1626 Y1.4441 I-0.0221 J0.0117
G1 X12.1405 Y1.4558
X12.137 Y1.4576 Z-0.1597
X12.1337 Y1.4594 Z-0.1588
X12.1305 Y1.4611 Z-0.1573
X12.1275 Y1.4627 Z-0.1552
X12.1249 Y1.4641 Z-0.1527
X12.1226 Y1.4652 Z-0.1497
X12.1208 Y1.4662 Z-0.1463
X12.1195 Y1.4669 Z-0.1427
X12.1187 Y1.4673 Z-0.1389
X12.1184 Y1.4675 Z-0.135
X12.095 Y1.4233
Z-0.175 F30
X12.0953 Y1.4231 Z-0.1789 F60
X12.0961 Y1.4227 Z-0.1827
X12.0974 Y1.422 Z-0.1863
X12.0992 Y1.421 Z-0.1897
X12.1015 Y1.4199 Z-0.1927
X12.1041 Y1.4185 Z-0.1952
X12.1071 Y1.4169 Z-0.1973
X12.1103 Y1.4152 Z-0.1988
X12.1137 Y1.4134 Z-0.1997
X12.1171 Y1.4116 Z-0.2
X12.1392 Y1.3999
G3 X12.173 Y1.4103 I0.0117 J0.0221
X11.952 Y1.5272 I-0.1105 J0.0585
X12.173 Y1.4103 I0.1105 J-0.0584
X12.1626 Y1.4441 I-0.0221 J0.0117
G1 X12.1405 Y1.4558
X12.137 Y1.4576 Z-0.1997
X12.1337 Y1.4594 Z-0.1988
X12.1305 Y1.4611 Z-0.1973
X12.1275 Y1.4627 Z-0.1952
X12.1249 Y1.4641 Z-0.1927
X12.1226 Y1.4652 Z-0.1897
X12.1208 Y1.4662 Z-0.1863
X12.1195 Y1.4669 Z-0.1827
X12.1187 Y1.4673 Z-0.1789
X12.1184 Y1.4675 Z-0.175
X12.095 Y1.4233
Z-0.215 F30
X12.0953 Y1.4231 Z-0.2189 F60
X12.0961 Y1.4227 Z-0.2227
X12.0974 Y1.422 Z-0.2263
X12.0992 Y1.421 Z-0.2297
X12.1015 Y1.4199 Z-0.2327
X12.1041 Y1.4185 Z-0.2352
X12.1071 Y1.4169 Z-0.2373
X12.1103 Y1.4152 Z-0.2388
X12.1137 Y1.4134 Z-0.2397
X12.1171 Y1.4116 Z-0.24
X12.1392 Y1.3999
G3 X12.173 Y1.4103 I0.0117 J0.0221
X11.952 Y1.5272 I-0.1105 J0.0585
X12.173 Y1.4103 I0.1105 J-0.0584
X12.1626 Y1.4441 I-0.0221 J0.0117
G1 X12.1405 Y1.4558
X12.137 Y1.4576 Z-0.2397
X12.1337 Y1.4594 Z-0.2388
X12.1305 Y1.4611 Z-0.2373
X12.1275 Y1.4627 Z-0.2352
X12.1249 Y1.4641 Z-0.2327
X12.1226 Y1.4652 Z-0.2297
X12.1208 Y1.4662 Z-0.2263
X12.1195 Y1.4669 Z-0.2227
X12.1187 Y1.4673 Z-0.2189
X12.1184 Y1.4675 Z-0.215
X12.095 Y1.4233
Z-0.255 F30
X12.0953 Y1.4231 Z-0.2589 F60
X12.0961 Y1.4227 Z-0.2627
X12.0974 Y1.422 Z-0.2663
X12.0992 Y1.421 Z-0.2697
X12.1015 Y1.4199 Z-0.2727
X12.1041 Y1.4185 Z-0.2752
X12.1071 Y1.4169 Z-0.2773
X12.1103 Y1.4152 Z-0.2788
X12.1137 Y1.4134 Z-0.2797
X12.1171 Y1.4116 Z-0.28
X12.1392 Y1.3999
G3 X12.173 Y1.4103 I0.0117 J0.0221
X11.952 Y1.5272 I-0.1105 J0.0585
X12.173 Y1.4103 I0.1105 J-0.0584
X12.1626 Y1.4441 I-0.0221 J0.0117
G1 X12.1405 Y1.4558
X12.137 Y1.4576 Z-0.2797
X12.1337 Y1.4594 Z-0.2788
X12.1305 Y1.4611 Z-0.2773
X12.1275 Y1.4627 Z-0.2752
X12.1249 Y1.4641 Z-0.2727
X12.1226 Y1.4652 Z-0.2697
X12.1208 Y1.4662 Z-0.2663
X12.1195 Y1.4669 Z-0.2627
X12.1187 Y1.4673 Z-0.2589
X12.1184 Y1.4675 Z-0.255
X12.095 Y1.4233
Z-0.295 F30
X12.0953 Y1.4231 Z-0.2989 F60
X12.0961 Y1.4227 Z-0.3027
X12.0974 Y1.422 Z-0.3063
X12.0992 Y1.421 Z-0.3097
X12.1015 Y1.4199 Z-0.3127
X12.1041 Y1.4185 Z-0.3152
X12.1071 Y1.4169 Z-0.3173
X12.1103 Y1.4152 Z-0.3188
X12.1137 Y1.4134 Z-0.3197
X12.1171 Y1.4116 Z-0.32
X12.1392 Y1.3999
G3 X12.173 Y1.4103 I0.0117 J0.0221
X11.952 Y1.5272 I-0.1105 J0.0585
X12.173 Y1.4103 I0.1105 J-0.0584
X12.1626 Y1.4441 I-0.0221 J0.0117
G1 X12.1405 Y1.4558
X12.137 Y1.4576 Z-0.3197
X12.1337 Y1.4594 Z-0.3188
X12.1305 Y1.4611 Z-0.3173
X12.1275 Y1.4627 Z-0.3152
X12.1249 Y1.4641 Z-0.3127
X12.1226 Y1.4652 Z-0.3097
X12.1208 Y1.4662 Z-0.3063
X12.1195 Y1.4669 Z-0.3027
X12.1187 Y1.4673 Z-0.2989
X12.1184 Y1.4675 Z-0.295
X12.095 Y1.4233
Z-0.335 F30
X12.0953 Y1.4231 Z-0.3389 F60
X12.0961 Y1.4227 Z-0.3427
X12.0974 Y1.422 Z-0.3463
X12.0992 Y1.421 Z-0.3497
X12.1015 Y1.4199 Z-0.3527
X12.1041 Y1.4185 Z-0.3552
X12.1071 Y1.4169 Z-0.3573
X12.1103 Y1.4152 Z-0.3588
X12.1137 Y1.4134 Z-0.3597
X12.1171 Y1.4116 Z-0.36
X12.1392 Y1.3999
G3 X12.173 Y1.4103 I0.0117 J0.0221
X11.952 Y1.5272 I-0.1105 J0.0585
X12.173 Y1.4103 I0.1105 J-0.0584
X12.1626 Y1.4441 I-0.0221 J0.0117
G1 X12.1405 Y1.4558
X12.137 Y1.4576 Z-0.3597
X12.1337 Y1.4594 Z-0.3588
X12.1305 Y1.4611 Z-0.3573
X12.1275 Y1.4627 Z-0.3552
X12.1249 Y1.4641 Z-0.3527
X12.1226 Y1.4652 Z-0.3497
X12.1208 Y1.4662 Z-0.3463
X12.1195 Y1.4669 Z-0.3427
X12.1187 Y1.4673 Z-0.3389
X12.1184 Y1.4675 Z-0.335
X12.095 Y1.4233
Z-0.35 F30
X12.0953 Y1.4231 Z-0.3539 F60
X12.0961 Y1.4227 Z-0.3577
X12.0974 Y1.422 Z-0.3613
X12.0992 Y1.421 Z-0.3647
X12.1015 Y1.4199 Z-0.3677
X12.1041 Y1.4185 Z-0.3702
X12.1071 Y1.4169 Z-0.3723
X12.1103 Y1.4152 Z-0.3738
X12.1137 Y1.4134 Z-0.3747
X12.1171 Y1.4116 Z-0.375
X12.1392 Y1.3999
G3 X12.173 Y1.4103 I0.0117 J0.0221
X11.952 Y1.5272 I-0.1105 J0.0585
X12.173 Y1.4103 I0.1105 J-0.0584
X12.1626 Y1.4441 I-0.0221 J0.0117
G1 X12.1405 Y1.4558
X12.137 Y1.4576 Z-0.3747
X12.1337 Y1.4594 Z-0.3738
X12.1305 Y1.4611 Z-0.3723
X12.1275 Y1.4627 Z-0.3702
X12.1249 Y1.4641 Z-0.3677
X12.1226 Y1.4652 Z-0.3647
X12.1208 Y1.4662 Z-0.3613
X12.1195 Y1.4669 Z-0.3577
X12.1187 Y1.4673 Z-0.3539
X12.1184 Y1.4675 Z-0.35
G0 Z0.2
X22.9075 Y1.4233
G1 Z0.08 F30
Z-0.015
X22.9078 Y1.4231 Z-0.0189 F60
X22.9086 Y1.4227 Z-0.0227
X22.9099 Y1.422 Z-0.0264
X22.9117 Y1.421 Z-0.0297
X22.914 Y1.4199 Z-0.0327
X22.9166 Y1.4185 Z-0.0352
X22.9196 Y1.4169 Z-0.0373
X22.9228 Y1.4152 Z-0.0388
X22.9262 Y1.4134 Z-0.0397
X22.9296 Y1.4116 Z-0.04
X22.9517 Y1.3999
G3 X22.9855 Y1.4103 I0.0117 J0.0221
X22.7645 Y1.5272 I-0.1105 J0.0585
X22.9855 Y1.4103 I0.1105 J-0.0584
X22.9751 Y1.4441 I-0.0221 J0.0117
G1 X22.953 Y1.4558
X22.9495 Y1.4576 Z-0.0397
X22.9462 Y1.4594 Z-0.0388
X22.943 Y1.4611 Z-0.0373
X22.94 Y1.4627 Z-0.0352
X22.9374 Y1.4641 Z-0.0327
X22.9351 Y1.4652 Z-0.0297
X22.9333 Y1.4662 Z-0.0263
X22.932 Y1.4669 Z-0.0227
X22.9312 Y1.4673 Z-0.0189
X22.9309 Y1.4675 Z-0.015
X22.9075 Y1.4233
Z-0.055 F30
X22.9078 Y1.4231 Z-0.0589 F60
X22.9086 Y1.4227 Z-0.0627
X22.9099 Y1.422 Z-0.0664
X22.9117 Y1.421 Z-0.0697
X22.914 Y1.4199 Z-0.0727
X22.9166 Y1.4185 Z-0.0752
X22.9196 Y1.4169 Z-0.0773
X22.9228 Y1.4152 Z-0.0788
X22.9262 Y1.4134 Z-0.0797
X22.9296 Y1.4116 Z-0.08
X22.9517 Y1.3999
G3 X22.9855 Y1.4103 I0.0117 J0.0221
X22.7645 Y1.5272 I-0.1105 J0.0585
X22.9855 Y1.4103 I0.1105 J-0.0584
X22.9751 Y1.4441 I-0.0221 J0.0117
G1 X22.953 Y1.4558
X22.9495 Y1.4576 Z-0.0797
X22.9462 Y1.4594 Z-0.0788
X22.943 Y1.4611 Z-0.0773
X22.94 Y1.4627 Z-0.0752
X22.9374 Y1.4641 Z-0.0727
X22.9351 Y1.4652 Z-0.0697
X22.9333 Y1.4662 Z-0.0663
X22.932 Y1.4669 Z-0.0627
X22.9312 Y1.4673 Z-0.0589
X22.9309 Y1.4675 Z-0.055
X22.9075 Y1.4233
Z-0.095 F30
X22.9078 Y1.4231 Z-0.0989 F60
X22.9086 Y1.4227 Z-0.1027
X22.9099 Y1.422 Z-0.1064
X22.9117 Y1.421 Z-0.1097
X22.914 Y1.4199 Z-0.1127
X22.9166 Y1.4185 Z-0.1152
X22.9196 Y1.4169 Z-0.1173
X22.9228 Y1.4152 Z-0.1188
X22.9262 Y1.4134 Z-0.1197
X22.9296 Y1.4116 Z-0.12
X22.9517 Y1.3999
G3 X22.9855 Y1.4103 I0.0117 J0.0221
X22.7645 Y1.5272 I-0.1105 J0.0585
X22.9855 Y1.4103 I0.1105 J-0.0584
X22.9751 Y1.4441 I-0.0221 J0.0117
G1 X22.953 Y1.4558
X22.9495 Y1.4576 Z-0.1197
X22.9462 Y1.4594 Z-0.1188
X22.943 Y1.4611 Z-0.1173
X22.94 Y1.4627 Z-0.1152
X22.9374 Y1.4641 Z-0.1127
X22.9351 Y1.4652 Z-0.1097
X22.9333 Y1.4662 Z-0.1063
X22.932 Y1.4669 Z-0.1027
X22.9312 Y1.4673 Z-0.0989
X22.9309 Y1.4675 Z-0.095
X22.9075 Y1.4233
Z-0.135 F30
X22.9078 Y1.4231 Z-0.1389 F60
X22.9086 Y1.4227 Z-0.1427
X22.9099 Y1.422 Z-0.1464
X22.9117 Y1.421 Z-0.1497
X22.914 Y1.4199 Z-0.1527
X22.9166 Y1.4185 Z-0.1552
X22.9196 Y1.4169 Z-0.1573
X22.9228 Y1.4152 Z-0.1588
X22.9262 Y1.4134 Z-0.1597
X22.9296 Y1.4116 Z-0.16
X22.9517 Y1.3999
G3 X22.9855 Y1.4103 I0.0117 J0.0221
X22.7645 Y1.5272 I-0.1105 J0.0585
X22.9855 Y1.4103 I0.1105 J-0.0584
X22.9751 Y1.4441 I-0.0221 J0.0117
G1 X22.953 Y1.4558
X22.9495 Y1.4576 Z-0.1597
X22.9462 Y1.4594 Z-0.1588
X22.943 Y1.4611 Z-0.1573
X22.94 Y1.4627 Z-0.1552
X22.9374 Y1.4641 Z-0.1527
X22.9351 Y1.4652 Z-0.1497
X22.9333 Y1.4662 Z-0.1463
X22.932 Y1.4669 Z-0.1427
X22.9312 Y1.4673 Z-0.1389
X22.9309 Y1.4675 Z-0.135
X22.9075 Y1.4233
Z-0.175 F30
X22.9078 Y1.4231 Z-0.1789 F60
X22.9086 Y1.4227 Z-0.1827
X22.9099 Y1.422 Z-0.1864
X22.9117 Y1.421 Z-0.1897
X22.914 Y1.4199 Z-0.1927
X22.9166 Y1.4185 Z-0.1952
X22.9196 Y1.4169 Z-0.1973
X22.9228 Y1.4152 Z-0.1988
X22.9262 Y1.4134 Z-0.1997
X22.9296 Y1.4116 Z-0.2
X22.9517 Y1.3999
G3 X22.9855 Y1.4103 I0.0117 J0.0221
X22.7645 Y1.5272 I-0.1105 J0.0585
X22.9855 Y1.4103 I0.1105 J-0.0584
X22.9751 Y1.4441 I-0.0221 J0.0117
G1 X22.953 Y1.4558
X22.9495 Y1.4576 Z-0.1997
X22.9462 Y1.4594 Z-0.1988
X22.943 Y1.4611 Z-0.1973
X22.94 Y1.4627 Z-0.1952
X22.9374 Y1.4641 Z-0.1927
X22.9351 Y1.4652 Z-0.1897
X22.9333 Y1.4662 Z-0.1863
X22.932 Y1.4669 Z-0.1827
X22.9312 Y1.4673 Z-0.1789
X22.9309 Y1.4675 Z-0.175
X22.9075 Y1.4233
Z-0.215 F30
X22.9078 Y1.4231 Z-0.2189 F60
X22.9086 Y1.4227 Z-0.2227
X22.9099 Y1.422 Z-0.2264
X22.9117 Y1.421 Z-0.2297
X22.914 Y1.4199 Z-0.2327
X22.9166 Y1.4185 Z-0.2352
X22.9196 Y1.4169 Z-0.2373
X22.9228 Y1.4152 Z-0.2388
X22.9262 Y1.4134 Z-0.2397
X22.9296 Y1.4116 Z-0.24
X22.9517 Y1.3999
G3 X22.9855 Y1.4103 I0.0117 J0.0221
X22.7645 Y1.5272 I-0.1105 J0.0585
X22.9855 Y1.4103 I0.1105 J-0.0584
X22.9751 Y1.4441 I-0.0221 J0.0117
G1 X22.953 Y1.4558
X22.9495 Y1.4576 Z-0.2397
X22.9462 Y1.4594 Z-0.2388
X22.943 Y1.4611 Z-0.2373
X22.94 Y1.4627 Z-0.2352
X22.9374 Y1.4641 Z-0.2327
X22.9351 Y1.4652 Z-0.2297
X22.9333 Y1.4662 Z-0.2263
X22.932 Y1.4669 Z-0.2227
X22.9312 Y1.4673 Z-0.2189
X22.9309 Y1.4675 Z-0.215
X22.9075 Y1.4233
Z-0.255 F30
X22.9078 Y1.4231 Z-0.2589 F60
X22.9086 Y1.4227 Z-0.2627
X22.9099 Y1.422 Z-0.2664
X22.9117 Y1.421 Z-0.2697
X22.914 Y1.4199 Z-0.2727
X22.9166 Y1.4185 Z-0.2752
X22.9196 Y1.4169 Z-0.2773
X22.9228 Y1.4152 Z-0.2788
X22.9262 Y1.4134 Z-0.2797
X22.9296 Y1.4116 Z-0.28
X22.9517 Y1.3999
G3 X22.9855 Y1.4103 I0.0117 J0.0221
X22.7645 Y1.5272 I-0.1105 J0.0585
X22.9855 Y1.4103 I0.1105 J-0.0584
X22.9751 Y1.4441 I-0.0221 J0.0117
G1 X22.953 Y1.4558
X22.9495 Y1.4576 Z-0.2797
X22.9462 Y1.4594 Z-0.2788
X22.943 Y1.4611 Z-0.2773
X22.94 Y1.4627 Z-0.2752
X22.9374 Y1.4641 Z-0.2727
X22.9351 Y1.4652 Z-0.2697
X22.9333 Y1.4662 Z-0.2663
X22.932 Y1.4669 Z-0.2627
X22.9312 Y1.4673 Z-0.2589
X22.9309 Y1.4675 Z-0.255
X22.9075 Y1.4233
Z-0.295 F30
X22.9078 Y1.4231 Z-0.2989 F60
X22.9086 Y1.4227 Z-0.3027
X22.9099 Y1.422 Z-0.3064
X22.9117 Y1.421 Z-0.3097
X22.914 Y1.4199 Z-0.3127
X22.9166 Y1.4185 Z-0.3152
X22.9196 Y1.4169 Z-0.3173
X22.9228 Y1.4152 Z-0.3188
X22.9262 Y1.4134 Z-0.3197
X22.9296 Y1.4116 Z-0.32
X22.9517 Y1.3999
G3 X22.9855 Y1.4103 I0.0117 J0.0221
X22.7645 Y1.5272 I-0.1105 J0.0585
X22.9855 Y1.4103 I0.1105 J-0.0584
X22.9751 Y1.4441 I-0.0221 J0.0117
G1 X22.953 Y1.4558
X22.9495 Y1.4576 Z-0.3197
X22.9462 Y1.4594 Z-0.3188
X22.943 Y1.4611 Z-0.3173
X22.94 Y1.4627 Z-0.3152
X22.9374 Y1.4641 Z-0.3127
X22.9351 Y1.4652 Z-0.3097
X22.9333 Y1.4662 Z-0.3063
X22.932 Y1.4669 Z-0.3027
X22.9312 Y1.4673 Z-0.2989
X22.9309 Y1.4675 Z-0.295
X22.9075 Y1.4233
Z-0.335 F30
X22.9078 Y1.4231 Z-0.3389 F60
X22.9086 Y1.4227 Z-0.3427
X22.9099 Y1.422 Z-0.3464
X22.9117 Y1.421 Z-0.3497
X22.914 Y1.4199 Z-0.3527
X22.9166 Y1.4185 Z-0.3552
X22.9196 Y1.4169 Z-0.3573
X22.9228 Y1.4152 Z-0.3588
X22.9262 Y1.4134 Z-0.3597
X22.9296 Y1.4116 Z-0.36
X22.9517 Y1.3999
G3 X22.9855 Y1.4103 I0.0117 J0.0221
X22.7645 Y1.5272 I-0.1105 J0.0585
X22.9855 Y1.4103 I0.1105 J-0.0584
X22.9751 Y1.4441 I-0.0221 J0.0117
G1 X22.953 Y1.4558
X22.9495 Y1.4576 Z-0.3597
X22.9462 Y1.4594 Z-0.3588
X22.943 Y1.4611 Z-0.3573
X22.94 Y1.4627 Z-0.3552
X22.9374 Y1.4641 Z-0.3527
X22.9351 Y1.4652 Z-0.3497
X22.9333 Y1.4662 Z-0.3463
X22.932 Y1.4669 Z-0.3427
X22.9312 Y1.4673 Z-0.3389
X22.9309 Y1.4675 Z-0.335
X22.9075 Y1.4233
Z-0.35 F30
X22.9078 Y1.4231 Z-0.3539 F60
X22.9086 Y1.4227 Z-0.3577
X22.9099 Y1.422 Z-0.3614
X22.9117 Y1.421 Z-0.3647
X22.914 Y1.4199 Z-0.3677
X22.9166 Y1.4185 Z-0.3702
X22.9196 Y1.4169 Z-0.3723
X22.9228 Y1.4152 Z-0.3738
X22.9262 Y1.4134 Z-0.3747
X22.9296 Y1.4116 Z-0.375
X22.9517 Y1.3999
G3 X22.9855 Y1.4103 I0.0117 J0.0221
X22.7645 Y1.5272 I-0.1105 J0.0585
X22.9855 Y1.4103 I0.1105 J-0.0584
X22.9751 Y1.4441 I-0.0221 J0.0117
G1 X22.953 Y1.4558
X22.9495 Y1.4576 Z-0.3747
X22.9462 Y1.4594 Z-0.3738
X22.943 Y1.4611 Z-0.3723
X22.94 Y1.4627 Z-0.3702
X22.9374 Y1.4641 Z-0.3677
X22.9351 Y1.4652 Z-0.3647
X22.9333 Y1.4662 Z-0.3613
X22.932 Y1.4669 Z-0.3577
X22.9312 Y1.4673 Z-0.3539
X22.9309 Y1.4675 Z-0.35
G0 Z0.2
X1.275 Y1.4188
G1 Z0.08 F30
Z-0.015
X1.2752 Y1.4186 Z-0.0189 F60
X1.276 Y1.418 Z-0.0227
X1.2772 Y1.4171 Z-0.0263
X1.2788 Y1.4159 Z-0.0297
X1.2809 Y1.4144 Z-0.0327
X1.2832 Y1.4126 Z-0.0352
X1.2859 Y1.4106 Z-0.0373
X1.2888 Y1.4084 Z-0.0388
X1.2919 Y1.4061 Z-0.0397
X1.295 Y1.4038 Z-0.04
X1.315 Y1.3888
G3 X1.35 Y1.3938 I0.015 J0.0199
X1.15 Y1.5438 I-0.1 J0.075
X1.35 Y1.3938 I0.1 J-0.075
X1.3449 Y1.4287 I-0.02 J0.0149
G1 X1.325 Y1.4437
X1.3219 Y1.4461 Z-0.0397
X1.3188 Y1.4484 Z-0.0388
X1.3159 Y1.4506 Z-0.0373
X1.3132 Y1.4526 Z-0.0352
X1.3109 Y1.4544 Z-0.0327
X1.3088 Y1.4559 Z-0.0297
X1.3072 Y1.4571 Z-0.0263
X1.306 Y1.458 Z-0.0227
X1.3052 Y1.4586 Z-0.0189
X1.305 Y1.4587 Z-0.015
X1.275 Y1.4188
Z-0.055 F30
X1.2752 Y1.4186 Z-0.0589 F60
X1.276 Y1.418 Z-0.0627
X1.2772 Y1.4171 Z-0.0663
X1.2788 Y1.4159 Z-0.0697
X1.2809 Y1.4144 Z-0.0727
X1.2832 Y1.4126 Z-0.0752
X1.2859 Y1.4106 Z-0.0773
X1.2888 Y1.4084 Z-0.0788
X1.2919 Y1.4061 Z-0.0797
X1.295 Y1.4038 Z-0.08
X1.315 Y1.3888
G3 X1.35 Y1.3938 I0.015 J0.0199
X1.15 Y1.5438 I-0.1 J0.075
X1.35 Y1.3938 I0.1 J-0.075
X1.3449 Y1.4287 I-0.02 J0.0149
G1 X1.325 Y1.4437
X1.3219 Y1.4461 Z-0.0797
X1.3188 Y1.4484 Z-0.0788
X1.3159 Y1.4506 Z-0.0773
X1.3132 Y1.4526 Z-0.0752
X1.3109 Y1.4544 Z-0.0727
X1.3088 Y1.4559 Z-0.0697
X1.3072 Y1.4571 Z-0.0663
X1.306 Y1.458 Z-0.0627
X1.3052 Y1.4586 Z-0.0589
X1.305 Y1.4587 Z-0.055
X1.275 Y1.4188
Z-0.095 F30
X1.2752 Y1.4186 Z-0.0989 F60
X1.276 Y1.418 Z-0.1027
X1.2772 Y1.4171 Z-0.1063
X1.2788 Y1.4159 Z-0.1097
X1.2809 Y1.4144 Z-0.1127
X1.2832 Y1.4126 Z-0.1152
X1.2859 Y1.4106 Z-0.1173
X1.2888 Y1.4084 Z-0.1188
X1.2919 Y1.4061 Z-0.1197
X1.295 Y1.4038 Z-0.12
X1.315 Y1.3888
G3 X1.35 Y1.3938 I0.015 J0.0199
X1.15 Y1.5438 I-0.1 J0.075
X1.35 Y1.3938 I0.1 J-0.075
X1.3449 Y1.4287 I-0.02 J0.0149
G1 X1.325 Y1.4437
X1.3219 Y1.4461 Z-0.1197
X1.3188 Y1.4484 Z-0.1188
X1.3159 Y1.4506 Z-0.1173
X1.3132 Y1.4526 Z-0.1152
X1.3109 Y1.4544 Z-0.1127
X1.3088 Y1.4559 Z-0.1097
X1.3072 Y1.4571 Z-0.1063
X1.306 Y1.458 Z-0.1027
X1.3052 Y1.4586 Z-0.0989
X1.305 Y1.4587 Z-0.095
X1.275 Y1.4188
Z-0.135 F30
X1.2752 Y1.4186 Z-0.1389 F60
X1.276 Y1.418 Z-0.1427
X1.2772 Y1.4171 Z-0.1463
X1.2788 Y1.4159 Z-0.1497
X1.2809 Y1.4144 Z-0.1527
X1.2832 Y1.4126 Z-0.1552
X1.2859 Y1.4106 Z-0.1573
X1.2888 Y1.4084 Z-0.1588
X1.2919 Y1.4061 Z-0.1597
X1.295 Y1.4038 Z-0.16
X1.315 Y1.3888
G3 X1.35 Y1.3938 I0.015 J0.0199
X1.15 Y1.5438 I-0.1 J0.075
X1.35 Y1.3938 I0.1 J-0.075
X1.3449 Y1.4287 I-0.02 J0.0149
G1 X1.325 Y1.4437
X1.3219 Y1.4461 Z-0.1597
X1.3188 Y1.4484 Z-0.1588
X1.3159 Y1.4506 Z-0.1573
X1.3132 Y1.4526 Z-0.1552
X1.3109 Y1.4544 Z-0.1527
X1.3088 Y1.4559 Z-0.1497
X1.3072 Y1.4571 Z-0.1463
X1.306 Y1.458 Z-0.1427
X1.3052 Y1.4586 Z-0.1389
X1.305 Y1.4587 Z-0.135
X1.275 Y1.4188
Z-0.175 F30
X1.2752 Y1.4186 Z-0.1789 F60
X1.276 Y1.418 Z-0.1827
X1.2772 Y1.4171 Z-0.1863
X1.2788 Y1.4159 Z-0.1897
X1.2809 Y1.4144 Z-0.1927
X1.2832 Y1.4126 Z-0.1952
X1.2859 Y1.4106 Z-0.1973
X1.2888 Y1.4084 Z-0.1988
X1.2919 Y1.4061 Z-0.1997
X1.295 Y1.4038 Z-0.2
X1.315 Y1.3888
G3 X1.35 Y1.3938 I0.015 J0.0199
X1.15 Y1.5438 I-0.1 J0.075
X1.35 Y1.3938 I0.1 J-0.075
X1.3449 Y1.4287 I-0.02 J0.0149
G1 X1.325 Y1.4437
X1.3219 Y1.4461 Z-0.1997
X1.3188 Y1.4484 Z-0.1988
X1.3159 Y1.4506 Z-0.1973
X1.3132 Y1.4526 Z-0.1952
X1.3109 Y1.4544 Z-0.1927
X1.3088 Y1.4559 Z-0.1897
X1.3072 Y1.4571 Z-0.1863
X1.306 Y1.458 Z-0.1827
X1.3052 Y1.4586 Z-0.1789
X1.305 Y1.4587 Z-0.175
X1.275 Y1.4188
Z-0.215 F30
X1.2752 Y1.4186 Z-0.2189 F60
X1.276 Y1.418 Z-0.2227
X1.2772 Y1.4171 Z-0.2263
X1.2788 Y1.4159 Z-0.2297
X1.2809 Y1.4144 Z-0.2327
X1.2832 Y1.4126 Z-0.2352
X1.2859 Y1.4106 Z-0.2373
X1.2888 Y1.4084 Z-0.2388
X1.2919 Y1.4061 Z-0.2397
X1.295 Y1.4038 Z-0.24
X1.315 Y1.3888
G3 X1.35 Y1.3938 I0.015 J0.0199
X1.15 Y1.5438 I-0.1 J0.075
X1.35 Y1.3938 I0.1 J-0.075
X1.3449 Y1.4287 I-0.02 J0.0149
G1 X1.325 Y1.4437
X1.3219 Y1.4461 Z-0.2397
X1.3188 Y1.4484 Z-0.2388
X1.3159 Y1.4506 Z-0.2373
X1.3132 Y1.4526 Z-0.2352
X1.3109 Y1.4544 Z-0.2327
X1.3088 Y1.4559 Z-0.2297
X1.3072 Y1.4571 Z-0.2263
X1.306 Y1.458 Z-0.2227
X1.3052 Y1.4586 Z-0.2189
X1.305 Y1.4587 Z-0.215
X1.275 Y1.4188
Z-0.255 F30
X1.2752 Y1.4186 Z-0.2589 F60
X1.276 Y1.418 Z-0.2627
X1.2772 Y1.4171 Z-0.2663
X1.2788 Y1.4159 Z-0.2697
X1.2809 Y1.4144 Z-0.2727
X1.2832 Y1.4126 Z-0.2752
X1.2859 Y1.4106 Z-0.2773
X1.2888 Y1.4084 Z-0.2788
X1.2919 Y1.4061 Z-0.2797
X1.295 Y1.4038 Z-0.28
X1.315 Y1.3888
G3 X1.35 Y1.3938 I0.015 J0.0199
X1.15 Y1.5438 I-0.1 J0.075
X1.35 Y1.3938 I0.1 J-0.075
X1.3449 Y1.4287 I-0.02 J0.0149
G1 X1.325 Y1.4437
X1.3219 Y1.4461 Z-0.2797
X1.3188 Y1.4484 Z-0.2788
X1.3159 Y1.4506 Z-0.2773
X1.3132 Y1.4526 Z-0.2752
X1.3109 Y1.4544 Z-0.2727
X1.3088 Y1.4559 Z-0.2697
X1.3072 Y1.4571 Z-0.2663
X1.306 Y1.458 Z-0.2627
X1.3052 Y1.4586 Z-0.2589
X1.305 Y1.4587 Z-0.255
X1.275 Y1.4188
Z-0.295 F30
X1.2752 Y1.4186 Z-0.2989 F60
X1.276 Y1.418 Z-0.3027
X1.2772 Y1.4171 Z-0.3063
X1.2788 Y1.4159 Z-0.3097
X1.2809 Y1.4144 Z-0.3127
X1.2832 Y1.4126 Z-0.3152
X1.2859 Y1.4106 Z-0.3173
X1.2888 Y1.4084 Z-0.3188
X1.2919 Y1.4061 Z-0.3197
X1.295 Y1.4038 Z-0.32
X1.315 Y1.3888
G3 X1.35 Y1.3938 I0.015 J0.0199
X1.15 Y1.5438 I-0.1 J0.075
X1.35 Y1.3938 I0.1 J-0.075
X1.3449 Y1.4287 I-0.02 J0.0149
G1 X1.325 Y1.4437
X1.3219 Y1.4461 Z-0.3197
X1.3188 Y1.4484 Z-0.3188
X1.3159 Y1.4506 Z-0.3173
X1.3132 Y1.4526 Z-0.3152
X1.3109 Y1.4544 Z-0.3127
X1.3088 Y1.4559 Z-0.3097
X1.3072 Y1.4571 Z-0.3063
X1.306 Y1.458 Z-0.3027
X1.3052 Y1.4586 Z-0.2989
X1.305 Y1.4587 Z-0.295
X1.275 Y1.4188
Z-0.335 F30
X1.2752 Y1.4186 Z-0.3389 F60
X1.276 Y1.418 Z-0.3427
X1.2772 Y1.4171 Z-0.3463
X1.2788 Y1.4159 Z-0.3497
X1.2809 Y1.4144 Z-0.3527
X1.2832 Y1.4126 Z-0.3552
X1.2859 Y1.4106 Z-0.3573
X1.2888 Y1.4084 Z-0.3588
X1.2919 Y1.4061 Z-0.3597
X1.295 Y1.4038 Z-0.36
X1.315 Y1.3888
G3 X1.35 Y1.3938 I0.015 J0.0199
X1.15 Y1.5438 I-0.1 J0.075
X1.35 Y1.3938 I0.1 J-0.075
X1.3449 Y1.4287 I-0.02 J0.0149
G1 X1.325 Y1.4437
X1.3219 Y1.4461 Z-0.3597
X1.3188 Y1.4484 Z-0.3588
X1.3159 Y1.4506 Z-0.3573
X1.3132 Y1.4526 Z-0.3552
X1.3109 Y1.4544 Z-0.3527
X1.3088 Y1.4559 Z-0.3497
X1.3072 Y1.4571 Z-0.3463
X1.306 Y1.458 Z-0.3427
X1.3052 Y1.4586 Z-0.3389
X1.305 Y1.4587 Z-0.335
X1.275 Y1.4188
Z-0.35 F30
X1.2752 Y1.4186 Z-0.3539 F60
X1.276 Y1.418 Z-0.3577
X1.2772 Y1.4171 Z-0.3613
X1.2788 Y1.4159 Z-0.3647
X1.2809 Y1.4144 Z-0.3677
X1.2832 Y1.4126 Z-0.3702
X1.2859 Y1.4106 Z-0.3723
X1.2888 Y1.4084 Z-0.3738
X1.2919 Y1.4061 Z-0.3747
X1.295 Y1.4038 Z-0.375
X1.315 Y1.3888
G3 X1.35 Y1.3938 I0.015 J0.0199
X1.15 Y1.5438 I-0.1 J0.075
X1.35 Y1.3938 I0.1 J-0.075
X1.3449 Y1.4287 I-0.02 J0.0149
G1 X1.325 Y1.4437
X1.3219 Y1.4461 Z-0.3747
X1.3188 Y1.4484 Z-0.3738
X1.3159 Y1.4506 Z-0.3723
X1.3132 Y1.4526 Z-0.3702
X1.3109 Y1.4544 Z-0.3677
X1.3088 Y1.4559 Z-0.3647
X1.3072 Y1.4571 Z-0.3613
X1.306 Y1.458 Z-0.3577
X1.3052 Y1.4586 Z-0.3539
X1.305 Y1.4587 Z-0.35
G0 Z0.6
G28 G91 Z0
G90
G28 G91 X0 Y0
G90
M30
%
