%
(Spout faceplate laser ahesion stencil)
(T1  D=0.0625 CR=0 - ZMIN=-0.1677 - flat end mill)
(T2  D=0.25 CR=0 - ZMIN=-0.1677 - flat end mill)
G90
G17
G20
G28 G91 Z0
G90

(2D Contour8)
T1 M6
S10000 M3
G54
G0 X1.0092 Y1.7394
Z0.6
Z0.2
G1 Z0.08 F30
Z-0.0338
Y1.7397 Z-0.0357 F15
Y1.7406 Z-0.0374
Y1.7419 Z-0.0388
Y1.7437 Z-0.0397
Y1.7456 Z-0.04
Y1.7519
X1.0089 Y1.7538
X1.008 Y1.7555
X1.0066 Y1.7569
X1.0049 Y1.7578
X1.003 Y1.7581
X0.2094
Y0.171
X2.1666
Y1.7581
X1.003
X1.001 Y1.7578
X0.9993 Y1.7569
X0.9979 Y1.7555
X0.997 Y1.7538
X0.9967 Y1.7519
Y1.7456
Y1.7437 Z-0.0397
Y1.7419 Z-0.0388
Y1.7406 Z-0.0374
Y1.7397 Z-0.0357
Y1.7394 Z-0.0338
X1.0092
Z-0.0738 F30
Y1.7397 Z-0.0757 F15
Y1.7406 Z-0.0774
Y1.7419 Z-0.0788
Y1.7437 Z-0.0797
Y1.7456 Z-0.08
Y1.7519
X1.0089 Y1.7538
X1.008 Y1.7555
X1.0066 Y1.7569
X1.0049 Y1.7578
X1.003 Y1.7581
X0.2094
Y0.171
X2.1666
Y1.7581
X1.003
X1.001 Y1.7578
X0.9993 Y1.7569
X0.9979 Y1.7555
X0.997 Y1.7538
X0.9967 Y1.7519
Y1.7456
Y1.7437 Z-0.0797
Y1.7419 Z-0.0788
Y1.7406 Z-0.0774
Y1.7397 Z-0.0757
Y1.7394 Z-0.0738
X1.0092
Z-0.1138 F30
Y1.7397 Z-0.1157 F15
Y1.7406 Z-0.1174
Y1.7419 Z-0.1188
Y1.7437 Z-0.1197
Y1.7456 Z-0.12
Y1.7519
X1.0089 Y1.7538
X1.008 Y1.7555
X1.0066 Y1.7569
X1.0049 Y1.7578
X1.003 Y1.7581
X0.2094
Y0.171
X2.1666
Y1.7581
X1.003
X1.001 Y1.7578
X0.9993 Y1.7569
X0.9979 Y1.7555
X0.997 Y1.7538
X0.9967 Y1.7519
Y1.7456
Y1.7437 Z-0.1197
Y1.7419 Z-0.1188
Y1.7406 Z-0.1174
Y1.7397 Z-0.1157
Y1.7394 Z-0.1138
X1.0092
Z-0.1376 F30
Y1.7397 Z-0.1395 F15
Y1.7406 Z-0.1413
Y1.7419 Z-0.1427
Y1.7437 Z-0.1435
Y1.7456 Z-0.1439
Y1.7519
X1.0089 Y1.7538
X1.008 Y1.7555
X1.0066 Y1.7569
X1.0049 Y1.7578
X1.003 Y1.7581
X0.2094
Y0.171
X2.1666
Y1.7581
X1.003
X1.001 Y1.7578
X0.9993 Y1.7569
X0.9979 Y1.7555
X0.997 Y1.7538
X0.9967 Y1.7519
Y1.7456
Y1.7437 Z-0.1435
Y1.7419 Z-0.1427
Y1.7406 Z-0.1413
Y1.7397 Z-0.1395
Y1.7394 Z-0.1376
X1.0092
Z-0.1615 F30
Y1.7397 Z-0.1634 F15
Y1.7406 Z-0.1651
Y1.7419 Z-0.1665
Y1.7437 Z-0.1674
Y1.7456 Z-0.1677
Y1.7519
X1.0089 Y1.7538
X1.008 Y1.7555
X1.0066 Y1.7569
X1.0049 Y1.7578
X1.003 Y1.7581
X0.2094
Y0.171
X2.1666
Y1.7581
X1.003
X1.001 Y1.7578
X0.9993 Y1.7569
X0.9979 Y1.7555
X0.997 Y1.7538
X0.9967 Y1.7519
Y1.7456
Y1.7437 Z-0.1674
Y1.7419 Z-0.1665
Y1.7406 Z-0.1651
Y1.7397 Z-0.1634
Y1.7394 Z-0.1615
G0 Z0.6
M5
G28 G91 Z0
G90

(2D Contour1)
T2 M6
S10000 M3
G54
M7
G0 X0.6886 Y0.3398
Z0.6
Z0.2
G1 Z0.08 F30
Z-0.015
G19 G2 Y0.3148 Z-0.04 J-0.025 K0 F60
G1 Y0.2898
G17 G3 X0.7136 Y0.2648 I0.025 J0
G1 X2.0729
Y1.6644
X0.7136
G3 X0.6886 Y1.6394 I0 J-0.025
G1 Y1.6144
G19 G2 Y1.5894 Z-0.015 J0 K0.025
G1 X0.4867
G3 Y1.6144 Z-0.04 J0.025 K0
G1 Y1.6394
G17 G3 X0.4617 Y1.6644 I-0.025 J0
G1 X0.3032
Y0.2648
X0.4617
G3 X0.4867 Y0.2898 I0 J0.025
G1 Y0.3148
G19 G3 Y0.3398 Z-0.015 J0 K0.025
G1 X0.6886
Z-0.055 F30
G2 Y0.3148 Z-0.08 J-0.025 K0 F60
G1 Y0.2898
G17 G3 X0.7136 Y0.2648 I0.025 J0
G1 X2.0729
Y1.6644
X0.7136
G3 X0.6886 Y1.6394 I0 J-0.025
G1 Y1.6144
G19 G2 Y1.5894 Z-0.055 J0 K0.025
G1 X0.4867
G3 Y1.6144 Z-0.08 J0.025 K0
G1 Y1.6394
G17 G3 X0.4617 Y1.6644 I-0.025 J0
G1 X0.3032
Y0.2648
X0.4617
G3 X0.4867 Y0.2898 I0 J0.025
G1 Y0.3148
G19 G3 Y0.3398 Z-0.055 J0 K0.025
G1 X0.6886
Z-0.095 F30
G2 Y0.3148 Z-0.12 J-0.025 K0 F60
G1 Y0.2898
G17 G3 X0.7136 Y0.2648 I0.025 J0
G1 X2.0729
Y1.6644
X0.7136
G3 X0.6886 Y1.6394 I0 J-0.025
G1 Y1.6144
G19 G2 Y1.5894 Z-0.095 J0 K0.025
G1 X0.4867
G3 Y1.6144 Z-0.12 J0.025 K0
G1 Y1.6394
G17 G3 X0.4617 Y1.6644 I-0.025 J0
G1 X0.3032
Y0.2648
X0.4617
G3 X0.4867 Y0.2898 I0 J0.025
G1 Y0.3148
G19 G3 Y0.3398 Z-0.095 J0 K0.025
G1 X0.6886
Z-0.1189 F30
G2 Y0.3148 Z-0.1439 J-0.025 K0 F60
G1 Y0.2898
G17 G3 X0.7136 Y0.2648 I0.025 J0
G1 X2.0729
Y1.6644
X0.7136
G3 X0.6886 Y1.6394 I0 J-0.025
G1 Y1.6144
G19 G2 Y1.5894 Z-0.1189 J0 K0.025
G1 X0.4867
G3 Y1.6144 Z-0.1439 J0.025 K0
G1 Y1.6394
G17 G3 X0.4617 Y1.6644 I-0.025 J0
G1 X0.3032
Y0.2648
X0.4617
G3 X0.4867 Y0.2898 I0 J0.025
G1 Y0.3148
G19 G3 Y0.3398 Z-0.1189 J0 K0.025
G1 X0.6886
Z-0.1427 F30
G2 Y0.3148 Z-0.1677 J-0.025 K0 F60
G1 Y0.2898
G17 G3 X0.7136 Y0.2648 I0.025 J0
G1 X2.0729
Y1.6644
X0.7136
G3 X0.6886 Y1.6394 I0 J-0.025
G1 Y1.6144
G19 G2 Y1.5894 Z-0.1427 J0 K0.025
G1 X0.4867
G3 Y1.6144 Z-0.1677 J0.025 K0
G1 Y1.6394
G17 G3 X0.4617 Y1.6644 I-0.025 J0
G1 X0.3032
Y0.2648
X0.4617
G3 X0.4867 Y0.2898 I0 J0.025
G1 Y0.3148
G19 G3 Y0.3398 Z-0.1427 J0 K0.025
G0 Z0.6
G17
M9

(Face4)
G0 X2.0654 Y0.3795
Z0.6
Z0.2
G1 Z-0.0077 F30
X1.9279 F60
X0.4482
G2 Y0.6111 I0 J0.1158
G1 X1.9279
G3 Y0.8427 I0 J0.1158
G1 X0.4482
G2 Y1.0743 I0 J0.1158
G1 X1.9279
G3 Y1.3059 I0 J0.1158
G1 X0.4482
G2 Y1.5375 I0 J0.1158
G1 X1.9279
G0 Z0.2
X2.0654 Y0.3795
G1 Z-0.0477 F30
X1.9279 F60
X0.4482
G2 Y0.6111 I0 J0.1158
G1 X1.9279
G3 Y0.8427 I0 J0.1158
G1 X0.4482
G2 Y1.0743 I0 J0.1158
G1 X1.9279
G3 Y1.3059 I0 J0.1158
G1 X0.4482
G2 Y1.5375 I0 J0.1158
G1 X1.9279
G0 Z0.2
X2.0654 Y0.3795
G1 Z-0.0877 F30
X1.9279 F60
X0.4482
G2 Y0.6111 I0 J0.1158
G1 X1.9279
G3 Y0.8427 I0 J0.1158
G1 X0.4482
G2 Y1.0743 I0 J0.1158
G1 X1.9279
G3 Y1.3059 I0 J0.1158
G1 X0.4482
G2 Y1.5375 I0 J0.1158
G1 X1.9279
G0 Z0.2
X2.0654 Y0.3795
G1 Z-0.1277 F30
X1.9279 F60
X0.4482
G2 Y0.6111 I0 J0.1158
G1 X1.9279
G3 Y0.8427 I0 J0.1158
G1 X0.4482
G2 Y1.0743 I0 J0.1158
G1 X1.9279
G3 Y1.3059 I0 J0.1158
G1 X0.4482
G2 Y1.5375 I0 J0.1158
G1 X1.9279
G0 Z0.2
X2.0654 Y0.3795
G1 Z-0.1677 F30
X1.9279 F60
X0.4482
G2 Y0.6111 I0 J0.1158
G1 X1.9279
G3 Y0.8427 I0 J0.1158
G1 X0.4482
G2 Y1.0743 I0 J0.1158
G1 X1.9279
G3 Y1.3059 I0 J0.1158
G1 X0.4482
G2 Y1.5375 I0 J0.1158
G1 X1.9279
G0 Z0.6
M5
G28 G91 Z0
G90

(2D Contour4)
T1 M6
S10000 M3
G54
M7
G0 X0.6636 Y1.913
Z0.6
Z0.2
G1 Z0.08 F30
Z-0.0338
X0.6639 Z-0.0357 F15
X0.6648 Z-0.0374
X0.6662 Z-0.0388
X0.6679 Z-0.0397
X0.6699 Z-0.04
X0.6761
X0.6781 Y1.9133
X0.6798 Y1.9142
X0.6812 Y1.9156
X0.6821 Y1.9173
X0.6824 Y1.9193
Y2.014
X0.4929
Y1.6899
X0.6824
Y1.9193
X0.6821 Y1.9212
X0.6812 Y1.9229
X0.6798 Y1.9243
X0.6781 Y1.9252
X0.6761 Y1.9255
X0.6699
X0.6679 Z-0.0397
X0.6662 Z-0.0388
X0.6648 Z-0.0374
X0.6639 Z-0.0357
X0.6636 Z-0.0338
Y1.913
Z-0.0738 F30
X0.6639 Z-0.0757 F15
X0.6648 Z-0.0774
X0.6662 Z-0.0788
X0.6679 Z-0.0797
X0.6699 Z-0.08
X0.6761
X0.6781 Y1.9133
X0.6798 Y1.9142
X0.6812 Y1.9156
X0.6821 Y1.9173
X0.6824 Y1.9193
Y2.014
X0.4929
Y1.6899
X0.6824
Y1.9193
X0.6821 Y1.9212
X0.6812 Y1.9229
X0.6798 Y1.9243
X0.6781 Y1.9252
X0.6761 Y1.9255
X0.6699
X0.6679 Z-0.0797
X0.6662 Z-0.0788
X0.6648 Z-0.0774
X0.6639 Z-0.0757
X0.6636 Z-0.0738
Y1.913
Z-0.1138 F30
X0.6639 Z-0.1157 F15
X0.6648 Z-0.1174
X0.6662 Z-0.1188
X0.6679 Z-0.1197
X0.6699 Z-0.12
X0.6761
X0.6781 Y1.9133
X0.6798 Y1.9142
X0.6812 Y1.9156
X0.6821 Y1.9173
X0.6824 Y1.9193
Y2.014
X0.4929
Y1.6899
X0.6824
Y1.9193
X0.6821 Y1.9212
X0.6812 Y1.9229
X0.6798 Y1.9243
X0.6781 Y1.9252
X0.6761 Y1.9255
X0.6699
X0.6679 Z-0.1197
X0.6662 Z-0.1188
X0.6648 Z-0.1174
X0.6639 Z-0.1157
X0.6636 Z-0.1138
Y1.913
Z-0.1376 F30
X0.6639 Z-0.1395 F15
X0.6648 Z-0.1413
X0.6662 Z-0.1427
X0.6679 Z-0.1435
X0.6699 Z-0.1439
X0.6761
X0.6781 Y1.9133
X0.6798 Y1.9142
X0.6812 Y1.9156
X0.6821 Y1.9173
X0.6824 Y1.9193
Y2.014
X0.4929
Y1.6899
X0.6824
Y1.9193
X0.6821 Y1.9212
X0.6812 Y1.9229
X0.6798 Y1.9243
X0.6781 Y1.9252
X0.6761 Y1.9255
X0.6699
X0.6679 Z-0.1435
X0.6662 Z-0.1427
X0.6648 Z-0.1413
X0.6639 Z-0.1395
X0.6636 Z-0.1376
Y1.913
Z-0.1615 F30
X0.6639 Z-0.1634 F15
X0.6648 Z-0.1651
X0.6662 Z-0.1665
X0.6679 Z-0.1674
X0.6699 Z-0.1677
X0.6761
X0.6781 Y1.9133
X0.6798 Y1.9142
X0.6812 Y1.9156
X0.6821 Y1.9173
X0.6824 Y1.9193
Y2.014
X0.4929
Y1.6899
X0.6824
Y1.9193
X0.6821 Y1.9212
X0.6812 Y1.9229
X0.6798 Y1.9243
X0.6781 Y1.9252
X0.6761 Y1.9255
X0.6699
X0.6679 Z-0.1674
X0.6662 Z-0.1665
X0.6648 Z-0.1651
X0.6639 Z-0.1634
X0.6636 Z-0.1615
G0 Z0.2
Y0.0722
G1 Z0.08 F30
Z-0.0338
X0.6639 Z-0.0357 F15
X0.6648 Z-0.0374
X0.6662 Z-0.0388
X0.6679 Z-0.0397
X0.6699 Z-0.04
X0.6761
X0.6781 Y0.0726
X0.6798 Y0.0734
X0.6812 Y0.0748
X0.6821 Y0.0766
X0.6824 Y0.0785
Y0.2393
X0.4929
Y-0.0162
X0.6824
Y0.0785
X0.6821 Y0.0804
X0.6812 Y0.0822
X0.6798 Y0.0836
X0.6781 Y0.0844
X0.6761 Y0.0847
X0.6699
X0.6679 Z-0.0397
X0.6662 Z-0.0388
X0.6648 Z-0.0374
X0.6639 Z-0.0357
X0.6636 Z-0.0338
Y0.0722
Z-0.0738 F30
X0.6639 Z-0.0757 F15
X0.6648 Z-0.0774
X0.6662 Z-0.0788
X0.6679 Z-0.0797
X0.6699 Z-0.08
X0.6761
X0.6781 Y0.0726
X0.6798 Y0.0734
X0.6812 Y0.0748
X0.6821 Y0.0766
X0.6824 Y0.0785
Y0.2393
X0.4929
Y-0.0162
X0.6824
Y0.0785
X0.6821 Y0.0804
X0.6812 Y0.0822
X0.6798 Y0.0836
X0.6781 Y0.0844
X0.6761 Y0.0847
X0.6699
X0.6679 Z-0.0797
X0.6662 Z-0.0788
X0.6648 Z-0.0774
X0.6639 Z-0.0757
X0.6636 Z-0.0738
Y0.0722
Z-0.1138 F30
X0.6639 Z-0.1157 F15
X0.6648 Z-0.1174
X0.6662 Z-0.1188
X0.6679 Z-0.1197
X0.6699 Z-0.12
X0.6761
X0.6781 Y0.0726
X0.6798 Y0.0734
X0.6812 Y0.0748
X0.6821 Y0.0766
X0.6824 Y0.0785
Y0.2393
X0.4929
Y-0.0162
X0.6824
Y0.0785
X0.6821 Y0.0804
X0.6812 Y0.0822
X0.6798 Y0.0836
X0.6781 Y0.0844
X0.6761 Y0.0847
X0.6699
X0.6679 Z-0.1197
X0.6662 Z-0.1188
X0.6648 Z-0.1174
X0.6639 Z-0.1157
X0.6636 Z-0.1138
Y0.0722
Z-0.1376 F30
X0.6639 Z-0.1395 F15
X0.6648 Z-0.1413
X0.6662 Z-0.1427
X0.6679 Z-0.1435
X0.6699 Z-0.1439
X0.6761
X0.6781 Y0.0726
X0.6798 Y0.0734
X0.6812 Y0.0748
X0.6821 Y0.0766
X0.6824 Y0.0785
Y0.2393
X0.4929
Y-0.0162
X0.6824
Y0.0785
X0.6821 Y0.0804
X0.6812 Y0.0822
X0.6798 Y0.0836
X0.6781 Y0.0844
X0.6761 Y0.0847
X0.6699
X0.6679 Z-0.1435
X0.6662 Z-0.1427
X0.6648 Z-0.1413
X0.6639 Z-0.1395
X0.6636 Z-0.1376
Y0.0722
Z-0.1615 F30
X0.6639 Z-0.1634 F15
X0.6648 Z-0.1651
X0.6662 Z-0.1665
X0.6679 Z-0.1674
X0.6699 Z-0.1677
X0.6761
X0.6781 Y0.0726
X0.6798 Y0.0734
X0.6812 Y0.0748
X0.6821 Y0.0766
X0.6824 Y0.0785
Y0.2393
X0.4929
Y-0.0162
X0.6824
Y0.0785
X0.6821 Y0.0804
X0.6812 Y0.0822
X0.6798 Y0.0836
X0.6781 Y0.0844
X0.6761 Y0.0847
X0.6699
X0.6679 Z-0.1674
X0.6662 Z-0.1665
X0.6648 Z-0.1651
X0.6639 Z-0.1634
X0.6636 Z-0.1615
G0 Z0.6
M9

(Face8)
X0.6885 Y-0.1433
Z0.6
Z0.2
G1 Z-0.0015 F30
X0.6882 Z-0.0034 F15
X0.6873 Z-0.0051
X0.6859 Z-0.0065
X0.6842 Z-0.0074
X0.6822 Z-0.0077
X0.6479
X0.547
G2 Y-0.0887 I0 J0.0273
G1 X0.6479
G3 Y-0.0341 I0 J0.0273
G1 X0.547
G2 Y0.0207 I0 J0.0274
G1 X0.6479 Y0.0206
G3 Y0.0752 I0 J0.0273
G1 X0.547
G2 Y0.1298 I0 J0.0273
G1 X0.6479 Y0.1299
G3 Y0.1845 I0 J0.0273
G1 X0.547
G2 Y0.2391 I0 J0.0273
G1 X0.6479
G3 Y0.2937 I0 J0.0273
G1 X0.547 Y0.2938
G2 Y0.3484 I0 J0.0273
G1 X0.6479
X0.6498 Z-0.0074
X0.6515 Z-0.0065
X0.6529 Z-0.0051
X0.6538 Z-0.0034
X0.6541 Z-0.0015
G0 Z0.2
X0.6885 Y-0.1433
G1 Z-0.0415 F30
X0.6882 Z-0.0434 F15
X0.6873 Z-0.0451
X0.6859 Z-0.0465
X0.6842 Z-0.0474
X0.6822 Z-0.0477
X0.6479
X0.547
G2 Y-0.0887 I0 J0.0273
G1 X0.6479
G3 Y-0.0341 I0 J0.0273
G1 X0.547
G2 Y0.0207 I0 J0.0274
G1 X0.6479 Y0.0206
G3 Y0.0752 I0 J0.0273
G1 X0.547
G2 Y0.1298 I0 J0.0273
G1 X0.6479 Y0.1299
G3 Y0.1845 I0 J0.0273
G1 X0.547
G2 Y0.2391 I0 J0.0273
G1 X0.6479
G3 Y0.2937 I0 J0.0273
G1 X0.547 Y0.2938
G2 Y0.3484 I0 J0.0273
G1 X0.6479
X0.6498 Z-0.0474
X0.6515 Z-0.0465
X0.6529 Z-0.0451
X0.6538 Z-0.0434
X0.6541 Z-0.0415
G0 Z0.2
X0.6885 Y-0.1433
G1 Z-0.0815 F30
X0.6882 Z-0.0834 F15
X0.6873 Z-0.0851
X0.6859 Z-0.0865
X0.6842 Z-0.0874
X0.6822 Z-0.0877
X0.6479
X0.547
G2 Y-0.0887 I0 J0.0273
G1 X0.6479
G3 Y-0.0341 I0 J0.0273
G1 X0.547
G2 Y0.0207 I0 J0.0274
G1 X0.6479 Y0.0206
G3 Y0.0752 I0 J0.0273
G1 X0.547
G2 Y0.1298 I0 J0.0273
G1 X0.6479 Y0.1299
G3 Y0.1845 I0 J0.0273
G1 X0.547
G2 Y0.2391 I0 J0.0273
G1 X0.6479
G3 Y0.2937 I0 J0.0273
G1 X0.547 Y0.2938
G2 Y0.3484 I0 J0.0273
G1 X0.6479
X0.6498 Z-0.0874
X0.6515 Z-0.0865
X0.6529 Z-0.0851
X0.6538 Z-0.0834
X0.6541 Z-0.0815
G0 Z0.2
X0.6885 Y-0.1433
G1 Z-0.1215 F30
X0.6882 Z-0.1234 F15
X0.6873 Z-0.1251
X0.6859 Z-0.1265
X0.6842 Z-0.1274
X0.6822 Z-0.1277
X0.6479
X0.547
G2 Y-0.0887 I0 J0.0273
G1 X0.6479
G3 Y-0.0341 I0 J0.0273
G1 X0.547
G2 Y0.0207 I0 J0.0274
G1 X0.6479 Y0.0206
G3 Y0.0752 I0 J0.0273
G1 X0.547
G2 Y0.1298 I0 J0.0273
G1 X0.6479 Y0.1299
G3 Y0.1845 I0 J0.0273
G1 X0.547
G2 Y0.2391 I0 J0.0273
G1 X0.6479
G3 Y0.2937 I0 J0.0273
G1 X0.547 Y0.2938
G2 Y0.3484 I0 J0.0273
G1 X0.6479
X0.6498 Z-0.1274
X0.6515 Z-0.1265
X0.6529 Z-0.1251
X0.6538 Z-0.1234
X0.6541 Z-0.1215
G0 Z0.2
X0.6885 Y-0.1433
G1 Z-0.1615 F30
X0.6882 Z-0.1634 F15
X0.6873 Z-0.1651
X0.6859 Z-0.1665
X0.6842 Z-0.1674
X0.6822 Z-0.1677
X0.6479
X0.547
G2 Y-0.0887 I0 J0.0273
G1 X0.6479
G3 Y-0.0341 I0 J0.0273
G1 X0.547
G2 Y0.0207 I0 J0.0274
G1 X0.6479 Y0.0206
G3 Y0.0752 I0 J0.0273
G1 X0.547
G2 Y0.1298 I0 J0.0273
G1 X0.6479 Y0.1299
G3 Y0.1845 I0 J0.0273
G1 X0.547
G2 Y0.2391 I0 J0.0273
G1 X0.6479
G3 Y0.2937 I0 J0.0273
G1 X0.547 Y0.2938
G2 Y0.3484 I0 J0.0273
G1 X0.6479
X0.6498 Z-0.1674
X0.6515 Z-0.1665
X0.6529 Z-0.1651
X0.6538 Z-0.1634
X0.6541 Z-0.1615
G0 Z0.2
X0.6885 Y1.5744
G1 Z-0.0015 F30
X0.6882 Z-0.0034 F15
X0.6873 Z-0.0051
X0.6859 Z-0.0065
X0.6842 Z-0.0074
X0.6822 Z-0.0077
X0.6479
X0.547
G2 Y1.6292 I0 J0.0274
G1 X0.6479 Y1.6291
G3 Y1.6837 I0 J0.0273
G1 X0.547
G2 Y1.7383 I0 J0.0273
G1 X0.6479
G3 Y1.7931 I0 J0.0274
G1 X0.547 Y1.793
G2 Y1.8476 I0 J0.0273
G1 X0.6479
G3 Y1.9022 I0 J0.0273
G1 X0.547
G2 Y1.957 I0 J0.0274
G1 X0.6479 Y1.9569
G3 Y2.0115 I0 J0.0273
G1 X0.547
G2 Y2.0661 I0 J0.0273
G1 X0.6479 Y2.0662
X0.6498 Z-0.0074
X0.6515 Z-0.0065
X0.6529 Z-0.0051
X0.6538 Z-0.0034
X0.6541 Z-0.0015
G0 Z0.2
X0.6885 Y1.5744
G1 Z-0.0415 F30
X0.6882 Z-0.0434 F15
X0.6873 Z-0.0451
X0.6859 Z-0.0465
X0.6842 Z-0.0474
X0.6822 Z-0.0477
X0.6479
X0.547
G2 Y1.6292 I0 J0.0274
G1 X0.6479 Y1.6291
G3 Y1.6837 I0 J0.0273
G1 X0.547
G2 Y1.7383 I0 J0.0273
G1 X0.6479
G3 Y1.7931 I0 J0.0274
G1 X0.547 Y1.793
G2 Y1.8476 I0 J0.0273
G1 X0.6479
G3 Y1.9022 I0 J0.0273
G1 X0.547
G2 Y1.957 I0 J0.0274
G1 X0.6479 Y1.9569
G3 Y2.0115 I0 J0.0273
G1 X0.547
G2 Y2.0661 I0 J0.0273
G1 X0.6479 Y2.0662
X0.6498 Z-0.0474
X0.6515 Z-0.0465
X0.6529 Z-0.0451
X0.6538 Z-0.0434
X0.6541 Z-0.0415
G0 Z0.2
X0.6885 Y1.5744
G1 Z-0.0815 F30
X0.6882 Z-0.0834 F15
X0.6873 Z-0.0851
X0.6859 Z-0.0865
X0.6842 Z-0.0874
X0.6822 Z-0.0877
X0.6479
X0.547
G2 Y1.6292 I0 J0.0274
G1 X0.6479 Y1.6291
G3 Y1.6837 I0 J0.0273
G1 X0.547
G2 Y1.7383 I0 J0.0273
G1 X0.6479
G3 Y1.7931 I0 J0.0274
G1 X0.547 Y1.793
G2 Y1.8476 I0 J0.0273
G1 X0.6479
G3 Y1.9022 I0 J0.0273
G1 X0.547
G2 Y1.957 I0 J0.0274
G1 X0.6479 Y1.9569
G3 Y2.0115 I0 J0.0273
G1 X0.547
G2 Y2.0661 I0 J0.0273
G1 X0.6479 Y2.0662
X0.6498 Z-0.0874
X0.6515 Z-0.0865
X0.6529 Z-0.0851
X0.6538 Z-0.0834
X0.6541 Z-0.0815
G0 Z0.2
X0.6885 Y1.5744
G1 Z-0.1215 F30
X0.6882 Z-0.1234 F15
X0.6873 Z-0.1251
X0.6859 Z-0.1265
X0.6842 Z-0.1274
X0.6822 Z-0.1277
X0.6479
X0.547
G2 Y1.6292 I0 J0.0274
G1 X0.6479 Y1.6291
G3 Y1.6837 I0 J0.0273
G1 X0.547
G2 Y1.7383 I0 J0.0273
G1 X0.6479
G3 Y1.7931 I0 J0.0274
G1 X0.547 Y1.793
G2 Y1.8476 I0 J0.0273
G1 X0.6479
G3 Y1.9022 I0 J0.0273
G1 X0.547
G2 Y1.957 I0 J0.0274
G1 X0.6479 Y1.9569
G3 Y2.0115 I0 J0.0273
G1 X0.547
G2 Y2.0661 I0 J0.0273
G1 X0.6479 Y2.0662
X0.6498 Z-0.1274
X0.6515 Z-0.1265
X0.6529 Z-0.1251
X0.6538 Z-0.1234
X0.6541 Z-0.1215
G0 Z0.2
X0.6885 Y1.5744
G1 Z-0.1615 F30
X0.6882 Z-0.1634 F15
X0.6873 Z-0.1651
X0.6859 Z-0.1665
X0.6842 Z-0.1674
X0.6822 Z-0.1677
X0.6479
X0.547
G2 Y1.6292 I0 J0.0274
G1 X0.6479 Y1.6291
G3 Y1.6837 I0 J0.0273
G1 X0.547
G2 Y1.7383 I0 J0.0273
G1 X0.6479
G3 Y1.7931 I0 J0.0274
G1 X0.547 Y1.793
G2 Y1.8476 I0 J0.0273
G1 X0.6479
G3 Y1.9022 I0 J0.0273
G1 X0.547
G2 Y1.957 I0 J0.0274
G1 X0.6479 Y1.9569
G3 Y2.0115 I0 J0.0273
G1 X0.547
G2 Y2.0661 I0 J0.0273
G1 X0.6479 Y2.0662
X0.6498 Z-0.1674
X0.6515 Z-0.1665
X0.6529 Z-0.1651
X0.6538 Z-0.1634
X0.6541 Z-0.1615
G0 Z0.6
G28 G91 Z0
G90
G28 G91 X0 Y0
G90
M30
%
