%
(Spout Faceplate )
(T3  D=0.125 CR=0 - ZMIN=-0.034 - flat end mill)
G90
G17
G20
G28 G91 Z0
G90

(2D Contour5)
T3 M6
S10000 M3
G54
G0 X0.2048 Y1.7941
Z0.6
Z0.2
G1 Z0.08 F30
Z-0.005
G3 X0.1098 I-0.0475 J0
X0.2048 I0.0475 J0
G1 Z-0.01
G3 X0.1098 I-0.0475 J0
X0.2048 I0.0475 J0
G1 Z-0.015
G3 X0.1098 I-0.0475 J0
X0.2048 I0.0475 J0
G1 Z-0.02
G3 X0.1098 I-0.0475 J0
X0.2048 I0.0475 J0
G1 Z-0.025
G3 X0.1098 I-0.0475 J0
X0.2048 I0.0475 J0
G1 Z-0.03
G3 X0.1098 I-0.0475 J0
X0.2048 I0.0475 J0
G1 Z-0.034
G3 X0.1098 I-0.0475 J0
X0.2048 I0.0475 J0
G0 Z0.2
X1.5197 Y1.7958
G1 Z0.08 F30
Z-0.005
G3 X1.4247 I-0.0475 J0
X1.5197 I0.0475 J0
G1 Z-0.01
G3 X1.4247 I-0.0475 J0
X1.5197 I0.0475 J0
G1 Z-0.015
G3 X1.4247 I-0.0475 J0
X1.5197 I0.0475 J0
G1 Z-0.02
G3 X1.4247 I-0.0475 J0
X1.5197 I0.0475 J0
G1 Z-0.025
G3 X1.4247 I-0.0475 J0
X1.5197 I0.0475 J0
G1 Z-0.03
G3 X1.4247 I-0.0475 J0
X1.5197 I0.0475 J0
G1 Z-0.034
G3 X1.4247 I-0.0475 J0
X1.5197 I0.0475 J0
G0 Z0.2
X1.5171 Y0.1718
G1 Z0.08 F30
Z-0.005
G3 X1.4259 Y0.145 I-0.0456 J-0.0134
X1.5171 Y0.1718 I0.0456 J0.0134
G1 Z-0.01
G3 X1.4259 Y0.145 I-0.0456 J-0.0134
X1.5171 Y0.1718 I0.0456 J0.0134
G1 Z-0.015
G3 X1.4259 Y0.145 I-0.0456 J-0.0134
X1.5171 Y0.1718 I0.0456 J0.0134
G1 Z-0.02
G3 X1.4259 Y0.145 I-0.0456 J-0.0134
X1.5171 Y0.1718 I0.0456 J0.0134
G1 Z-0.025
G3 X1.4259 Y0.145 I-0.0456 J-0.0134
X1.5171 Y0.1718 I0.0456 J0.0134
G1 Z-0.03
G3 X1.4259 Y0.145 I-0.0456 J-0.0134
X1.5171 Y0.1718 I0.0456 J0.0134
G1 Z-0.034
G3 X1.4259 Y0.145 I-0.0456 J-0.0134
X1.5171 Y0.1718 I0.0456 J0.0134
G0 Z0.2
X0.2059 Y0.1584
G1 Z0.08 F30
Z-0.005
G3 X0.1109 I-0.0475 J0
X0.2059 I0.0475 J0
G1 Z-0.01
G3 X0.1109 I-0.0475 J0
X0.2059 I0.0475 J0
G1 Z-0.015
G3 X0.1109 I-0.0475 J0
X0.2059 I0.0475 J0
G1 Z-0.02
G3 X0.1109 I-0.0475 J0
X0.2059 I0.0475 J0
G1 Z-0.025
G3 X0.1109 I-0.0475 J0
X0.2059 I0.0475 J0
G1 Z-0.03
G3 X0.1109 I-0.0475 J0
X0.2059 I0.0475 J0
G1 Z-0.034
G3 X0.1109 I-0.0475 J0
X0.2059 I0.0475 J0
G0 Z0.6

(2D Contour4)
Z1
X0.8462 Y0.625
G1 Z-0.005 F30
Y1.375
G3 X0.7838 I-0.0312 J0
G1 X0.7837 Y0.625
G3 X0.8463 I0.0313 J0
G1 X0.8462 Z-0.01
Y1.375
G3 X0.7838 I-0.0312 J0
G1 X0.7837 Y0.625
G3 X0.8463 I0.0313 J0
G1 X0.8462 Z-0.015
Y1.375
G3 X0.7838 I-0.0312 J0
G1 X0.7837 Y0.625
G3 X0.8463 I0.0313 J0
G1 X0.8462 Z-0.02
Y1.375
G3 X0.7838 I-0.0312 J0
G1 X0.7837 Y0.625
G3 X0.8463 I0.0313 J0
G1 X0.8462 Z-0.025
Y1.375
G3 X0.7838 I-0.0312 J0
G1 X0.7837 Y0.625
G3 X0.8463 I0.0313 J0
G1 X0.8462 Z-0.03
Y1.375
G3 X0.7838 I-0.0312 J0
G1 X0.7837 Y0.625
G3 X0.8463 I0.0313 J0
G1 X0.8462 Z-0.034
Y1.375
G3 X0.7838 I-0.0312 J0
G1 X0.7837 Y0.625
G3 X0.8463 I0.0313 J0
G0 X0.8462 Z1

(2D Contour3)
X0.815 Y-0.0625
G1 Z1 F30
Z-0.005
X0
G2 X-0.0625 Y0 I0 J0.0625
G1 Y2
G2 X0 Y2.0625 I0.0625 J0
G1 X1.6299
G2 X1.6924 Y2 I0 J-0.0625
G1 Y0
G2 X1.6299 Y-0.0625 I-0.0625 J0
G1 X0.815
Z-0.01
X0
G2 X-0.0625 Y0 I0 J0.0625
G1 Y2
G2 X0 Y2.0625 I0.0625 J0
G1 X1.6299
G2 X1.6924 Y2 I0 J-0.0625
G1 Y0
G2 X1.6299 Y-0.0625 I-0.0625 J0
G1 X0.815
Z-0.014
X0
G2 X-0.0625 Y0 I0 J0.0625
G1 Y2
G2 X0 Y2.0625 I0.0625 J0
G1 X1.6299
G2 X1.6924 Y2 I0 J-0.0625
G1 Y0
G2 X1.6299 Y-0.0625 I-0.0625 J0
G1 X0.815
G0 Z1
G28 G91 Z0
G90
G28 G91 X0 Y0
G90
M30
%
