%
(Spout Faceplate )
(T4  D=0.0625 CR=0 - ZMIN=-0.024 - flat end mill)
G90
G17
G20
G28 G91 Z0
G90

(2D Contour3)
T4 M6
S10000 M3
G54
M7
G0 X0.815 Y-0.0312
Z1
G1 Z-0.005 F30
X0 F15
G2 X-0.0312 Y0 I0 J0.0312
G1 Y2
G2 X0 Y2.0312 I0.0312 J0
G1 X1.6299 Y2.0313
G2 X1.6612 Y2 I0 J-0.0313
G1 Y0
G2 X1.6299 Y-0.0313 I-0.0313 J0
G1 X0.815 Y-0.0312
Z-0.01 F30
X0 F15
G2 X-0.0312 Y0 I0 J0.0312
G1 Y2
G2 X0 Y2.0312 I0.0312 J0
G1 X1.6299 Y2.0313
G2 X1.6612 Y2 I0 J-0.0313
G1 Y0
G2 X1.6299 Y-0.0313 I-0.0313 J0
G1 X0.815 Y-0.0312
Z-0.015 F30
X0 F15
G2 X-0.0312 Y0 I0 J0.0312
G1 Y2
G2 X0 Y2.0312 I0.0312 J0
G1 X1.6299 Y2.0313
G2 X1.6612 Y2 I0 J-0.0313
G1 Y0
G2 X1.6299 Y-0.0313 I-0.0313 J0
G1 X0.815 Y-0.0312
Z-0.02 F30
X0 F15
G2 X-0.0312 Y0 I0 J0.0312
G1 Y2
G2 X0 Y2.0312 I0.0312 J0
G1 X1.6299 Y2.0313
G2 X1.6612 Y2 I0 J-0.0313
G1 Y0
G2 X1.6299 Y-0.0313 I-0.0313 J0
G1 X0.815 Y-0.0312
Z-0.024 F30
X0 F15
G2 X-0.0312 Y0 I0 J0.0312
G1 Y2
G2 X0 Y2.0312 I0.0312 J0
G1 X1.6299 Y2.0313
G2 X1.6612 Y2 I0 J-0.0313
G1 Y0
G2 X1.6299 Y-0.0313 I-0.0313 J0
G1 X0.815 Y-0.0312
G0 Z1
M9
G28 G91 Z0
G90
G28 G91 X0 Y0
G90
M30
%
