%
(Spout Faceplate )
(T4  D=0.0625 CR=0 - ZMIN=-0.024 - flat end mill)
G90
G17
G20
G28 G91 Z0
G90

(2D Contour5)
T4 M6
S10000 M3
G54
M7
G0 X0.236 Y1.7941
Z0.6
Z0.2
G1 Z0.08 F30
Z-0.005
G3 X0.0786 I-0.0787 J0 F15
X0.236 I0.0787 J0
G1 Z-0.01 F30
G3 X0.0786 I-0.0787 J0 F15
X0.236 I0.0787 J0
G1 Z-0.015 F30
G3 X0.0786 I-0.0787 J0 F15
X0.236 I0.0787 J0
G1 Z-0.02 F30
G3 X0.0786 I-0.0787 J0 F15
X0.236 I0.0787 J0
G1 Z-0.024 F30
G3 X0.0786 I-0.0787 J0 F15
X0.236 I0.0787 J0
G0 Z0.2
X1.551 Y1.7958
G1 Z0.08 F30
Z-0.005
G3 X1.3934 I-0.0788 J0 F15
X1.551 I0.0788 J0
G1 Z-0.01 F30
G3 X1.3934 I-0.0788 J0 F15
X1.551 I0.0788 J0
G1 Z-0.015 F30
G3 X1.3934 I-0.0788 J0 F15
X1.551 I0.0788 J0
G1 Z-0.02 F30
G3 X1.3934 I-0.0788 J0 F15
X1.551 I0.0788 J0
G1 Z-0.024 F30
G3 X1.3934 I-0.0788 J0 F15
X1.551 I0.0788 J0
G0 Z0.2
X1.5496 Y0.1683
G1 Z0.08 F30
Z-0.005
G3 X1.3934 Y0.1486 I-0.0781 J-0.0099 F15
X1.5496 Y0.1683 I0.0781 J0.0098
G1 Z-0.01 F30
G3 X1.3934 Y0.1486 I-0.0781 J-0.0099 F15
X1.5496 Y0.1683 I0.0781 J0.0098
G1 Z-0.015 F30
G3 X1.3934 Y0.1486 I-0.0781 J-0.0099 F15
X1.5496 Y0.1683 I0.0781 J0.0098
G1 Z-0.02 F30
G3 X1.3934 Y0.1486 I-0.0781 J-0.0099 F15
X1.5496 Y0.1683 I0.0781 J0.0098
G1 Z-0.024 F30
G3 X1.3934 Y0.1486 I-0.0781 J-0.0099 F15
X1.5496 Y0.1683 I0.0781 J0.0098
G0 Z0.2
X0.2372 Y0.1584
G1 Z0.08 F30
Z-0.005
G3 X0.0796 I-0.0788 J0 F15
X0.2372 I0.0788 J0
G1 Z-0.01 F30
G3 X0.0796 I-0.0788 J0 F15
X0.2372 I0.0788 J0
G1 Z-0.015 F30
G3 X0.0796 I-0.0788 J0 F15
X0.2372 I0.0788 J0
G1 Z-0.02 F30
G3 X0.0796 I-0.0788 J0 F15
X0.2372 I0.0788 J0
G1 Z-0.024 F30
G3 X0.0796 I-0.0788 J0 F15
X0.2372 I0.0788 J0
G0 Z0.6

(2D Contour4)
Z1
X0.8775 Y0.625
G1 Z-0.005 F30
Y1.375 F15
G3 X0.7525 I-0.0625 J0
G1 Y0.625
G3 X0.8775 I0.0625 J0
G1 Z-0.01 F30
Y1.375 F15
G3 X0.7525 I-0.0625 J0
G1 Y0.625
G3 X0.8775 I0.0625 J0
G1 Z-0.015 F30
Y1.375 F15
G3 X0.7525 I-0.0625 J0
G1 Y0.625
G3 X0.8775 I0.0625 J0
G1 Z-0.02 F30
Y1.375 F15
G3 X0.7525 I-0.0625 J0
G1 Y0.625
G3 X0.8775 I0.0625 J0
G1 Z-0.024 F30
Y1.375 F15
G3 X0.7525 I-0.0625 J0
G1 Y0.625
G3 X0.8775 I0.0625 J0
G0 Z1

(2D Contour3)
X0.815 Y-0.0312
G1 Z1 F30
Z-0.005
X0 F15
G2 X-0.0312 Y0 I0 J0.0312
G1 Y2
G2 X0 Y2.0312 I0.0312 J0
G1 X1.6299 Y2.0313
G2 X1.6612 Y2 I0 J-0.0313
G1 Y0
G2 X1.6299 Y-0.0313 I-0.0313 J0
G1 X0.815 Y-0.0312
Z-0.01 F30
X0 F15
G2 X-0.0312 Y0 I0 J0.0312
G1 Y2
G2 X0 Y2.0312 I0.0312 J0
G1 X1.6299 Y2.0313
G2 X1.6612 Y2 I0 J-0.0313
G1 Y0
G2 X1.6299 Y-0.0313 I-0.0313 J0
G1 X0.815 Y-0.0312
Z-0.015 F30
X0 F15
G2 X-0.0312 Y0 I0 J0.0312
G1 Y2
G2 X0 Y2.0312 I0.0312 J0
G1 X1.6299 Y2.0313
G2 X1.6612 Y2 I0 J-0.0313
G1 Y0
G2 X1.6299 Y-0.0313 I-0.0313 J0
G1 X0.815 Y-0.0312
Z-0.02 F30
X0 F15
G2 X-0.0312 Y0 I0 J0.0312
G1 Y2
G2 X0 Y2.0312 I0.0312 J0
G1 X1.6299 Y2.0313
G2 X1.6612 Y2 I0 J-0.0313
G1 Y0
G2 X1.6299 Y-0.0313 I-0.0313 J0
G1 X0.815 Y-0.0312
Z-0.024 F30
X0 F15
G2 X-0.0312 Y0 I0 J0.0312
G1 Y2
G2 X0 Y2.0312 I0.0312 J0
G1 X1.6299 Y2.0313
G2 X1.6612 Y2 I0 J-0.0313
G1 Y0
G2 X1.6299 Y-0.0313 I-0.0313 J0
G1 X0.815 Y-0.0312
G0 Z1
M9
G28 G91 Z0
G90
G28 G91 X0 Y0
G90
M30
%
