%
(Spout faceplate laser ahesion stencil)
(T1  D=0.0625 CR=0 - ZMIN=-0.1677 - flat end mill)
(T2  D=0.25 CR=0 - ZMIN=-0.1677 - flat end mill)
G90
G17
G20
G28 G91 Z0
G90

(2D Contour8)
T1 M6
S10000 M3
G54
G0 X4.5656 Y0.1701
Z0.6
Z0.2
G1 Z0.08 F30
Z-0.0338
Y0.1698 Z-0.0357 F15
Y0.1689 Z-0.0374
Y0.1675 Z-0.0388
Y0.1658 Z-0.0397
Y0.1638 Z-0.04
Y0.1576
X4.5659 Y0.1556
X4.5668 Y0.1539
X4.5682 Y0.1525
X4.5699 Y0.1516
X4.5718 Y0.1513
X5.7551
Y1.7778
X3.7586
Y0.1513
X4.5718
X4.5738 Y0.1516
X4.5755 Y0.1525
X4.5769 Y0.1539
X4.5778 Y0.1556
X4.5781 Y0.1576
Y0.1638
Y0.1658 Z-0.0397
Y0.1675 Z-0.0388
Y0.1689 Z-0.0374
Y0.1698 Z-0.0357
Y0.1701 Z-0.0338
X4.5656
Z-0.0738 F30
Y0.1698 Z-0.0757 F15
Y0.1689 Z-0.0774
Y0.1675 Z-0.0788
Y0.1658 Z-0.0797
Y0.1638 Z-0.08
Y0.1576
X4.5659 Y0.1556
X4.5668 Y0.1539
X4.5682 Y0.1525
X4.5699 Y0.1516
X4.5718 Y0.1513
X5.7551
Y1.7778
X3.7586
Y0.1513
X4.5718
X4.5738 Y0.1516
X4.5755 Y0.1525
X4.5769 Y0.1539
X4.5778 Y0.1556
X4.5781 Y0.1576
Y0.1638
Y0.1658 Z-0.0797
Y0.1675 Z-0.0788
Y0.1689 Z-0.0774
Y0.1698 Z-0.0757
Y0.1701 Z-0.0738
X4.5656
Z-0.1138 F30
Y0.1698 Z-0.1157 F15
Y0.1689 Z-0.1174
Y0.1675 Z-0.1188
Y0.1658 Z-0.1197
Y0.1638 Z-0.12
Y0.1576
X4.5659 Y0.1556
X4.5668 Y0.1539
X4.5682 Y0.1525
X4.5699 Y0.1516
X4.5718 Y0.1513
X5.7551
Y1.7778
X3.7586
Y0.1513
X4.5718
X4.5738 Y0.1516
X4.5755 Y0.1525
X4.5769 Y0.1539
X4.5778 Y0.1556
X4.5781 Y0.1576
Y0.1638
Y0.1658 Z-0.1197
Y0.1675 Z-0.1188
Y0.1689 Z-0.1174
Y0.1698 Z-0.1157
Y0.1701 Z-0.1138
X4.5656
Z-0.1376 F30
Y0.1698 Z-0.1395 F15
Y0.1689 Z-0.1413
Y0.1675 Z-0.1427
Y0.1658 Z-0.1435
Y0.1638 Z-0.1439
Y0.1576
X4.5659 Y0.1556
X4.5668 Y0.1539
X4.5682 Y0.1525
X4.5699 Y0.1516
X4.5718 Y0.1513
X5.7551
Y1.7778
X3.7586
Y0.1513
X4.5718
X4.5738 Y0.1516
X4.5755 Y0.1525
X4.5769 Y0.1539
X4.5778 Y0.1556
X4.5781 Y0.1576
Y0.1638
Y0.1658 Z-0.1435
Y0.1675 Z-0.1427
Y0.1689 Z-0.1413
Y0.1698 Z-0.1395
Y0.1701 Z-0.1376
X4.5656
Z-0.1615 F30
Y0.1698 Z-0.1634 F15
Y0.1689 Z-0.1651
Y0.1675 Z-0.1665
Y0.1658 Z-0.1674
Y0.1638 Z-0.1677
Y0.1576
X4.5659 Y0.1556
X4.5668 Y0.1539
X4.5682 Y0.1525
X4.5699 Y0.1516
X4.5718 Y0.1513
X5.7551
Y1.7778
X3.7586
Y0.1513
X4.5718
X4.5738 Y0.1516
X4.5755 Y0.1525
X4.5769 Y0.1539
X4.5778 Y0.1556
X4.5781 Y0.1576
Y0.1638
Y0.1658 Z-0.1674
Y0.1675 Z-0.1665
Y0.1689 Z-0.1651
Y0.1698 Z-0.1634
Y0.1701 Z-0.1615
G0 Z0.6
M5
G28 G91 Z0
G90

(2D Contour1)
T2 M6
S10000 M3
G54
M7
G0 X4.8432 Y1.6091
Z0.6
Z0.2
G1 Z0.08 F30
Z-0.015
G19 G3 Y1.6341 Z-0.04 J0.025 K0 F60
G1 Y1.6591
G17 G3 X4.8182 Y1.6841 I-0.025 J0
G1 X3.8523
Y0.2451
X4.8182
G3 X4.8432 Y0.2701 I0 J0.025
G1 Y0.2951
G19 G3 Y0.3201 Z-0.015 J0 K0.025
G1 X4.9192
G2 Y0.2951 Z-0.04 J-0.025 K0
G1 Y0.2701
G17 G3 X4.9442 Y0.2451 I0.025 J0
G1 X5.6614
Y1.6841
X4.9442
G3 X4.9192 Y1.6591 I0 J-0.025
G1 Y1.6341
G19 G2 Y1.6091 Z-0.015 J0 K0.025
G1 X4.8432
Z-0.055 F30
G3 Y1.6341 Z-0.08 J0.025 K0 F60
G1 Y1.6591
G17 G3 X4.8182 Y1.6841 I-0.025 J0
G1 X3.8523
Y0.2451
X4.8182
G3 X4.8432 Y0.2701 I0 J0.025
G1 Y0.2951
G19 G3 Y0.3201 Z-0.055 J0 K0.025
G1 X4.9192
G2 Y0.2951 Z-0.08 J-0.025 K0
G1 Y0.2701
G17 G3 X4.9442 Y0.2451 I0.025 J0
G1 X5.6614
Y1.6841
X4.9442
G3 X4.9192 Y1.6591 I0 J-0.025
G1 Y1.6341
G19 G2 Y1.6091 Z-0.055 J0 K0.025
G1 X4.8432
Z-0.095 F30
G3 Y1.6341 Z-0.12 J0.025 K0 F60
G1 Y1.6591
G17 G3 X4.8182 Y1.6841 I-0.025 J0
G1 X3.8523
Y0.2451
X4.8182
G3 X4.8432 Y0.2701 I0 J0.025
G1 Y0.2951
G19 G3 Y0.3201 Z-0.095 J0 K0.025
G1 X4.9192
G2 Y0.2951 Z-0.12 J-0.025 K0
G1 Y0.2701
G17 G3 X4.9442 Y0.2451 I0.025 J0
G1 X5.6614
Y1.6841
X4.9442
G3 X4.9192 Y1.6591 I0 J-0.025
G1 Y1.6341
G19 G2 Y1.6091 Z-0.095 J0 K0.025
G1 X4.8432
Z-0.1189 F30
G3 Y1.6341 Z-0.1439 J0.025 K0 F60
G1 Y1.6591
G17 G3 X4.8182 Y1.6841 I-0.025 J0
G1 X3.8523
Y0.2451
X4.8182
G3 X4.8432 Y0.2701 I0 J0.025
G1 Y0.2951
G19 G3 Y0.3201 Z-0.1189 J0 K0.025
G1 X4.9192
G2 Y0.2951 Z-0.1439 J-0.025 K0
G1 Y0.2701
G17 G3 X4.9442 Y0.2451 I0.025 J0
G1 X5.6614
Y1.6841
X4.9442
G3 X4.9192 Y1.6591 I0 J-0.025
G1 Y1.6341
G19 G2 Y1.6091 Z-0.1189 J0 K0.025
G1 X4.8432
Z-0.1427 F30
G3 Y1.6341 Z-0.1677 J0.025 K0 F60
G1 Y1.6591
G17 G3 X4.8182 Y1.6841 I-0.025 J0
G1 X3.8523
Y0.2451
X4.8182
G3 X4.8432 Y0.2701 I0 J0.025
G1 Y0.2951
G19 G3 Y0.3201 Z-0.1427 J0 K0.025
G1 X4.9192
G2 Y0.2951 Z-0.1677 J-0.025 K0
G1 Y0.2701
G17 G3 X4.9442 Y0.2451 I0.025 J0
G1 X5.6614
Y1.6841
X4.9442
G3 X4.9192 Y1.6591 I0 J-0.025
G1 Y1.6341
G19 G2 Y1.6091 Z-0.1427 J0 K0.025
G0 Z0.6
G17
M9

(Face4)
G0 X5.6539 Y0.3324
Z0.6
Z0.2
G1 Z-0.0077 F30
X5.5164 F60
X3.9973
G2 Y0.5364 I0 J0.102
G1 X5.5164 Y0.5365
G3 Y0.7407 I0 J0.1021
G1 X3.9973 Y0.7406
G2 Y0.9448 I0 J0.1021
G1 X5.5164
G3 Y1.1488 I0 J0.102
G1 X3.9973 Y1.1489
G2 Y1.3531 I0 J0.1021
G1 X5.5164 Y1.353
G3 Y1.5572 I0 J0.1021
G1 X3.9973
G0 Z0.2
X3.8598 Y0.3324
G1 Z-0.0477 F30
X3.9973 F60
X5.5164
G3 Y0.5364 I0 J0.102
G1 X3.9973 Y0.5365
G2 Y0.7407 I0 J0.1021
G1 X5.5164 Y0.7406
G3 Y0.9448 I0 J0.1021
G1 X3.9973
G2 Y1.1488 I0 J0.102
G1 X5.5164 Y1.1489
G3 Y1.3531 I0 J0.1021
G1 X3.9973 Y1.353
G2 Y1.5572 I0 J0.1021
G1 X5.5164
G0 Z0.2
X5.6539 Y0.3324
G1 Z-0.0877 F30
X5.5164 F60
X3.9973
G2 Y0.5364 I0 J0.102
G1 X5.5164 Y0.5365
G3 Y0.7407 I0 J0.1021
G1 X3.9973 Y0.7406
G2 Y0.9448 I0 J0.1021
G1 X5.5164
G3 Y1.1488 I0 J0.102
G1 X3.9973 Y1.1489
G2 Y1.3531 I0 J0.1021
G1 X5.5164 Y1.353
G3 Y1.5572 I0 J0.1021
G1 X3.9973
G0 Z0.2
X3.8598 Y0.3324
G1 Z-0.1277 F30
X3.9973 F60
X5.5164
G3 Y0.5364 I0 J0.102
G1 X3.9973 Y0.5365
G2 Y0.7407 I0 J0.1021
G1 X5.5164 Y0.7406
G3 Y0.9448 I0 J0.1021
G1 X3.9973
G2 Y1.1488 I0 J0.102
G1 X5.5164 Y1.1489
G3 Y1.3531 I0 J0.1021
G1 X3.9973 Y1.353
G2 Y1.5572 I0 J0.1021
G1 X5.5164
G0 Z0.2
X5.6539 Y0.3324
G1 Z-0.1677 F30
X5.5164 F60
X3.9973
G2 Y0.5364 I0 J0.102
G1 X5.5164 Y0.5365
G3 Y0.7407 I0 J0.1021
G1 X3.9973 Y0.7406
G2 Y0.9448 I0 J0.1021
G1 X5.5164
G3 Y1.1488 I0 J0.102
G1 X3.9973 Y1.1489
G2 Y1.3531 I0 J0.1021
G1 X5.5164 Y1.353
G3 Y1.5572 I0 J0.1021
G1 X3.9973
G0 Z0.6
M5
G28 G91 Z0
G90

(2D Contour4)
T1 M6
S10000 M3
G54
M7
G0 X4.8942 Y0.1816
Z0.6
Z0.2
G1 Z0.08 F30
Z-0.0338
X4.8945 Z-0.0357 F15
X4.8954 Z-0.0374
X4.8967 Z-0.0388
X4.8985 Z-0.0397
X4.9004 Z-0.04
X4.9067
X4.9086 Y0.1819
X4.9103 Y0.1828
X4.9117 Y0.1842
X4.9126 Y0.1859
X4.9129 Y0.1879
Y0.2196
X4.8494
Y-0.0849
X4.9129
Y0.1879
X4.9126 Y0.1898
X4.9117 Y0.1915
X4.9103 Y0.1929
X4.9086 Y0.1938
X4.9067 Y0.1941
X4.9004
X4.8985 Z-0.0397
X4.8967 Z-0.0388
X4.8954 Z-0.0374
X4.8945 Z-0.0357
X4.8942 Z-0.0338
Y0.1816
Z-0.0738 F30
X4.8945 Z-0.0757 F15
X4.8954 Z-0.0774
X4.8967 Z-0.0788
X4.8985 Z-0.0797
X4.9004 Z-0.08
X4.9067
X4.9086 Y0.1819
X4.9103 Y0.1828
X4.9117 Y0.1842
X4.9126 Y0.1859
X4.9129 Y0.1879
Y0.2196
X4.8494
Y-0.0849
X4.9129
Y0.1879
X4.9126 Y0.1898
X4.9117 Y0.1915
X4.9103 Y0.1929
X4.9086 Y0.1938
X4.9067 Y0.1941
X4.9004
X4.8985 Z-0.0797
X4.8967 Z-0.0788
X4.8954 Z-0.0774
X4.8945 Z-0.0757
X4.8942 Z-0.0738
Y0.1816
Z-0.1138 F30
X4.8945 Z-0.1157 F15
X4.8954 Z-0.1174
X4.8967 Z-0.1188
X4.8985 Z-0.1197
X4.9004 Z-0.12
X4.9067
X4.9086 Y0.1819
X4.9103 Y0.1828
X4.9117 Y0.1842
X4.9126 Y0.1859
X4.9129 Y0.1879
Y0.2196
X4.8494
Y-0.0849
X4.9129
Y0.1879
X4.9126 Y0.1898
X4.9117 Y0.1915
X4.9103 Y0.1929
X4.9086 Y0.1938
X4.9067 Y0.1941
X4.9004
X4.8985 Z-0.1197
X4.8967 Z-0.1188
X4.8954 Z-0.1174
X4.8945 Z-0.1157
X4.8942 Z-0.1138
Y0.1816
Z-0.1376 F30
X4.8945 Z-0.1395 F15
X4.8954 Z-0.1413
X4.8967 Z-0.1427
X4.8985 Z-0.1435
X4.9004 Z-0.1439
X4.9067
X4.9086 Y0.1819
X4.9103 Y0.1828
X4.9117 Y0.1842
X4.9126 Y0.1859
X4.9129 Y0.1879
Y0.2196
X4.8494
Y-0.0849
X4.9129
Y0.1879
X4.9126 Y0.1898
X4.9117 Y0.1915
X4.9103 Y0.1929
X4.9086 Y0.1938
X4.9067 Y0.1941
X4.9004
X4.8985 Z-0.1435
X4.8967 Z-0.1427
X4.8954 Z-0.1413
X4.8945 Z-0.1395
X4.8942 Z-0.1376
Y0.1816
Z-0.1615 F30
X4.8945 Z-0.1634 F15
X4.8954 Z-0.1651
X4.8967 Z-0.1665
X4.8985 Z-0.1674
X4.9004 Z-0.1677
X4.9067
X4.9086 Y0.1819
X4.9103 Y0.1828
X4.9117 Y0.1842
X4.9126 Y0.1859
X4.9129 Y0.1879
Y0.2196
X4.8494
Y-0.0849
X4.9129
Y0.1879
X4.9126 Y0.1898
X4.9117 Y0.1915
X4.9103 Y0.1929
X4.9086 Y0.1938
X4.9067 Y0.1941
X4.9004
X4.8985 Z-0.1674
X4.8967 Z-0.1665
X4.8954 Z-0.1651
X4.8945 Z-0.1634
X4.8942 Z-0.1615
G0 Z0.2
Y1.9074
G1 Z0.08 F30
Z-0.0338
X4.8945 Z-0.0357 F15
X4.8954 Z-0.0374
X4.8967 Z-0.0388
X4.8985 Z-0.0397
X4.9004 Z-0.04
X4.9067
X4.9086 Y1.9077
X4.9103 Y1.9086
X4.9117 Y1.91
X4.9126 Y1.9117
X4.9129 Y1.9136
Y1.9454
X4.8494
Y1.7095
X4.9129
Y1.9136
X4.9126 Y1.9156
X4.9117 Y1.9173
X4.9103 Y1.9187
X4.9086 Y1.9196
X4.9067 Y1.9199
X4.9004
X4.8985 Z-0.0397
X4.8967 Z-0.0388
X4.8954 Z-0.0374
X4.8945 Z-0.0357
X4.8942 Z-0.0338
Y1.9074
Z-0.0738 F30
X4.8945 Z-0.0757 F15
X4.8954 Z-0.0774
X4.8967 Z-0.0788
X4.8985 Z-0.0797
X4.9004 Z-0.08
X4.9067
X4.9086 Y1.9077
X4.9103 Y1.9086
X4.9117 Y1.91
X4.9126 Y1.9117
X4.9129 Y1.9136
Y1.9454
X4.8494
Y1.7095
X4.9129
Y1.9136
X4.9126 Y1.9156
X4.9117 Y1.9173
X4.9103 Y1.9187
X4.9086 Y1.9196
X4.9067 Y1.9199
X4.9004
X4.8985 Z-0.0797
X4.8967 Z-0.0788
X4.8954 Z-0.0774
X4.8945 Z-0.0757
X4.8942 Z-0.0738
Y1.9074
Z-0.1138 F30
X4.8945 Z-0.1157 F15
X4.8954 Z-0.1174
X4.8967 Z-0.1188
X4.8985 Z-0.1197
X4.9004 Z-0.12
X4.9067
X4.9086 Y1.9077
X4.9103 Y1.9086
X4.9117 Y1.91
X4.9126 Y1.9117
X4.9129 Y1.9136
Y1.9454
X4.8494
Y1.7095
X4.9129
Y1.9136
X4.9126 Y1.9156
X4.9117 Y1.9173
X4.9103 Y1.9187
X4.9086 Y1.9196
X4.9067 Y1.9199
X4.9004
X4.8985 Z-0.1197
X4.8967 Z-0.1188
X4.8954 Z-0.1174
X4.8945 Z-0.1157
X4.8942 Z-0.1138
Y1.9074
Z-0.1376 F30
X4.8945 Z-0.1395 F15
X4.8954 Z-0.1413
X4.8967 Z-0.1427
X4.8985 Z-0.1435
X4.9004 Z-0.1439
X4.9067
X4.9086 Y1.9077
X4.9103 Y1.9086
X4.9117 Y1.91
X4.9126 Y1.9117
X4.9129 Y1.9136
Y1.9454
X4.8494
Y1.7095
X4.9129
Y1.9136
X4.9126 Y1.9156
X4.9117 Y1.9173
X4.9103 Y1.9187
X4.9086 Y1.9196
X4.9067 Y1.9199
X4.9004
X4.8985 Z-0.1435
X4.8967 Z-0.1427
X4.8954 Z-0.1413
X4.8945 Z-0.1395
X4.8942 Z-0.1376
Y1.9074
Z-0.1615 F30
X4.8945 Z-0.1634 F15
X4.8954 Z-0.1651
X4.8967 Z-0.1665
X4.8985 Z-0.1674
X4.9004 Z-0.1677
X4.9067
X4.9086 Y1.9077
X4.9103 Y1.9086
X4.9117 Y1.91
X4.9126 Y1.9117
X4.9129 Y1.9136
Y1.9454
X4.8494
Y1.7095
X4.9129
Y1.9136
X4.9126 Y1.9156
X4.9117 Y1.9173
X4.9103 Y1.9187
X4.9086 Y1.9196
X4.9067 Y1.9199
X4.9004
X4.8985 Z-0.1674
X4.8967 Z-0.1665
X4.8954 Z-0.1651
X4.8945 Z-0.1634
X4.8942 Z-0.1615
G0 Z0.6
M9

(Face8)
X4.9316 Y1.5744
Z0.6
Z0.2
G1 Z-0.0015 F30
X4.9313 Z-0.0034 F15
X4.9304 Z-0.0051
X4.929 Z-0.0065
X4.9272 Z-0.0074
X4.9253 Z-0.0077
X4.8909
X4.864
G2 Y1.6292 I0 J0.0274
G1 X4.8909 Y1.6291
G3 Y1.6837 I0 J0.0273
G1 X4.864
G2 Y1.7383 I0 J0.0273
G1 X4.8909
G3 Y1.7931 I0 J0.0274
G1 X4.864 Y1.793
G2 Y1.8476 I0 J0.0273
G1 X4.8909
G3 Y1.9022 I0 J0.0273
G1 X4.864
G2 Y1.957 I0 J0.0274
G1 X4.8909 Y1.9569
G3 Y2.0115 I0 J0.0273
G1 X4.864
G2 Y2.0661 I0 J0.0273
G1 X4.8909 Y2.0662
X4.8929 Z-0.0074
X4.8946 Z-0.0065
X4.896 Z-0.0051
X4.8969 Z-0.0034
X4.8972 Z-0.0015
G0 Z0.2
X4.9316 Y1.5744
G1 Z-0.0415 F30
X4.9313 Z-0.0434 F15
X4.9304 Z-0.0451
X4.929 Z-0.0465
X4.9272 Z-0.0474
X4.9253 Z-0.0477
X4.8909
X4.864
G2 Y1.6292 I0 J0.0274
G1 X4.8909 Y1.6291
G3 Y1.6837 I0 J0.0273
G1 X4.864
G2 Y1.7383 I0 J0.0273
G1 X4.8909
G3 Y1.7931 I0 J0.0274
G1 X4.864 Y1.793
G2 Y1.8476 I0 J0.0273
G1 X4.8909
G3 Y1.9022 I0 J0.0273
G1 X4.864
G2 Y1.957 I0 J0.0274
G1 X4.8909 Y1.9569
G3 Y2.0115 I0 J0.0273
G1 X4.864
G2 Y2.0661 I0 J0.0273
G1 X4.8909 Y2.0662
X4.8929 Z-0.0474
X4.8946 Z-0.0465
X4.896 Z-0.0451
X4.8969 Z-0.0434
X4.8972 Z-0.0415
G0 Z0.2
X4.9316 Y1.5744
G1 Z-0.0815 F30
X4.9313 Z-0.0834 F15
X4.9304 Z-0.0851
X4.929 Z-0.0865
X4.9272 Z-0.0874
X4.9253 Z-0.0877
X4.8909
X4.864
G2 Y1.6292 I0 J0.0274
G1 X4.8909 Y1.6291
G3 Y1.6837 I0 J0.0273
G1 X4.864
G2 Y1.7383 I0 J0.0273
G1 X4.8909
G3 Y1.7931 I0 J0.0274
G1 X4.864 Y1.793
G2 Y1.8476 I0 J0.0273
G1 X4.8909
G3 Y1.9022 I0 J0.0273
G1 X4.864
G2 Y1.957 I0 J0.0274
G1 X4.8909 Y1.9569
G3 Y2.0115 I0 J0.0273
G1 X4.864
G2 Y2.0661 I0 J0.0273
G1 X4.8909 Y2.0662
X4.8929 Z-0.0874
X4.8946 Z-0.0865
X4.896 Z-0.0851
X4.8969 Z-0.0834
X4.8972 Z-0.0815
G0 Z0.2
X4.9316 Y1.5744
G1 Z-0.1215 F30
X4.9313 Z-0.1234 F15
X4.9304 Z-0.1251
X4.929 Z-0.1265
X4.9272 Z-0.1274
X4.9253 Z-0.1277
X4.8909
X4.864
G2 Y1.6292 I0 J0.0274
G1 X4.8909 Y1.6291
G3 Y1.6837 I0 J0.0273
G1 X4.864
G2 Y1.7383 I0 J0.0273
G1 X4.8909
G3 Y1.7931 I0 J0.0274
G1 X4.864 Y1.793
G2 Y1.8476 I0 J0.0273
G1 X4.8909
G3 Y1.9022 I0 J0.0273
G1 X4.864
G2 Y1.957 I0 J0.0274
G1 X4.8909 Y1.9569
G3 Y2.0115 I0 J0.0273
G1 X4.864
G2 Y2.0661 I0 J0.0273
G1 X4.8909 Y2.0662
X4.8929 Z-0.1274
X4.8946 Z-0.1265
X4.896 Z-0.1251
X4.8969 Z-0.1234
X4.8972 Z-0.1215
G0 Z0.2
X4.9316 Y1.5744
G1 Z-0.1615 F30
X4.9313 Z-0.1634 F15
X4.9304 Z-0.1651
X4.929 Z-0.1665
X4.9272 Z-0.1674
X4.9253 Z-0.1677
X4.8909
X4.864
G2 Y1.6292 I0 J0.0274
G1 X4.8909 Y1.6291
G3 Y1.6837 I0 J0.0273
G1 X4.864
G2 Y1.7383 I0 J0.0273
G1 X4.8909
G3 Y1.7931 I0 J0.0274
G1 X4.864 Y1.793
G2 Y1.8476 I0 J0.0273
G1 X4.8909
G3 Y1.9022 I0 J0.0273
G1 X4.864
G2 Y1.957 I0 J0.0274
G1 X4.8909 Y1.9569
G3 Y2.0115 I0 J0.0273
G1 X4.864
G2 Y2.0661 I0 J0.0273
G1 X4.8909 Y2.0662
X4.8929 Z-0.1674
X4.8946 Z-0.1665
X4.896 Z-0.1651
X4.8969 Z-0.1634
X4.8972 Z-0.1615
G0 Z0.2
X4.9316 Y-0.1433
G1 Z-0.0015 F30
X4.9313 Z-0.0034 F15
X4.9304 Z-0.0051
X4.929 Z-0.0065
X4.9272 Z-0.0074
X4.9253 Z-0.0077
X4.8909
X4.864
G2 Y-0.0887 I0 J0.0273
G1 X4.8909
G3 Y-0.0341 I0 J0.0273
G1 X4.864
G2 Y0.0207 I0 J0.0274
G1 X4.8909 Y0.0206
G3 Y0.0752 I0 J0.0273
G1 X4.864
G2 Y0.1298 I0 J0.0273
G1 X4.8909 Y0.1299
G3 Y0.1845 I0 J0.0273
G1 X4.864
G2 Y0.2391 I0 J0.0273
G1 X4.8909
G3 Y0.2937 I0 J0.0273
G1 X4.864 Y0.2938
G2 Y0.3484 I0 J0.0273
G1 X4.8909
X4.8929 Z-0.0074
X4.8946 Z-0.0065
X4.896 Z-0.0051
X4.8969 Z-0.0034
X4.8972 Z-0.0015
G0 Z0.2
X4.9316 Y-0.1433
G1 Z-0.0415 F30
X4.9313 Z-0.0434 F15
X4.9304 Z-0.0451
X4.929 Z-0.0465
X4.9272 Z-0.0474
X4.9253 Z-0.0477
X4.8909
X4.864
G2 Y-0.0887 I0 J0.0273
G1 X4.8909
G3 Y-0.0341 I0 J0.0273
G1 X4.864
G2 Y0.0207 I0 J0.0274
G1 X4.8909 Y0.0206
G3 Y0.0752 I0 J0.0273
G1 X4.864
G2 Y0.1298 I0 J0.0273
G1 X4.8909 Y0.1299
G3 Y0.1845 I0 J0.0273
G1 X4.864
G2 Y0.2391 I0 J0.0273
G1 X4.8909
G3 Y0.2937 I0 J0.0273
G1 X4.864 Y0.2938
G2 Y0.3484 I0 J0.0273
G1 X4.8909
X4.8929 Z-0.0474
X4.8946 Z-0.0465
X4.896 Z-0.0451
X4.8969 Z-0.0434
X4.8972 Z-0.0415
G0 Z0.2
X4.9316 Y-0.1433
G1 Z-0.0815 F30
X4.9313 Z-0.0834 F15
X4.9304 Z-0.0851
X4.929 Z-0.0865
X4.9272 Z-0.0874
X4.9253 Z-0.0877
X4.8909
X4.864
G2 Y-0.0887 I0 J0.0273
G1 X4.8909
G3 Y-0.0341 I0 J0.0273
G1 X4.864
G2 Y0.0207 I0 J0.0274
G1 X4.8909 Y0.0206
G3 Y0.0752 I0 J0.0273
G1 X4.864
G2 Y0.1298 I0 J0.0273
G1 X4.8909 Y0.1299
G3 Y0.1845 I0 J0.0273
G1 X4.864
G2 Y0.2391 I0 J0.0273
G1 X4.8909
G3 Y0.2937 I0 J0.0273
G1 X4.864 Y0.2938
G2 Y0.3484 I0 J0.0273
G1 X4.8909
X4.8929 Z-0.0874
X4.8946 Z-0.0865
X4.896 Z-0.0851
X4.8969 Z-0.0834
X4.8972 Z-0.0815
G0 Z0.2
X4.9316 Y-0.1433
G1 Z-0.1215 F30
X4.9313 Z-0.1234 F15
X4.9304 Z-0.1251
X4.929 Z-0.1265
X4.9272 Z-0.1274
X4.9253 Z-0.1277
X4.8909
X4.864
G2 Y-0.0887 I0 J0.0273
G1 X4.8909
G3 Y-0.0341 I0 J0.0273
G1 X4.864
G2 Y0.0207 I0 J0.0274
G1 X4.8909 Y0.0206
G3 Y0.0752 I0 J0.0273
G1 X4.864
G2 Y0.1298 I0 J0.0273
G1 X4.8909 Y0.1299
G3 Y0.1845 I0 J0.0273
G1 X4.864
G2 Y0.2391 I0 J0.0273
G1 X4.8909
G3 Y0.2937 I0 J0.0273
G1 X4.864 Y0.2938
G2 Y0.3484 I0 J0.0273
G1 X4.8909
X4.8929 Z-0.1274
X4.8946 Z-0.1265
X4.896 Z-0.1251
X4.8969 Z-0.1234
X4.8972 Z-0.1215
G0 Z0.2
X4.9316 Y-0.1433
G1 Z-0.1615 F30
X4.9313 Z-0.1634 F15
X4.9304 Z-0.1651
X4.929 Z-0.1665
X4.9272 Z-0.1674
X4.9253 Z-0.1677
X4.8909
X4.864
G2 Y-0.0887 I0 J0.0273
G1 X4.8909
G3 Y-0.0341 I0 J0.0273
G1 X4.864
G2 Y0.0207 I0 J0.0274
G1 X4.8909 Y0.0206
G3 Y0.0752 I0 J0.0273
G1 X4.864
G2 Y0.1298 I0 J0.0273
G1 X4.8909 Y0.1299
G3 Y0.1845 I0 J0.0273
G1 X4.864
G2 Y0.2391 I0 J0.0273
G1 X4.8909
G3 Y0.2937 I0 J0.0273
G1 X4.864 Y0.2938
G2 Y0.3484 I0 J0.0273
G1 X4.8909
X4.8929 Z-0.1674
X4.8946 Z-0.1665
X4.896 Z-0.1651
X4.8969 Z-0.1634
X4.8972 Z-0.1615
G0 Z0.6
G28 G91 Z0
G90
G28 G91 X0 Y0
G90
M30
%
