%
(Spout faceplate laser ahesion stencil)
(T1  D=0.0625 CR=0 - ZMIN=-0.1677 - flat end mill)
(T2  D=0.25 CR=0 - ZMIN=-0.1677 - flat end mill)
G90
G17
G20
G28 G91 Z0
G90

(2D Contour8)
T1 M6
S10000 M3
G54
G0 X1.0092 Y1.7591
Z0.6
Z0.2
G1 Z0.08 F30
Z-0.0338
Y1.7594 Z-0.0357 F15
Y1.7602 Z-0.0374
Y1.7616 Z-0.0388
Y1.7634 Z-0.0397
Y1.7653 Z-0.04
Y1.7716
X1.0089 Y1.7735
X1.008 Y1.7752
X1.0066 Y1.7766
X1.0049 Y1.7775
X1.003 Y1.7778
X0.1897
Y0.1513
X2.1863
Y1.7778
X1.003
X1.001 Y1.7775
X0.9993 Y1.7766
X0.9979 Y1.7752
X0.997 Y1.7735
X0.9967 Y1.7716
Y1.7653
Y1.7634 Z-0.0397
Y1.7616 Z-0.0388
Y1.7602 Z-0.0374
Y1.7594 Z-0.0357
Y1.7591 Z-0.0338
X1.0092
Z-0.0738 F30
Y1.7594 Z-0.0757 F15
Y1.7602 Z-0.0774
Y1.7616 Z-0.0788
Y1.7634 Z-0.0797
Y1.7653 Z-0.08
Y1.7716
X1.0089 Y1.7735
X1.008 Y1.7752
X1.0066 Y1.7766
X1.0049 Y1.7775
X1.003 Y1.7778
X0.1897
Y0.1513
X2.1863
Y1.7778
X1.003
X1.001 Y1.7775
X0.9993 Y1.7766
X0.9979 Y1.7752
X0.997 Y1.7735
X0.9967 Y1.7716
Y1.7653
Y1.7634 Z-0.0797
Y1.7616 Z-0.0788
Y1.7602 Z-0.0774
Y1.7594 Z-0.0757
Y1.7591 Z-0.0738
X1.0092
Z-0.1138 F30
Y1.7594 Z-0.1157 F15
Y1.7602 Z-0.1174
Y1.7616 Z-0.1188
Y1.7634 Z-0.1197
Y1.7653 Z-0.12
Y1.7716
X1.0089 Y1.7735
X1.008 Y1.7752
X1.0066 Y1.7766
X1.0049 Y1.7775
X1.003 Y1.7778
X0.1897
Y0.1513
X2.1863
Y1.7778
X1.003
X1.001 Y1.7775
X0.9993 Y1.7766
X0.9979 Y1.7752
X0.997 Y1.7735
X0.9967 Y1.7716
Y1.7653
Y1.7634 Z-0.1197
Y1.7616 Z-0.1188
Y1.7602 Z-0.1174
Y1.7594 Z-0.1157
Y1.7591 Z-0.1138
X1.0092
Z-0.1376 F30
Y1.7594 Z-0.1395 F15
Y1.7602 Z-0.1413
Y1.7616 Z-0.1427
Y1.7634 Z-0.1435
Y1.7653 Z-0.1439
Y1.7716
X1.0089 Y1.7735
X1.008 Y1.7752
X1.0066 Y1.7766
X1.0049 Y1.7775
X1.003 Y1.7778
X0.1897
Y0.1513
X2.1863
Y1.7778
X1.003
X1.001 Y1.7775
X0.9993 Y1.7766
X0.9979 Y1.7752
X0.997 Y1.7735
X0.9967 Y1.7716
Y1.7653
Y1.7634 Z-0.1435
Y1.7616 Z-0.1427
Y1.7602 Z-0.1413
Y1.7594 Z-0.1395
Y1.7591 Z-0.1376
X1.0092
Z-0.1615 F30
Y1.7594 Z-0.1634 F15
Y1.7602 Z-0.1651
Y1.7616 Z-0.1665
Y1.7634 Z-0.1674
Y1.7653 Z-0.1677
Y1.7716
X1.0089 Y1.7735
X1.008 Y1.7752
X1.0066 Y1.7766
X1.0049 Y1.7775
X1.003 Y1.7778
X0.1897
Y0.1513
X2.1863
Y1.7778
X1.003
X1.001 Y1.7775
X0.9993 Y1.7766
X0.9979 Y1.7752
X0.997 Y1.7735
X0.9967 Y1.7716
Y1.7653
Y1.7634 Z-0.1674
Y1.7616 Z-0.1665
Y1.7602 Z-0.1651
Y1.7594 Z-0.1634
Y1.7591 Z-0.1615
G0 Z0.6
M5
G28 G91 Z0
G90

(2D Contour1)
T2 M6
S10000 M3
G54
M7
G0 X1.1017 Y0.3201
Z0.6
Z0.2
G1 Z0.08 F30
Z-0.015
G19 G2 Y0.2951 Z-0.04 J-0.025 K0 F60
G1 Y0.2701
G17 G3 X1.1267 Y0.2451 I0.025 J0
G1 X2.0925
Y1.6841
X1.1267
G3 X1.1017 Y1.6591 I0 J-0.025
G1 Y1.6341
G19 G2 Y1.6091 Z-0.015 J0 K0.025
G1 X1.0257
G3 Y1.6341 Z-0.04 J0.025 K0
G1 Y1.6591
G17 G3 X1.0007 Y1.6841 I-0.025 J0
G1 X0.2835
Y0.2451
X1.0007
G3 X1.0257 Y0.2701 I0 J0.025
G1 Y0.2951
G19 G3 Y0.3201 Z-0.015 J0 K0.025
G1 X1.1017
Z-0.055 F30
G2 Y0.2951 Z-0.08 J-0.025 K0 F60
G1 Y0.2701
G17 G3 X1.1267 Y0.2451 I0.025 J0
G1 X2.0925
Y1.6841
X1.1267
G3 X1.1017 Y1.6591 I0 J-0.025
G1 Y1.6341
G19 G2 Y1.6091 Z-0.055 J0 K0.025
G1 X1.0257
G3 Y1.6341 Z-0.08 J0.025 K0
G1 Y1.6591
G17 G3 X1.0007 Y1.6841 I-0.025 J0
G1 X0.2835
Y0.2451
X1.0007
G3 X1.0257 Y0.2701 I0 J0.025
G1 Y0.2951
G19 G3 Y0.3201 Z-0.055 J0 K0.025
G1 X1.1017
Z-0.095 F30
G2 Y0.2951 Z-0.12 J-0.025 K0 F60
G1 Y0.2701
G17 G3 X1.1267 Y0.2451 I0.025 J0
G1 X2.0925
Y1.6841
X1.1267
G3 X1.1017 Y1.6591 I0 J-0.025
G1 Y1.6341
G19 G2 Y1.6091 Z-0.095 J0 K0.025
G1 X1.0257
G3 Y1.6341 Z-0.12 J0.025 K0
G1 Y1.6591
G17 G3 X1.0007 Y1.6841 I-0.025 J0
G1 X0.2835
Y0.2451
X1.0007
G3 X1.0257 Y0.2701 I0 J0.025
G1 Y0.2951
G19 G3 Y0.3201 Z-0.095 J0 K0.025
G1 X1.1017
Z-0.1189 F30
G2 Y0.2951 Z-0.1439 J-0.025 K0 F60
G1 Y0.2701
G17 G3 X1.1267 Y0.2451 I0.025 J0
G1 X2.0925
Y1.6841
X1.1267
G3 X1.1017 Y1.6591 I0 J-0.025
G1 Y1.6341
G19 G2 Y1.6091 Z-0.1189 J0 K0.025
G1 X1.0257
G3 Y1.6341 Z-0.1439 J0.025 K0
G1 Y1.6591
G17 G3 X1.0007 Y1.6841 I-0.025 J0
G1 X0.2835
Y0.2451
X1.0007
G3 X1.0257 Y0.2701 I0 J0.025
G1 Y0.2951
G19 G3 Y0.3201 Z-0.1189 J0 K0.025
G1 X1.1017
Z-0.1427 F30
G2 Y0.2951 Z-0.1677 J-0.025 K0 F60
G1 Y0.2701
G17 G3 X1.1267 Y0.2451 I0.025 J0
G1 X2.0925
Y1.6841
X1.1267
G3 X1.1017 Y1.6591 I0 J-0.025
G1 Y1.6341
G19 G2 Y1.6091 Z-0.1427 J0 K0.025
G1 X1.0257
G3 Y1.6341 Z-0.1677 J0.025 K0
G1 Y1.6591
G17 G3 X1.0007 Y1.6841 I-0.025 J0
G1 X0.2835
Y0.2451
X1.0007
G3 X1.0257 Y0.2701 I0 J0.025
G1 Y0.2951
G19 G3 Y0.3201 Z-0.1427 J0 K0.025
G0 Z0.6
G17
M9

(Face4)
G0 X2.085 Y0.3324
Z0.6
Z0.2
G1 Z-0.0077 F30
X1.9475 F60
X0.4285
G2 Y0.5364 I0 J0.102
G1 X1.9475 Y0.5365
G3 Y0.7407 I0 J0.1021
G1 X0.4285 Y0.7406
G2 Y0.9448 I0 J0.1021
G1 X1.9475
G3 Y1.1488 I0 J0.102
G1 X0.4285 Y1.1489
G2 Y1.3531 I0 J0.1021
G1 X1.9475 Y1.353
G3 Y1.5572 I0 J0.1021
G1 X0.4285
G0 Z0.2
X0.291 Y0.3324
G1 Z-0.0477 F30
X0.4285 F60
X1.9475
G3 Y0.5364 I0 J0.102
G1 X0.4285 Y0.5365
G2 Y0.7407 I0 J0.1021
G1 X1.9475 Y0.7406
G3 Y0.9448 I0 J0.1021
G1 X0.4285
G2 Y1.1488 I0 J0.102
G1 X1.9475 Y1.1489
G3 Y1.3531 I0 J0.1021
G1 X0.4285 Y1.353
G2 Y1.5572 I0 J0.1021
G1 X1.9475
G0 Z0.2
X2.085 Y0.3324
G1 Z-0.0877 F30
X1.9475 F60
X0.4285
G2 Y0.5364 I0 J0.102
G1 X1.9475 Y0.5365
G3 Y0.7407 I0 J0.1021
G1 X0.4285 Y0.7406
G2 Y0.9448 I0 J0.1021
G1 X1.9475
G3 Y1.1488 I0 J0.102
G1 X0.4285 Y1.1489
G2 Y1.3531 I0 J0.1021
G1 X1.9475 Y1.353
G3 Y1.5572 I0 J0.1021
G1 X0.4285
G0 Z0.2
X0.291 Y0.3324
G1 Z-0.1277 F30
X0.4285 F60
X1.9475
G3 Y0.5364 I0 J0.102
G1 X0.4285 Y0.5365
G2 Y0.7407 I0 J0.1021
G1 X1.9475 Y0.7406
G3 Y0.9448 I0 J0.1021
G1 X0.4285
G2 Y1.1488 I0 J0.102
G1 X1.9475 Y1.1489
G3 Y1.3531 I0 J0.1021
G1 X0.4285 Y1.353
G2 Y1.5572 I0 J0.1021
G1 X1.9475
G0 Z0.2
X2.085 Y0.3324
G1 Z-0.1677 F30
X1.9475 F60
X0.4285
G2 Y0.5364 I0 J0.102
G1 X1.9475 Y0.5365
G3 Y0.7407 I0 J0.1021
G1 X0.4285 Y0.7406
G2 Y0.9448 I0 J0.1021
G1 X1.9475
G3 Y1.1488 I0 J0.102
G1 X0.4285 Y1.1489
G2 Y1.3531 I0 J0.1021
G1 X1.9475 Y1.353
G3 Y1.5572 I0 J0.1021
G1 X0.4285
G0 Z0.6
M5
G28 G91 Z0
G90

(2D Contour4)
T1 M6
S10000 M3
G54
M7
G0 X1.0767 Y1.976
Z0.6
Z0.2
G1 Z0.08 F30
Z-0.0338
X1.077 Z-0.0357 F15
X1.0779 Z-0.0374
X1.0793 Z-0.0388
X1.081 Z-0.0397
X1.0829 Z-0.04
X1.0892
X1.0911 Y1.9763
X1.0929 Y1.9772
X1.0943 Y1.9786
X1.0951 Y1.9803
X1.0954 Y1.9823
Y2.014
X1.032
Y1.7095
X1.0954
Y1.9823
X1.0951 Y1.9842
X1.0943 Y1.9859
X1.0929 Y1.9873
X1.0911 Y1.9882
X1.0892 Y1.9885
X1.0829
X1.081 Z-0.0397
X1.0793 Z-0.0388
X1.0779 Z-0.0374
X1.077 Z-0.0357
X1.0767 Z-0.0338
Y1.976
Z-0.0738 F30
X1.077 Z-0.0757 F15
X1.0779 Z-0.0774
X1.0793 Z-0.0788
X1.081 Z-0.0797
X1.0829 Z-0.08
X1.0892
X1.0911 Y1.9763
X1.0929 Y1.9772
X1.0943 Y1.9786
X1.0951 Y1.9803
X1.0954 Y1.9823
Y2.014
X1.032
Y1.7095
X1.0954
Y1.9823
X1.0951 Y1.9842
X1.0943 Y1.9859
X1.0929 Y1.9873
X1.0911 Y1.9882
X1.0892 Y1.9885
X1.0829
X1.081 Z-0.0797
X1.0793 Z-0.0788
X1.0779 Z-0.0774
X1.077 Z-0.0757
X1.0767 Z-0.0738
Y1.976
Z-0.1138 F30
X1.077 Z-0.1157 F15
X1.0779 Z-0.1174
X1.0793 Z-0.1188
X1.081 Z-0.1197
X1.0829 Z-0.12
X1.0892
X1.0911 Y1.9763
X1.0929 Y1.9772
X1.0943 Y1.9786
X1.0951 Y1.9803
X1.0954 Y1.9823
Y2.014
X1.032
Y1.7095
X1.0954
Y1.9823
X1.0951 Y1.9842
X1.0943 Y1.9859
X1.0929 Y1.9873
X1.0911 Y1.9882
X1.0892 Y1.9885
X1.0829
X1.081 Z-0.1197
X1.0793 Z-0.1188
X1.0779 Z-0.1174
X1.077 Z-0.1157
X1.0767 Z-0.1138
Y1.976
Z-0.1376 F30
X1.077 Z-0.1395 F15
X1.0779 Z-0.1413
X1.0793 Z-0.1427
X1.081 Z-0.1435
X1.0829 Z-0.1439
X1.0892
X1.0911 Y1.9763
X1.0929 Y1.9772
X1.0943 Y1.9786
X1.0951 Y1.9803
X1.0954 Y1.9823
Y2.014
X1.032
Y1.7095
X1.0954
Y1.9823
X1.0951 Y1.9842
X1.0943 Y1.9859
X1.0929 Y1.9873
X1.0911 Y1.9882
X1.0892 Y1.9885
X1.0829
X1.081 Z-0.1435
X1.0793 Z-0.1427
X1.0779 Z-0.1413
X1.077 Z-0.1395
X1.0767 Z-0.1376
Y1.976
Z-0.1615 F30
X1.077 Z-0.1634 F15
X1.0779 Z-0.1651
X1.0793 Z-0.1665
X1.081 Z-0.1674
X1.0829 Z-0.1677
X1.0892
X1.0911 Y1.9763
X1.0929 Y1.9772
X1.0943 Y1.9786
X1.0951 Y1.9803
X1.0954 Y1.9823
Y2.014
X1.032
Y1.7095
X1.0954
Y1.9823
X1.0951 Y1.9842
X1.0943 Y1.9859
X1.0929 Y1.9873
X1.0911 Y1.9882
X1.0892 Y1.9885
X1.0829
X1.081 Z-0.1674
X1.0793 Z-0.1665
X1.0779 Z-0.1651
X1.077 Z-0.1634
X1.0767 Z-0.1615
G0 Z0.2
Y0.0093
G1 Z0.08 F30
Z-0.0338
X1.077 Z-0.0357 F15
X1.0779 Z-0.0374
X1.0793 Z-0.0388
X1.081 Z-0.0397
X1.0829 Z-0.04
X1.0892
X1.0911 Y0.0096
X1.0929 Y0.0104
X1.0943 Y0.0118
X1.0951 Y0.0136
X1.0954 Y0.0155
Y0.2196
X1.032
Y-0.0162
X1.0954
Y0.0155
X1.0951 Y0.0174
X1.0943 Y0.0192
X1.0929 Y0.0206
X1.0911 Y0.0215
X1.0892 Y0.0218
X1.0829
X1.081 Z-0.0397
X1.0793 Z-0.0388
X1.0779 Z-0.0374
X1.077 Z-0.0357
X1.0767 Z-0.0338
Y0.0093
Z-0.0738 F30
X1.077 Z-0.0757 F15
X1.0779 Z-0.0774
X1.0793 Z-0.0788
X1.081 Z-0.0797
X1.0829 Z-0.08
X1.0892
X1.0911 Y0.0096
X1.0929 Y0.0104
X1.0943 Y0.0118
X1.0951 Y0.0136
X1.0954 Y0.0155
Y0.2196
X1.032
Y-0.0162
X1.0954
Y0.0155
X1.0951 Y0.0174
X1.0943 Y0.0192
X1.0929 Y0.0206
X1.0911 Y0.0215
X1.0892 Y0.0218
X1.0829
X1.081 Z-0.0797
X1.0793 Z-0.0788
X1.0779 Z-0.0774
X1.077 Z-0.0757
X1.0767 Z-0.0738
Y0.0093
Z-0.1138 F30
X1.077 Z-0.1157 F15
X1.0779 Z-0.1174
X1.0793 Z-0.1188
X1.081 Z-0.1197
X1.0829 Z-0.12
X1.0892
X1.0911 Y0.0096
X1.0929 Y0.0104
X1.0943 Y0.0118
X1.0951 Y0.0136
X1.0954 Y0.0155
Y0.2196
X1.032
Y-0.0162
X1.0954
Y0.0155
X1.0951 Y0.0174
X1.0943 Y0.0192
X1.0929 Y0.0206
X1.0911 Y0.0215
X1.0892 Y0.0218
X1.0829
X1.081 Z-0.1197
X1.0793 Z-0.1188
X1.0779 Z-0.1174
X1.077 Z-0.1157
X1.0767 Z-0.1138
Y0.0093
Z-0.1376 F30
X1.077 Z-0.1395 F15
X1.0779 Z-0.1413
X1.0793 Z-0.1427
X1.081 Z-0.1435
X1.0829 Z-0.1439
X1.0892
X1.0911 Y0.0096
X1.0929 Y0.0104
X1.0943 Y0.0118
X1.0951 Y0.0136
X1.0954 Y0.0155
Y0.2196
X1.032
Y-0.0162
X1.0954
Y0.0155
X1.0951 Y0.0174
X1.0943 Y0.0192
X1.0929 Y0.0206
X1.0911 Y0.0215
X1.0892 Y0.0218
X1.0829
X1.081 Z-0.1435
X1.0793 Z-0.1427
X1.0779 Z-0.1413
X1.077 Z-0.1395
X1.0767 Z-0.1376
Y0.0093
Z-0.1615 F30
X1.077 Z-0.1634 F15
X1.0779 Z-0.1651
X1.0793 Z-0.1665
X1.081 Z-0.1674
X1.0829 Z-0.1677
X1.0892
X1.0911 Y0.0096
X1.0929 Y0.0104
X1.0943 Y0.0118
X1.0951 Y0.0136
X1.0954 Y0.0155
Y0.2196
X1.032
Y-0.0162
X1.0954
Y0.0155
X1.0951 Y0.0174
X1.0943 Y0.0192
X1.0929 Y0.0206
X1.0911 Y0.0215
X1.0892 Y0.0218
X1.0829
X1.081 Z-0.1674
X1.0793 Z-0.1665
X1.0779 Z-0.1651
X1.077 Z-0.1634
X1.0767 Z-0.1615
G0 Z0.6
M9

(Face8)
X1.1216 Y-0.1433
Z0.6
Z0.2
G1 Z-0.0015 F30
X1.1212 Z-0.0034 F15
X1.1204 Z-0.0051
X1.119 Z-0.0065
X1.1172 Z-0.0074
X1.1153 Z-0.0077
X1.0809
X1.0539
G2 Y-0.0887 I0 J0.0273
G1 X1.0809
G3 Y-0.0341 I0 J0.0273
G1 X1.0539
G2 Y0.0207 I0 J0.0274
G1 X1.0809 Y0.0206
G3 Y0.0752 I0 J0.0273
G1 X1.0539
G2 Y0.1298 I0 J0.0273
G1 X1.0809 Y0.1299
G3 Y0.1845 I0 J0.0273
G1 X1.0539
G2 Y0.2391 I0 J0.0273
G1 X1.0809
G3 Y0.2937 I0 J0.0273
G1 X1.0539 Y0.2938
G2 Y0.3484 I0 J0.0273
G1 X1.0809
X1.0829 Z-0.0074
X1.0846 Z-0.0065
X1.086 Z-0.0051
X1.0869 Z-0.0034
X1.0872 Z-0.0015
G0 Z0.2
X1.1216 Y-0.1433
G1 Z-0.0415 F30
X1.1212 Z-0.0434 F15
X1.1204 Z-0.0451
X1.119 Z-0.0465
X1.1172 Z-0.0474
X1.1153 Z-0.0477
X1.0809
X1.0539
G2 Y-0.0887 I0 J0.0273
G1 X1.0809
G3 Y-0.0341 I0 J0.0273
G1 X1.0539
G2 Y0.0207 I0 J0.0274
G1 X1.0809 Y0.0206
G3 Y0.0752 I0 J0.0273
G1 X1.0539
G2 Y0.1298 I0 J0.0273
G1 X1.0809 Y0.1299
G3 Y0.1845 I0 J0.0273
G1 X1.0539
G2 Y0.2391 I0 J0.0273
G1 X1.0809
G3 Y0.2937 I0 J0.0273
G1 X1.0539 Y0.2938
G2 Y0.3484 I0 J0.0273
G1 X1.0809
X1.0829 Z-0.0474
X1.0846 Z-0.0465
X1.086 Z-0.0451
X1.0869 Z-0.0434
X1.0872 Z-0.0415
G0 Z0.2
X1.1216 Y-0.1433
G1 Z-0.0815 F30
X1.1212 Z-0.0834 F15
X1.1204 Z-0.0851
X1.119 Z-0.0865
X1.1172 Z-0.0874
X1.1153 Z-0.0877
X1.0809
X1.0539
G2 Y-0.0887 I0 J0.0273
G1 X1.0809
G3 Y-0.0341 I0 J0.0273
G1 X1.0539
G2 Y0.0207 I0 J0.0274
G1 X1.0809 Y0.0206
G3 Y0.0752 I0 J0.0273
G1 X1.0539
G2 Y0.1298 I0 J0.0273
G1 X1.0809 Y0.1299
G3 Y0.1845 I0 J0.0273
G1 X1.0539
G2 Y0.2391 I0 J0.0273
G1 X1.0809
G3 Y0.2937 I0 J0.0273
G1 X1.0539 Y0.2938
G2 Y0.3484 I0 J0.0273
G1 X1.0809
X1.0829 Z-0.0874
X1.0846 Z-0.0865
X1.086 Z-0.0851
X1.0869 Z-0.0834
X1.0872 Z-0.0815
G0 Z0.2
X1.1216 Y-0.1433
G1 Z-0.1215 F30
X1.1212 Z-0.1234 F15
X1.1204 Z-0.1251
X1.119 Z-0.1265
X1.1172 Z-0.1274
X1.1153 Z-0.1277
X1.0809
X1.0539
G2 Y-0.0887 I0 J0.0273
G1 X1.0809
G3 Y-0.0341 I0 J0.0273
G1 X1.0539
G2 Y0.0207 I0 J0.0274
G1 X1.0809 Y0.0206
G3 Y0.0752 I0 J0.0273
G1 X1.0539
G2 Y0.1298 I0 J0.0273
G1 X1.0809 Y0.1299
G3 Y0.1845 I0 J0.0273
G1 X1.0539
G2 Y0.2391 I0 J0.0273
G1 X1.0809
G3 Y0.2937 I0 J0.0273
G1 X1.0539 Y0.2938
G2 Y0.3484 I0 J0.0273
G1 X1.0809
X1.0829 Z-0.1274
X1.0846 Z-0.1265
X1.086 Z-0.1251
X1.0869 Z-0.1234
X1.0872 Z-0.1215
G0 Z0.2
X1.1216 Y-0.1433
G1 Z-0.1615 F30
X1.1212 Z-0.1634 F15
X1.1204 Z-0.1651
X1.119 Z-0.1665
X1.1172 Z-0.1674
X1.1153 Z-0.1677
X1.0809
X1.0539
G2 Y-0.0887 I0 J0.0273
G1 X1.0809
G3 Y-0.0341 I0 J0.0273
G1 X1.0539
G2 Y0.0207 I0 J0.0274
G1 X1.0809 Y0.0206
G3 Y0.0752 I0 J0.0273
G1 X1.0539
G2 Y0.1298 I0 J0.0273
G1 X1.0809 Y0.1299
G3 Y0.1845 I0 J0.0273
G1 X1.0539
G2 Y0.2391 I0 J0.0273
G1 X1.0809
G3 Y0.2937 I0 J0.0273
G1 X1.0539 Y0.2938
G2 Y0.3484 I0 J0.0273
G1 X1.0809
X1.0829 Z-0.1674
X1.0846 Z-0.1665
X1.086 Z-0.1651
X1.0869 Z-0.1634
X1.0872 Z-0.1615
G0 Z0.2
X1.1216 Y1.5744
G1 Z-0.0015 F30
X1.1212 Z-0.0034 F15
X1.1204 Z-0.0051
X1.119 Z-0.0065
X1.1172 Z-0.0074
X1.1153 Z-0.0077
X1.0809
X1.0539
G2 Y1.6292 I0 J0.0274
G1 X1.0809 Y1.6291
G3 Y1.6837 I0 J0.0273
G1 X1.0539
G2 Y1.7383 I0 J0.0273
G1 X1.0809
G3 Y1.7931 I0 J0.0274
G1 X1.0539 Y1.793
G2 Y1.8476 I0 J0.0273
G1 X1.0809
G3 Y1.9022 I0 J0.0273
G1 X1.0539
G2 Y1.957 I0 J0.0274
G1 X1.0809 Y1.9569
G3 Y2.0115 I0 J0.0273
G1 X1.0539
G2 Y2.0661 I0 J0.0273
G1 X1.0809 Y2.0662
X1.0829 Z-0.0074
X1.0846 Z-0.0065
X1.086 Z-0.0051
X1.0869 Z-0.0034
X1.0872 Z-0.0015
G0 Z0.2
X1.1216 Y1.5744
G1 Z-0.0415 F30
X1.1212 Z-0.0434 F15
X1.1204 Z-0.0451
X1.119 Z-0.0465
X1.1172 Z-0.0474
X1.1153 Z-0.0477
X1.0809
X1.0539
G2 Y1.6292 I0 J0.0274
G1 X1.0809 Y1.6291
G3 Y1.6837 I0 J0.0273
G1 X1.0539
G2 Y1.7383 I0 J0.0273
G1 X1.0809
G3 Y1.7931 I0 J0.0274
G1 X1.0539 Y1.793
G2 Y1.8476 I0 J0.0273
G1 X1.0809
G3 Y1.9022 I0 J0.0273
G1 X1.0539
G2 Y1.957 I0 J0.0274
G1 X1.0809 Y1.9569
G3 Y2.0115 I0 J0.0273
G1 X1.0539
G2 Y2.0661 I0 J0.0273
G1 X1.0809 Y2.0662
X1.0829 Z-0.0474
X1.0846 Z-0.0465
X1.086 Z-0.0451
X1.0869 Z-0.0434
X1.0872 Z-0.0415
G0 Z0.2
X1.1216 Y1.5744
G1 Z-0.0815 F30
X1.1212 Z-0.0834 F15
X1.1204 Z-0.0851
X1.119 Z-0.0865
X1.1172 Z-0.0874
X1.1153 Z-0.0877
X1.0809
X1.0539
G2 Y1.6292 I0 J0.0274
G1 X1.0809 Y1.6291
G3 Y1.6837 I0 J0.0273
G1 X1.0539
G2 Y1.7383 I0 J0.0273
G1 X1.0809
G3 Y1.7931 I0 J0.0274
G1 X1.0539 Y1.793
G2 Y1.8476 I0 J0.0273
G1 X1.0809
G3 Y1.9022 I0 J0.0273
G1 X1.0539
G2 Y1.957 I0 J0.0274
G1 X1.0809 Y1.9569
G3 Y2.0115 I0 J0.0273
G1 X1.0539
G2 Y2.0661 I0 J0.0273
G1 X1.0809 Y2.0662
X1.0829 Z-0.0874
X1.0846 Z-0.0865
X1.086 Z-0.0851
X1.0869 Z-0.0834
X1.0872 Z-0.0815
G0 Z0.2
X1.1216 Y1.5744
G1 Z-0.1215 F30
X1.1212 Z-0.1234 F15
X1.1204 Z-0.1251
X1.119 Z-0.1265
X1.1172 Z-0.1274
X1.1153 Z-0.1277
X1.0809
X1.0539
G2 Y1.6292 I0 J0.0274
G1 X1.0809 Y1.6291
G3 Y1.6837 I0 J0.0273
G1 X1.0539
G2 Y1.7383 I0 J0.0273
G1 X1.0809
G3 Y1.7931 I0 J0.0274
G1 X1.0539 Y1.793
G2 Y1.8476 I0 J0.0273
G1 X1.0809
G3 Y1.9022 I0 J0.0273
G1 X1.0539
G2 Y1.957 I0 J0.0274
G1 X1.0809 Y1.9569
G3 Y2.0115 I0 J0.0273
G1 X1.0539
G2 Y2.0661 I0 J0.0273
G1 X1.0809 Y2.0662
X1.0829 Z-0.1274
X1.0846 Z-0.1265
X1.086 Z-0.1251
X1.0869 Z-0.1234
X1.0872 Z-0.1215
G0 Z0.2
X1.1216 Y1.5744
G1 Z-0.1615 F30
X1.1212 Z-0.1634 F15
X1.1204 Z-0.1651
X1.119 Z-0.1665
X1.1172 Z-0.1674
X1.1153 Z-0.1677
X1.0809
X1.0539
G2 Y1.6292 I0 J0.0274
G1 X1.0809 Y1.6291
G3 Y1.6837 I0 J0.0273
G1 X1.0539
G2 Y1.7383 I0 J0.0273
G1 X1.0809
G3 Y1.7931 I0 J0.0274
G1 X1.0539 Y1.793
G2 Y1.8476 I0 J0.0273
G1 X1.0809
G3 Y1.9022 I0 J0.0273
G1 X1.0539
G2 Y1.957 I0 J0.0274
G1 X1.0809 Y1.9569
G3 Y2.0115 I0 J0.0273
G1 X1.0539
G2 Y2.0661 I0 J0.0273
G1 X1.0809 Y2.0662
X1.0829 Z-0.1674
X1.0846 Z-0.1665
X1.086 Z-0.1651
X1.0869 Z-0.1634
X1.0872 Z-0.1615
G0 Z0.6
G28 G91 Z0
G90
G28 G91 X0 Y0
G90
M30
%
