%
(Faceplate_Holes_Final)
(T2  D=0.125 CR=0 - ZMIN=-0.0235 - flat end mill)
G90
G17
G20
G28 G91 Z0
G90

(Middle Holes )
T2 M6
S10000 M3
G54
G0 X5.4563 Y4.4836
Z0.6
Z0.2
G1 Z0.08 F30
Z0.0025
G18 G2 X5.4688 Z-0.01 I0.0125 K0
G1 X5.4813
G17 G3 X5.4938 Y4.4961 I0 J0.0125
G1 Y5.5
G3 X5.107 I-0.1934 J0
G1 Y4.4961
G3 X5.4938 I0.1934 J0
X5.4813 Y4.5086 I-0.0125 J0
G1 X5.4688
G18 G3 X5.4563 Z0.0025 I0 K0.0125
G0 Z0.2
Y4.4836
G1 Z0.07 F30
Z-0.0075
G2 X5.4688 Z-0.02 I0.0125 K0
G1 X5.4813
G17 G3 X5.4938 Y4.4961 I0 J0.0125
G1 Y5.5
G3 X5.107 I-0.1934 J0
G1 Y4.4961
G3 X5.4938 I0.1934 J0
X5.4813 Y4.5086 I-0.0125 J0
G1 X5.4688
G18 G3 X5.4563 Z-0.0075 I0 K0.0125
G0 Z0.2
Y4.4836
G1 Z0.06 F30
Z-0.011
G2 X5.4688 Z-0.0235 I0.0125 K0
G1 X5.4813
G17 G3 X5.4938 Y4.4961 I0 J0.0125
G1 Y5.5
G3 X5.107 I-0.1934 J0
G1 Y4.4961
G3 X5.4938 I0.1934 J0
X5.4813 Y4.5086 I-0.0125 J0
G1 X5.4688
G18 G3 X5.4563 Z-0.011 I0 K0.0125
G0 Z0.2
X2.5763 Y5.4875
G1 Z0.08 F30
Z0.0025
G2 X2.5888 Z-0.01 I0.0125 K0
G1 X2.6013
G17 G3 X2.6138 Y5.5 I0 J0.0125
X2.227 I-0.1934 J0
G1 Y4.4961
G3 X2.6138 I0.1934 J0
G1 Y5.5
G3 X2.6013 Y5.5125 I-0.0125 J0
G1 X2.5888
G18 G3 X2.5763 Z0.0025 I0 K0.0125
G0 Z0.2
Y5.4875
G1 Z0.07 F30
Z-0.0075
G2 X2.5888 Z-0.02 I0.0125 K0
G1 X2.6013
G17 G3 X2.6138 Y5.5 I0 J0.0125
X2.227 I-0.1934 J0
G1 Y4.4961
G3 X2.6138 I0.1934 J0
G1 Y5.5
G3 X2.6013 Y5.5125 I-0.0125 J0
G1 X2.5888
G18 G3 X2.5763 Z-0.0075 I0 K0.0125
G0 Z0.2
Y5.4875
G1 Z0.06 F30
Z-0.011
G2 X2.5888 Z-0.0235 I0.0125 K0
G1 X2.6013
G17 G3 X2.6138 Y5.5 I0 J0.0125
X2.227 I-0.1934 J0
G1 Y4.4961
G3 X2.6138 I0.1934 J0
G1 Y5.5
G3 X2.6013 Y5.5125 I-0.0125 J0
G1 X2.5888
G18 G3 X2.5763 Z-0.011 I0 K0.0125
G0 Z0.6
G17

(2D Contour9)
G0 X7.1811 Y4.4304
Z0.6
Z0.2
G1 Z0.08 F30
Z0.0025
X7.1813 Y4.4301 Z-0.0003
X7.1818 Y4.4294 Z-0.0029
X7.1827 Y4.4282 Z-0.0053
X7.1839 Y4.4266 Z-0.0073
X7.1853 Y4.4247 Z-0.0088
X7.1869 Y4.4226 Z-0.0097
X7.1886 Y4.4204 Z-0.01
X7.1961 Y4.4104
G3 X7.2136 Y4.4079 I0.01 J0.0075
X7.1404 Y4.5055 I-0.0366 J0.0488
X7.2136 Y4.4079 I0.0366 J-0.0488
X7.2161 Y4.4254 I-0.0075 J0.01
G1 X7.2086 Y4.4354
X7.2069 Y4.4376 Z-0.0097
X7.2053 Y4.4397 Z-0.0088
X7.2039 Y4.4416 Z-0.0073
X7.2027 Y4.4432 Z-0.0053
X7.2018 Y4.4444 Z-0.0029
X7.2013 Y4.4451 Z-0.0003
X7.2011 Y4.4454 Z0.0025
X7.1811 Y4.4304
Z-0.0075
X7.1813 Y4.4301 Z-0.0103
X7.1818 Y4.4294 Z-0.0129
X7.1827 Y4.4282 Z-0.0153
X7.1839 Y4.4266 Z-0.0173
X7.1853 Y4.4247 Z-0.0188
X7.1869 Y4.4226 Z-0.0197
X7.1886 Y4.4204 Z-0.02
X7.1961 Y4.4104
G3 X7.2136 Y4.4079 I0.01 J0.0075
X7.1404 Y4.5055 I-0.0366 J0.0488
X7.2136 Y4.4079 I0.0366 J-0.0488
X7.2161 Y4.4254 I-0.0075 J0.01
G1 X7.2086 Y4.4354
X7.2069 Y4.4376 Z-0.0197
X7.2053 Y4.4397 Z-0.0188
X7.2039 Y4.4416 Z-0.0173
X7.2027 Y4.4432 Z-0.0153
X7.2018 Y4.4444 Z-0.0129
X7.2013 Y4.4451 Z-0.0103
X7.2011 Y4.4454 Z-0.0075
X7.1811 Y4.4304
Z-0.011
X7.1813 Y4.4301 Z-0.0138
X7.1818 Y4.4294 Z-0.0164
X7.1827 Y4.4282 Z-0.0188
X7.1839 Y4.4266 Z-0.0208
X7.1853 Y4.4247 Z-0.0223
X7.1869 Y4.4226 Z-0.0232
X7.1886 Y4.4204 Z-0.0235
X7.1961 Y4.4104
G3 X7.2136 Y4.4079 I0.01 J0.0075
X7.1404 Y4.5055 I-0.0366 J0.0488
X7.2136 Y4.4079 I0.0366 J-0.0488
X7.2161 Y4.4254 I-0.0075 J0.01
G1 X7.2086 Y4.4354
X7.2069 Y4.4376 Z-0.0232
X7.2053 Y4.4397 Z-0.0223
X7.2039 Y4.4416 Z-0.0208
X7.2027 Y4.4432 Z-0.0188
X7.2018 Y4.4444 Z-0.0164
X7.2013 Y4.4451 Z-0.0138
X7.2011 Y4.4454 Z-0.011
G0 Z0.2
Y3.4838
G1 Z0.08 F30
Z0.0025
X7.2013 Y3.484 Z-0.0003
X7.2018 Y3.4847 Z-0.0029
X7.2027 Y3.4859 Z-0.0053
X7.2039 Y3.4875 Z-0.0073
X7.2053 Y3.4894 Z-0.0088
X7.2069 Y3.4915 Z-0.0097
X7.2086 Y3.4938 Z-0.01
X7.2161 Y3.5038
G3 X7.2136 Y3.5213 I-0.01 J0.0075
X7.1403 Y3.4236 I-0.0366 J-0.0489
X7.2136 Y3.5213 I0.0367 J0.0488
X7.1961 Y3.5188 I-0.0075 J-0.01
G1 X7.1886 Y3.5088
X7.1869 Y3.5065 Z-0.0097
X7.1853 Y3.5044 Z-0.0088
X7.1839 Y3.5025 Z-0.0073
X7.1827 Y3.5009 Z-0.0053
X7.1818 Y3.4997 Z-0.0029
X7.1813 Y3.499 Z-0.0003
X7.1811 Y3.4988 Z0.0025
X7.2011 Y3.4838
Z-0.0075
X7.2013 Y3.484 Z-0.0103
X7.2018 Y3.4847 Z-0.0129
X7.2027 Y3.4859 Z-0.0153
X7.2039 Y3.4875 Z-0.0173
X7.2053 Y3.4894 Z-0.0188
X7.2069 Y3.4915 Z-0.0197
X7.2086 Y3.4938 Z-0.02
X7.2161 Y3.5038
G3 X7.2136 Y3.5213 I-0.01 J0.0075
X7.1403 Y3.4236 I-0.0366 J-0.0489
X7.2136 Y3.5213 I0.0367 J0.0488
X7.1961 Y3.5188 I-0.0075 J-0.01
G1 X7.1886 Y3.5088
X7.1869 Y3.5065 Z-0.0197
X7.1853 Y3.5044 Z-0.0188
X7.1839 Y3.5025 Z-0.0173
X7.1827 Y3.5009 Z-0.0153
X7.1818 Y3.4997 Z-0.0129
X7.1813 Y3.499 Z-0.0103
X7.1811 Y3.4988 Z-0.0075
X7.2011 Y3.4838
Z-0.011
X7.2013 Y3.484 Z-0.0138
X7.2018 Y3.4847 Z-0.0164
X7.2027 Y3.4859 Z-0.0188
X7.2039 Y3.4875 Z-0.0208
X7.2053 Y3.4894 Z-0.0223
X7.2069 Y3.4915 Z-0.0232
X7.2086 Y3.4938 Z-0.0235
X7.2161 Y3.5038
G3 X7.2136 Y3.5213 I-0.01 J0.0075
X7.1403 Y3.4236 I-0.0366 J-0.0489
X7.2136 Y3.5213 I0.0367 J0.0488
X7.1961 Y3.5188 I-0.0075 J-0.01
G1 X7.1886 Y3.5088
X7.1869 Y3.5065 Z-0.0232
X7.1853 Y3.5044 Z-0.0223
X7.1839 Y3.5025 Z-0.0208
X7.1827 Y3.5009 Z-0.0188
X7.1818 Y3.4997 Z-0.0164
X7.1813 Y3.499 Z-0.0138
X7.1811 Y3.4988 Z-0.011
G0 Z0.2
Y2.4619
G1 Z0.08 F30
Z0.0025
X7.1813 Y2.4616 Z-0.0003
X7.1818 Y2.4609 Z-0.0029
X7.1827 Y2.4597 Z-0.0053
X7.1839 Y2.4581 Z-0.0073
X7.1853 Y2.4562 Z-0.0088
X7.1869 Y2.4541 Z-0.0097
X7.1886 Y2.4519 Z-0.01
X7.1961 Y2.4419
G3 X7.2136 Y2.4394 I0.01 J0.0075
X7.1404 Y2.537 I-0.0366 J0.0488
X7.2136 Y2.4394 I0.0366 J-0.0488
X7.2161 Y2.4569 I-0.0075 J0.01
G1 X7.2086 Y2.4669
X7.2069 Y2.4691 Z-0.0097
X7.2053 Y2.4712 Z-0.0088
X7.2039 Y2.4731 Z-0.0073
X7.2027 Y2.4747 Z-0.0053
X7.2018 Y2.4759 Z-0.0029
X7.2013 Y2.4766 Z-0.0003
X7.2011 Y2.4769 Z0.0025
X7.1811 Y2.4619
Z-0.0075
X7.1813 Y2.4616 Z-0.0103
X7.1818 Y2.4609 Z-0.0129
X7.1827 Y2.4597 Z-0.0153
X7.1839 Y2.4581 Z-0.0173
X7.1853 Y2.4562 Z-0.0188
X7.1869 Y2.4541 Z-0.0197
X7.1886 Y2.4519 Z-0.02
X7.1961 Y2.4419
G3 X7.2136 Y2.4394 I0.01 J0.0075
X7.1404 Y2.537 I-0.0366 J0.0488
X7.2136 Y2.4394 I0.0366 J-0.0488
X7.2161 Y2.4569 I-0.0075 J0.01
G1 X7.2086 Y2.4669
X7.2069 Y2.4691 Z-0.0197
X7.2053 Y2.4712 Z-0.0188
X7.2039 Y2.4731 Z-0.0173
X7.2027 Y2.4747 Z-0.0153
X7.2018 Y2.4759 Z-0.0129
X7.2013 Y2.4766 Z-0.0103
X7.2011 Y2.4769 Z-0.0075
X7.1811 Y2.4619
Z-0.011
X7.1813 Y2.4616 Z-0.0138
X7.1818 Y2.4609 Z-0.0164
X7.1827 Y2.4597 Z-0.0188
X7.1839 Y2.4581 Z-0.0208
X7.1853 Y2.4562 Z-0.0223
X7.1869 Y2.4541 Z-0.0232
X7.1886 Y2.4519 Z-0.0235
X7.1961 Y2.4419
G3 X7.2136 Y2.4394 I0.01 J0.0075
X7.1404 Y2.537 I-0.0366 J0.0488
X7.2136 Y2.4394 I0.0366 J-0.0488
X7.2161 Y2.4569 I-0.0075 J0.01
G1 X7.2086 Y2.4669
X7.2069 Y2.4691 Z-0.0232
X7.2053 Y2.4712 Z-0.0223
X7.2039 Y2.4731 Z-0.0208
X7.2027 Y2.4747 Z-0.0188
X7.2018 Y2.4759 Z-0.0164
X7.2013 Y2.4766 Z-0.0138
X7.2011 Y2.4769 Z-0.011
G0 Z0.2
Y1.5152
G1 Z0.08 F30
Z0.0025
X7.2013 Y1.5155 Z-0.0003
X7.2018 Y1.5162 Z-0.0029
X7.2027 Y1.5174 Z-0.0053
X7.2039 Y1.519 Z-0.0073
X7.2053 Y1.5209 Z-0.0088
X7.2069 Y1.523 Z-0.0097
X7.2086 Y1.5252 Z-0.01
X7.2161 Y1.5352
G3 X7.2136 Y1.5527 I-0.01 J0.0075
X7.1404 Y1.4551 I-0.0366 J-0.0488
X7.2136 Y1.5527 I0.0366 J0.0488
X7.1961 Y1.5502 I-0.0075 J-0.01
G1 X7.1886 Y1.5402
X7.1869 Y1.538 Z-0.0097
X7.1853 Y1.5359 Z-0.0088
X7.1839 Y1.534 Z-0.0073
X7.1827 Y1.5324 Z-0.0053
X7.1818 Y1.5312 Z-0.0029
X7.1813 Y1.5305 Z-0.0003
X7.1811 Y1.5302 Z0.0025
X7.2011 Y1.5152
Z-0.0075
X7.2013 Y1.5155 Z-0.0103
X7.2018 Y1.5162 Z-0.0129
X7.2027 Y1.5174 Z-0.0153
X7.2039 Y1.519 Z-0.0173
X7.2053 Y1.5209 Z-0.0188
X7.2069 Y1.523 Z-0.0197
X7.2086 Y1.5252 Z-0.02
X7.2161 Y1.5352
G3 X7.2136 Y1.5527 I-0.01 J0.0075
X7.1404 Y1.4551 I-0.0366 J-0.0488
X7.2136 Y1.5527 I0.0366 J0.0488
X7.1961 Y1.5502 I-0.0075 J-0.01
G1 X7.1886 Y1.5402
X7.1869 Y1.538 Z-0.0197
X7.1853 Y1.5359 Z-0.0188
X7.1839 Y1.534 Z-0.0173
X7.1827 Y1.5324 Z-0.0153
X7.1818 Y1.5312 Z-0.0129
X7.1813 Y1.5305 Z-0.0103
X7.1811 Y1.5302 Z-0.0075
X7.2011 Y1.5152
Z-0.011
X7.2013 Y1.5155 Z-0.0138
X7.2018 Y1.5162 Z-0.0164
X7.2027 Y1.5174 Z-0.0188
X7.2039 Y1.519 Z-0.0208
X7.2053 Y1.5209 Z-0.0223
X7.2069 Y1.523 Z-0.0232
X7.2086 Y1.5252 Z-0.0235
X7.2161 Y1.5352
G3 X7.2136 Y1.5527 I-0.01 J0.0075
X7.1404 Y1.4551 I-0.0366 J-0.0488
X7.2136 Y1.5527 I0.0366 J0.0488
X7.1961 Y1.5502 I-0.0075 J-0.01
G1 X7.1886 Y1.5402
X7.1869 Y1.538 Z-0.0232
X7.1853 Y1.5359 Z-0.0223
X7.1839 Y1.534 Z-0.0208
X7.1827 Y1.5324 Z-0.0188
X7.1818 Y1.5312 Z-0.0164
X7.1813 Y1.5305 Z-0.0138
X7.1811 Y1.5302 Z-0.011
G0 Z0.2
X7.2011 Y5.4523
G1 Z0.08 F30
Z0.0025
X7.2013 Y5.4525 Z-0.0003
X7.2018 Y5.4532 Z-0.0029
X7.2027 Y5.4544 Z-0.0053
X7.2039 Y5.456 Z-0.0073
X7.2053 Y5.4579 Z-0.0088
X7.2069 Y5.46 Z-0.0097
X7.2086 Y5.4623 Z-0.01
X7.2161 Y5.4723
G3 X7.2136 Y5.4898 I-0.01 J0.0075
X7.1403 Y5.3921 I-0.0366 J-0.0489
X7.2136 Y5.4898 I0.0367 J0.0488
X7.1961 Y5.4873 I-0.0075 J-0.01
G1 X7.1886 Y5.4773
X7.1869 Y5.475 Z-0.0097
X7.1853 Y5.4729 Z-0.0088
X7.1839 Y5.471 Z-0.0073
X7.1827 Y5.4694 Z-0.0053
X7.1818 Y5.4682 Z-0.0029
X7.1813 Y5.4675 Z-0.0003
X7.1811 Y5.4673 Z0.0025
X7.2011 Y5.4523
Z-0.0075
X7.2013 Y5.4525 Z-0.0103
X7.2018 Y5.4532 Z-0.0129
X7.2027 Y5.4544 Z-0.0153
X7.2039 Y5.456 Z-0.0173
X7.2053 Y5.4579 Z-0.0188
X7.2069 Y5.46 Z-0.0197
X7.2086 Y5.4623 Z-0.02
X7.2161 Y5.4723
G3 X7.2136 Y5.4898 I-0.01 J0.0075
X7.1403 Y5.3921 I-0.0366 J-0.0489
X7.2136 Y5.4898 I0.0367 J0.0488
X7.1961 Y5.4873 I-0.0075 J-0.01
G1 X7.1886 Y5.4773
X7.1869 Y5.475 Z-0.0197
X7.1853 Y5.4729 Z-0.0188
X7.1839 Y5.471 Z-0.0173
X7.1827 Y5.4694 Z-0.0153
X7.1818 Y5.4682 Z-0.0129
X7.1813 Y5.4675 Z-0.0103
X7.1811 Y5.4673 Z-0.0075
X7.2011 Y5.4523
Z-0.011
X7.2013 Y5.4525 Z-0.0138
X7.2018 Y5.4532 Z-0.0164
X7.2027 Y5.4544 Z-0.0188
X7.2039 Y5.456 Z-0.0208
X7.2053 Y5.4579 Z-0.0223
X7.2069 Y5.46 Z-0.0232
X7.2086 Y5.4623 Z-0.0235
X7.2161 Y5.4723
G3 X7.2136 Y5.4898 I-0.01 J0.0075
X7.1403 Y5.3921 I-0.0366 J-0.0489
X7.2136 Y5.4898 I0.0367 J0.0488
X7.1961 Y5.4873 I-0.0075 J-0.01
G1 X7.1886 Y5.4773
X7.1869 Y5.475 Z-0.0232
X7.1853 Y5.4729 Z-0.0223
X7.1839 Y5.471 Z-0.0208
X7.1827 Y5.4694 Z-0.0188
X7.1818 Y5.4682 Z-0.0164
X7.1813 Y5.4675 Z-0.0138
X7.1811 Y5.4673 Z-0.011
G0 Z0.2
Y6.3989
G1 Z0.08 F30
Z0.0025
X7.1813 Y6.3986 Z-0.0003
X7.1818 Y6.3979 Z-0.0029
X7.1827 Y6.3967 Z-0.0053
X7.1839 Y6.3951 Z-0.0073
X7.1853 Y6.3932 Z-0.0088
X7.1869 Y6.3911 Z-0.0097
X7.1886 Y6.3889 Z-0.01
X7.1961 Y6.3789
G3 X7.2136 Y6.3764 I0.01 J0.0075
X7.1404 Y6.474 I-0.0366 J0.0488
X7.2136 Y6.3764 I0.0366 J-0.0488
X7.2161 Y6.3939 I-0.0075 J0.01
G1 X7.2086 Y6.4039
X7.2069 Y6.4061 Z-0.0097
X7.2053 Y6.4082 Z-0.0088
X7.2039 Y6.4101 Z-0.0073
X7.2027 Y6.4117 Z-0.0053
X7.2018 Y6.4129 Z-0.0029
X7.2013 Y6.4136 Z-0.0003
X7.2011 Y6.4139 Z0.0025
X7.1811 Y6.3989
Z-0.0075
X7.1813 Y6.3986 Z-0.0103
X7.1818 Y6.3979 Z-0.0129
X7.1827 Y6.3967 Z-0.0153
X7.1839 Y6.3951 Z-0.0173
X7.1853 Y6.3932 Z-0.0188
X7.1869 Y6.3911 Z-0.0197
X7.1886 Y6.3889 Z-0.02
X7.1961 Y6.3789
G3 X7.2136 Y6.3764 I0.01 J0.0075
X7.1404 Y6.474 I-0.0366 J0.0488
X7.2136 Y6.3764 I0.0366 J-0.0488
X7.2161 Y6.3939 I-0.0075 J0.01
G1 X7.2086 Y6.4039
X7.2069 Y6.4061 Z-0.0197
X7.2053 Y6.4082 Z-0.0188
X7.2039 Y6.4101 Z-0.0173
X7.2027 Y6.4117 Z-0.0153
X7.2018 Y6.4129 Z-0.0129
X7.2013 Y6.4136 Z-0.0103
X7.2011 Y6.4139 Z-0.0075
X7.1811 Y6.3989
Z-0.011
X7.1813 Y6.3986 Z-0.0138
X7.1818 Y6.3979 Z-0.0164
X7.1827 Y6.3967 Z-0.0188
X7.1839 Y6.3951 Z-0.0208
X7.1853 Y6.3932 Z-0.0223
X7.1869 Y6.3911 Z-0.0232
X7.1886 Y6.3889 Z-0.0235
X7.1961 Y6.3789
G3 X7.2136 Y6.3764 I0.01 J0.0075
X7.1404 Y6.474 I-0.0366 J0.0488
X7.2136 Y6.3764 I0.0366 J-0.0488
X7.2161 Y6.3939 I-0.0075 J0.01
G1 X7.2086 Y6.4039
X7.2069 Y6.4061 Z-0.0232
X7.2053 Y6.4082 Z-0.0223
X7.2039 Y6.4101 Z-0.0208
X7.2027 Y6.4117 Z-0.0188
X7.2018 Y6.4129 Z-0.0164
X7.2013 Y6.4136 Z-0.0138
X7.2011 Y6.4139 Z-0.011
G0 Z0.2
X7.1811 Y7.3831
G1 Z0.08 F30
Z0.0025
X7.1813 Y7.3829 Z-0.0003
X7.1818 Y7.3821 Z-0.0029
X7.1827 Y7.381 Z-0.0053
X7.1839 Y7.3794 Z-0.0073
X7.1853 Y7.3775 Z-0.0088
X7.1869 Y7.3754 Z-0.0097
X7.1886 Y7.3731 Z-0.01
X7.1961 Y7.3631
G3 X7.2136 Y7.3606 I0.01 J0.0075
X7.1404 Y7.4582 I-0.0366 J0.0488
X7.2136 Y7.3606 I0.0366 J-0.0488
X7.2161 Y7.3781 I-0.0075 J0.01
G1 X7.2086 Y7.3881
X7.2069 Y7.3904 Z-0.0097
X7.2053 Y7.3925 Z-0.0088
X7.2039 Y7.3944 Z-0.0073
X7.2027 Y7.396 Z-0.0053
X7.2018 Y7.3971 Z-0.0029
X7.2013 Y7.3979 Z-0.0003
X7.2011 Y7.3981 Z0.0025
X7.1811 Y7.3831
Z-0.0075
X7.1813 Y7.3829 Z-0.0103
X7.1818 Y7.3821 Z-0.0129
X7.1827 Y7.381 Z-0.0153
X7.1839 Y7.3794 Z-0.0173
X7.1853 Y7.3775 Z-0.0188
X7.1869 Y7.3754 Z-0.0197
X7.1886 Y7.3731 Z-0.02
X7.1961 Y7.3631
G3 X7.2136 Y7.3606 I0.01 J0.0075
X7.1404 Y7.4582 I-0.0366 J0.0488
X7.2136 Y7.3606 I0.0366 J-0.0488
X7.2161 Y7.3781 I-0.0075 J0.01
G1 X7.2086 Y7.3881
X7.2069 Y7.3904 Z-0.0197
X7.2053 Y7.3925 Z-0.0188
X7.2039 Y7.3944 Z-0.0173
X7.2027 Y7.396 Z-0.0153
X7.2018 Y7.3971 Z-0.0129
X7.2013 Y7.3979 Z-0.0103
X7.2011 Y7.3981 Z-0.0075
X7.1811 Y7.3831
Z-0.011
X7.1813 Y7.3829 Z-0.0138
X7.1818 Y7.3821 Z-0.0164
X7.1827 Y7.381 Z-0.0188
X7.1839 Y7.3794 Z-0.0208
X7.1853 Y7.3775 Z-0.0223
X7.1869 Y7.3754 Z-0.0232
X7.1886 Y7.3731 Z-0.0235
X7.1961 Y7.3631
G3 X7.2136 Y7.3606 I0.01 J0.0075
X7.1404 Y7.4582 I-0.0366 J0.0488
X7.2136 Y7.3606 I0.0366 J-0.0488
X7.2161 Y7.3781 I-0.0075 J0.01
G1 X7.2086 Y7.3881
X7.2069 Y7.3904 Z-0.0232
X7.2053 Y7.3925 Z-0.0223
X7.2039 Y7.3944 Z-0.0208
X7.2027 Y7.396 Z-0.0188
X7.2018 Y7.3971 Z-0.0164
X7.2013 Y7.3979 Z-0.0138
X7.2011 Y7.3981 Z-0.011
G0 Z0.2
X0.5965 Y7.3969
G1 Z0.08 F30
Z0.0025
G18 G2 X0.609 Z-0.01 I0.0125 K0
G1 X0.6215
G17 G3 X0.634 Y7.4094 I0 J0.0125
X0.512 I-0.061 J0
X0.634 I0.061 J0
X0.6215 Y7.4219 I-0.0125 J0
G1 X0.609
G18 G3 X0.5965 Z0.0025 I0 K0.0125
G1 Y7.3969
Z-0.0075
G2 X0.609 Z-0.02 I0.0125 K0
G1 X0.6215
G17 G3 X0.634 Y7.4094 I0 J0.0125
X0.512 I-0.061 J0
X0.634 I0.061 J0
X0.6215 Y7.4219 I-0.0125 J0
G1 X0.609
G18 G3 X0.5965 Z-0.0075 I0 K0.0125
G1 Y7.3969
Z-0.011
G2 X0.609 Z-0.0235 I0.0125 K0
G1 X0.6215
G17 G3 X0.634 Y7.4094 I0 J0.0125
X0.512 I-0.061 J0
X0.634 I0.061 J0
X0.6215 Y7.4219 I-0.0125 J0
G1 X0.609
G18 G3 X0.5965 Z-0.011 I0 K0.0125
G0 Z0.2
X0.5771 Y6.3989
G1 Z0.08 F30
Z0.0025
X0.5773 Y6.3986 Z-0.0003
X0.5779 Y6.3979 Z-0.0029
X0.5788 Y6.3967 Z-0.0053
X0.58 Y6.3951 Z-0.0073
X0.5814 Y6.3932 Z-0.0088
X0.583 Y6.3911 Z-0.0097
X0.5846 Y6.3889 Z-0.01
X0.5921 Y6.3789
G17 G3 X0.6096 Y6.3764 I0.01 J0.0075
X0.5364 Y6.474 I-0.0366 J0.0488
X0.6096 Y6.3764 I0.0366 J-0.0488
X0.6121 Y6.3939 I-0.0075 J0.01
G1 X0.6046 Y6.4039
X0.603 Y6.4061 Z-0.0097
X0.6014 Y6.4082 Z-0.0088
X0.6 Y6.4101 Z-0.0073
X0.5988 Y6.4117 Z-0.0053
X0.5979 Y6.4129 Z-0.0029
X0.5973 Y6.4136 Z-0.0003
X0.5971 Y6.4139 Z0.0025
X0.5771 Y6.3989
Z-0.0075
X0.5773 Y6.3986 Z-0.0103
X0.5779 Y6.3979 Z-0.0129
X0.5788 Y6.3967 Z-0.0153
X0.58 Y6.3951 Z-0.0173
X0.5814 Y6.3932 Z-0.0188
X0.583 Y6.3911 Z-0.0197
X0.5846 Y6.3889 Z-0.02
X0.5921 Y6.3789
G3 X0.6096 Y6.3764 I0.01 J0.0075
X0.5364 Y6.474 I-0.0366 J0.0488
X0.6096 Y6.3764 I0.0366 J-0.0488
X0.6121 Y6.3939 I-0.0075 J0.01
G1 X0.6046 Y6.4039
X0.603 Y6.4061 Z-0.0197
X0.6014 Y6.4082 Z-0.0188
X0.6 Y6.4101 Z-0.0173
X0.5988 Y6.4117 Z-0.0153
X0.5979 Y6.4129 Z-0.0129
X0.5973 Y6.4136 Z-0.0103
X0.5971 Y6.4139 Z-0.0075
X0.5771 Y6.3989
Z-0.011
X0.5773 Y6.3986 Z-0.0138
X0.5779 Y6.3979 Z-0.0164
X0.5788 Y6.3967 Z-0.0188
X0.58 Y6.3951 Z-0.0208
X0.5814 Y6.3932 Z-0.0223
X0.583 Y6.3911 Z-0.0232
X0.5846 Y6.3889 Z-0.0235
X0.5921 Y6.3789
G3 X0.6096 Y6.3764 I0.01 J0.0075
X0.5364 Y6.474 I-0.0366 J0.0488
X0.6096 Y6.3764 I0.0366 J-0.0488
X0.6121 Y6.3939 I-0.0075 J0.01
G1 X0.6046 Y6.4039
X0.603 Y6.4061 Z-0.0232
X0.6014 Y6.4082 Z-0.0223
X0.6 Y6.4101 Z-0.0208
X0.5988 Y6.4117 Z-0.0188
X0.5979 Y6.4129 Z-0.0164
X0.5973 Y6.4136 Z-0.0138
X0.5971 Y6.4139 Z-0.011
G0 Z0.2
X0.5771 Y5.4146
G1 Z0.08 F30
Z0.0025
X0.5773 Y5.4144 Z-0.0003
X0.5779 Y5.4136 Z-0.0029
X0.5788 Y5.4125 Z-0.0053
X0.58 Y5.4109 Z-0.0073
X0.5814 Y5.409 Z-0.0088
X0.583 Y5.4069 Z-0.0097
X0.5846 Y5.4046 Z-0.01
X0.5921 Y5.3946
G3 X0.6096 Y5.3921 I0.01 J0.0075
X0.5364 Y5.4897 I-0.0366 J0.0488
X0.6096 Y5.3921 I0.0366 J-0.0488
X0.6121 Y5.4096 I-0.0075 J0.01
G1 X0.6046 Y5.4196
X0.603 Y5.4219 Z-0.0097
X0.6014 Y5.424 Z-0.0088
X0.6 Y5.4259 Z-0.0073
X0.5988 Y5.4275 Z-0.0053
X0.5979 Y5.4286 Z-0.0029
X0.5973 Y5.4294 Z-0.0003
X0.5971 Y5.4296 Z0.0025
X0.5771 Y5.4146
Z-0.0075
X0.5773 Y5.4144 Z-0.0103
X0.5779 Y5.4136 Z-0.0129
X0.5788 Y5.4125 Z-0.0153
X0.58 Y5.4109 Z-0.0173
X0.5814 Y5.409 Z-0.0188
X0.583 Y5.4069 Z-0.0197
X0.5846 Y5.4046 Z-0.02
X0.5921 Y5.3946
G3 X0.6096 Y5.3921 I0.01 J0.0075
X0.5364 Y5.4897 I-0.0366 J0.0488
X0.6096 Y5.3921 I0.0366 J-0.0488
X0.6121 Y5.4096 I-0.0075 J0.01
G1 X0.6046 Y5.4196
X0.603 Y5.4219 Z-0.0197
X0.6014 Y5.424 Z-0.0188
X0.6 Y5.4259 Z-0.0173
X0.5988 Y5.4275 Z-0.0153
X0.5979 Y5.4286 Z-0.0129
X0.5973 Y5.4294 Z-0.0103
X0.5971 Y5.4296 Z-0.0075
X0.5771 Y5.4146
Z-0.011
X0.5773 Y5.4144 Z-0.0138
X0.5779 Y5.4136 Z-0.0164
X0.5788 Y5.4125 Z-0.0188
X0.58 Y5.4109 Z-0.0208
X0.5814 Y5.409 Z-0.0223
X0.583 Y5.4069 Z-0.0232
X0.5846 Y5.4046 Z-0.0235
X0.5921 Y5.3946
G3 X0.6096 Y5.3921 I0.01 J0.0075
X0.5364 Y5.4897 I-0.0366 J0.0488
X0.6096 Y5.3921 I0.0366 J-0.0488
X0.6121 Y5.4096 I-0.0075 J0.01
G1 X0.6046 Y5.4196
X0.603 Y5.4219 Z-0.0232
X0.6014 Y5.424 Z-0.0223
X0.6 Y5.4259 Z-0.0208
X0.5988 Y5.4275 Z-0.0188
X0.5979 Y5.4286 Z-0.0164
X0.5973 Y5.4294 Z-0.0138
X0.5971 Y5.4296 Z-0.011
G0 Z0.2
Y4.468
G1 Z0.08 F30
Z0.0025
X0.5973 Y4.4683 Z-0.0003
X0.5979 Y4.469 Z-0.0029
X0.5988 Y4.4702 Z-0.0053
X0.6 Y4.4718 Z-0.0073
X0.6014 Y4.4737 Z-0.0088
X0.603 Y4.4758 Z-0.0097
X0.6046 Y4.478 Z-0.01
X0.6121 Y4.488
G3 X0.6096 Y4.5055 I-0.01 J0.0075
X0.5364 Y4.4079 I-0.0366 J-0.0488
X0.6096 Y4.5055 I0.0366 J0.0488
X0.5921 Y4.503 I-0.0075 J-0.01
G1 X0.5846 Y4.493
X0.583 Y4.4908 Z-0.0097
X0.5814 Y4.4887 Z-0.0088
X0.58 Y4.4868 Z-0.0073
X0.5788 Y4.4852 Z-0.0053
X0.5779 Y4.484 Z-0.0029
X0.5773 Y4.4833 Z-0.0003
X0.5771 Y4.483 Z0.0025
X0.5971 Y4.468
Z-0.0075
X0.5973 Y4.4683 Z-0.0103
X0.5979 Y4.469 Z-0.0129
X0.5988 Y4.4702 Z-0.0153
X0.6 Y4.4718 Z-0.0173
X0.6014 Y4.4737 Z-0.0188
X0.603 Y4.4758 Z-0.0197
X0.6046 Y4.478 Z-0.02
X0.6121 Y4.488
G3 X0.6096 Y4.5055 I-0.01 J0.0075
X0.5364 Y4.4079 I-0.0366 J-0.0488
X0.6096 Y4.5055 I0.0366 J0.0488
X0.5921 Y4.503 I-0.0075 J-0.01
G1 X0.5846 Y4.493
X0.583 Y4.4908 Z-0.0197
X0.5814 Y4.4887 Z-0.0188
X0.58 Y4.4868 Z-0.0173
X0.5788 Y4.4852 Z-0.0153
X0.5779 Y4.484 Z-0.0129
X0.5773 Y4.4833 Z-0.0103
X0.5771 Y4.483 Z-0.0075
X0.5971 Y4.468
Z-0.011
X0.5973 Y4.4683 Z-0.0138
X0.5979 Y4.469 Z-0.0164
X0.5988 Y4.4702 Z-0.0188
X0.6 Y4.4718 Z-0.0208
X0.6014 Y4.4737 Z-0.0223
X0.603 Y4.4758 Z-0.0232
X0.6046 Y4.478 Z-0.0235
X0.6121 Y4.488
G3 X0.6096 Y4.5055 I-0.01 J0.0075
X0.5364 Y4.4079 I-0.0366 J-0.0488
X0.6096 Y4.5055 I0.0366 J0.0488
X0.5921 Y4.503 I-0.0075 J-0.01
G1 X0.5846 Y4.493
X0.583 Y4.4908 Z-0.0232
X0.5814 Y4.4887 Z-0.0223
X0.58 Y4.4868 Z-0.0208
X0.5788 Y4.4852 Z-0.0188
X0.5779 Y4.484 Z-0.0164
X0.5773 Y4.4833 Z-0.0138
X0.5771 Y4.483 Z-0.011
G0 Z0.2
X0.5965 Y3.4599
G1 Z0.08 F30
Z0.0025
G18 G2 X0.609 Z-0.01 I0.0125 K0
G1 X0.6215
G17 G3 X0.634 Y3.4724 I0 J0.0125
X0.512 I-0.061 J0
X0.634 I0.061 J0
X0.6215 Y3.4849 I-0.0125 J0
G1 X0.609
G18 G3 X0.5965 Z0.0025 I0 K0.0125
G1 Y3.4599
Z-0.0075
G2 X0.609 Z-0.02 I0.0125 K0
G1 X0.6215
G17 G3 X0.634 Y3.4724 I0 J0.0125
X0.512 I-0.061 J0
X0.634 I0.061 J0
X0.6215 Y3.4849 I-0.0125 J0
G1 X0.609
G18 G3 X0.5965 Z-0.0075 I0 K0.0125
G1 Y3.4599
Z-0.011
G2 X0.609 Z-0.0235 I0.0125 K0
G1 X0.6215
G17 G3 X0.634 Y3.4724 I0 J0.0125
X0.512 I-0.061 J0
X0.634 I0.061 J0
X0.6215 Y3.4849 I-0.0125 J0
G1 X0.609
G18 G3 X0.5965 Z-0.011 I0 K0.0125
G0 Z0.2
X0.5829 Y2.4635
G1 Z0.08 F30
Z0.0025
X0.5831 Y2.4632 Z-0.0003
X0.5838 Y2.4627 Z-0.0029
X0.585 Y2.4617 Z-0.0053
X0.5865 Y2.4604 Z-0.0073
X0.5883 Y2.4589 Z-0.0088
X0.5903 Y2.4572 Z-0.0097
X0.5924 Y2.4554 Z-0.01
X0.602 Y2.4473
G17 G3 X0.6195 Y2.4488 I0.008 J0.0095
X0.5265 Y2.5276 I-0.0465 J0.0394
X0.6195 Y2.4488 I0.0465 J-0.0394
X0.618 Y2.4663 I-0.0095 J0.008
G1 X0.6086 Y2.4744
X0.6065 Y2.4762 Z-0.0097
X0.6045 Y2.478 Z-0.0088
X0.6026 Y2.4795 Z-0.0073
X0.6011 Y2.4808 Z-0.0053
X0.6 Y2.4817 Z-0.0029
X0.5993 Y2.4823 Z-0.0003
X0.5991 Y2.4825 Z0.0025
X0.5829 Y2.4635
Z-0.0075
X0.5831 Y2.4632 Z-0.0103
X0.5838 Y2.4627 Z-0.0129
X0.585 Y2.4617 Z-0.0153
X0.5865 Y2.4604 Z-0.0173
X0.5883 Y2.4589 Z-0.0188
X0.5903 Y2.4572 Z-0.0197
X0.5924 Y2.4554 Z-0.02
X0.602 Y2.4473
G3 X0.6195 Y2.4488 I0.008 J0.0095
X0.5265 Y2.5276 I-0.0465 J0.0394
X0.6195 Y2.4488 I0.0465 J-0.0394
X0.618 Y2.4663 I-0.0095 J0.008
G1 X0.6086 Y2.4744
X0.6065 Y2.4762 Z-0.0197
X0.6045 Y2.478 Z-0.0188
X0.6026 Y2.4795 Z-0.0173
X0.6011 Y2.4808 Z-0.0153
X0.6 Y2.4817 Z-0.0129
X0.5993 Y2.4823 Z-0.0103
X0.5991 Y2.4825 Z-0.0075
X0.5829 Y2.4635
Z-0.011
X0.5831 Y2.4632 Z-0.0138
X0.5838 Y2.4627 Z-0.0164
X0.585 Y2.4617 Z-0.0188
X0.5865 Y2.4604 Z-0.0208
X0.5883 Y2.4589 Z-0.0223
X0.5903 Y2.4572 Z-0.0232
X0.5924 Y2.4554 Z-0.0235
X0.602 Y2.4473
G3 X0.6195 Y2.4488 I0.008 J0.0095
X0.5265 Y2.5276 I-0.0465 J0.0394
X0.6195 Y2.4488 I0.0465 J-0.0394
X0.618 Y2.4663 I-0.0095 J0.008
G1 X0.6086 Y2.4744
X0.6065 Y2.4762 Z-0.0232
X0.6045 Y2.478 Z-0.0223
X0.6026 Y2.4795 Z-0.0208
X0.6011 Y2.4808 Z-0.0188
X0.6 Y2.4817 Z-0.0164
X0.5993 Y2.4823 Z-0.0138
X0.5991 Y2.4825 Z-0.011
G0 Z0.2
X0.5965 Y1.4914
G1 Z0.08 F30
Z0.0025
G18 G2 X0.609 Z-0.01 I0.0125 K0
G1 X0.6215
G17 G3 X0.634 Y1.5039 I0 J0.0125
X0.512 I-0.061 J0
X0.634 I0.061 J0
X0.6215 Y1.5164 I-0.0125 J0
G1 X0.609
G18 G3 X0.5965 Z0.0025 I0 K0.0125
G1 Y1.4914
Z-0.0075
G2 X0.609 Z-0.02 I0.0125 K0
G1 X0.6215
G17 G3 X0.634 Y1.5039 I0 J0.0125
X0.512 I-0.061 J0
X0.634 I0.061 J0
X0.6215 Y1.5164 I-0.0125 J0
G1 X0.609
G18 G3 X0.5965 Z-0.0075 I0 K0.0125
G1 Y1.4914
Z-0.011
G2 X0.609 Z-0.0235 I0.0125 K0
G1 X0.6215
G17 G3 X0.634 Y1.5039 I0 J0.0125
X0.512 I-0.061 J0
X0.634 I0.061 J0
X0.6215 Y1.5164 I-0.0125 J0
G1 X0.609
G18 G3 X0.5965 Z-0.011 I0 K0.0125
G0 Z0.6
G17
G28 G91 Z0
G90
G28 G91 X0 Y0
G90
M30
%
