%
(2D Contour2)
(T2  D=0.25 CR=0 - ZMIN=-0.233 - flat end mill)
G90
G17
G20
G28 G91 Z0
G90

(2D Contour2)
T2 M6
S10000 M3
G54
G0 X3.661 Y2.5436
Z0.6
Z0.2
G1 Z0.08 F30
Z-0.015
Y2.5439 Z-0.0189 F60
X3.6611 Y2.5448 Z-0.0227
X3.6613 Y2.5463 Z-0.0263
X3.6616 Y2.5483 Z-0.0297
X3.662 Y2.5508 Z-0.0327
X3.6624 Y2.5538 Z-0.0352
X3.6628 Y2.5571 Z-0.0373
X3.6633 Y2.5607 Z-0.0388
X3.6639 Y2.5645 Z-0.0397
X3.6644 Y2.5683 Z-0.04
X3.6679 Y2.5931
G3 X3.6466 Y2.6214 I-0.0248 J0.0035
X3.6067 Y2.5867 I-0.0049 J-0.0347
G1 X3.6068 Y0.3665
G3 X3.6766 I0.0349 J0
G1 X3.6767 Y2.5867
G3 X3.6466 Y2.6214 I-0.035 J0
X3.6183 Y2.6 I-0.0035 J-0.0248
G1 X3.6149 Y2.5753
X3.6144 Y2.5714 Z-0.0397
X3.6138 Y2.5676 Z-0.0388
X3.6133 Y2.564 Z-0.0373
X3.6129 Y2.5607 Z-0.0352
X3.6125 Y2.5577 Z-0.0327
X3.6121 Y2.5552 Z-0.0297
X3.6118 Y2.5532 Z-0.0263
X3.6116 Y2.5517 Z-0.0227
X3.6115 Y2.5508 Z-0.0189
X3.6114 Y2.5505 Z-0.015
X3.661 Y2.5436
Z-0.055 F30
Y2.5439 Z-0.0589 F60
X3.6611 Y2.5448 Z-0.0627
X3.6613 Y2.5463 Z-0.0663
X3.6616 Y2.5483 Z-0.0697
X3.662 Y2.5508 Z-0.0727
X3.6624 Y2.5538 Z-0.0752
X3.6628 Y2.5571 Z-0.0773
X3.6633 Y2.5607 Z-0.0788
X3.6639 Y2.5645 Z-0.0797
X3.6644 Y2.5683 Z-0.08
X3.6679 Y2.5931
G3 X3.6466 Y2.6214 I-0.0248 J0.0035
X3.6067 Y2.5867 I-0.0049 J-0.0347
G1 X3.6068 Y0.3665
G3 X3.6766 I0.0349 J0
G1 X3.6767 Y2.5867
G3 X3.6466 Y2.6214 I-0.035 J0
X3.6183 Y2.6 I-0.0035 J-0.0248
G1 X3.6149 Y2.5753
X3.6144 Y2.5714 Z-0.0797
X3.6138 Y2.5676 Z-0.0788
X3.6133 Y2.564 Z-0.0773
X3.6129 Y2.5607 Z-0.0752
X3.6125 Y2.5577 Z-0.0727
X3.6121 Y2.5552 Z-0.0697
X3.6118 Y2.5532 Z-0.0663
X3.6116 Y2.5517 Z-0.0627
X3.6115 Y2.5508 Z-0.0589
X3.6114 Y2.5505 Z-0.055
X3.661 Y2.5436
Z-0.095 F30
Y2.5439 Z-0.0989 F60
X3.6611 Y2.5448 Z-0.1027
X3.6613 Y2.5463 Z-0.1063
X3.6616 Y2.5483 Z-0.1097
X3.662 Y2.5508 Z-0.1127
X3.6624 Y2.5538 Z-0.1152
X3.6628 Y2.5571 Z-0.1173
X3.6633 Y2.5607 Z-0.1188
X3.6639 Y2.5645 Z-0.1197
X3.6644 Y2.5683 Z-0.12
X3.6679 Y2.5931
G3 X3.6466 Y2.6214 I-0.0248 J0.0035
X3.6067 Y2.5867 I-0.0049 J-0.0347
G1 X3.6068 Y0.3665
G3 X3.6766 I0.0349 J0
G1 X3.6767 Y2.5867
G3 X3.6466 Y2.6214 I-0.035 J0
X3.6183 Y2.6 I-0.0035 J-0.0248
G1 X3.6149 Y2.5753
X3.6144 Y2.5714 Z-0.1197
X3.6138 Y2.5676 Z-0.1188
X3.6133 Y2.564 Z-0.1173
X3.6129 Y2.5607 Z-0.1152
X3.6125 Y2.5577 Z-0.1127
X3.6121 Y2.5552 Z-0.1097
X3.6118 Y2.5532 Z-0.1063
X3.6116 Y2.5517 Z-0.1027
X3.6115 Y2.5508 Z-0.0989
X3.6114 Y2.5505 Z-0.095
X3.661 Y2.5436
Z-0.135 F30
Y2.5439 Z-0.1389 F60
X3.6611 Y2.5448 Z-0.1427
X3.6613 Y2.5463 Z-0.1463
X3.6616 Y2.5483 Z-0.1497
X3.662 Y2.5508 Z-0.1527
X3.6624 Y2.5538 Z-0.1552
X3.6628 Y2.5571 Z-0.1573
X3.6633 Y2.5607 Z-0.1588
X3.6639 Y2.5645 Z-0.1597
X3.6644 Y2.5683 Z-0.16
X3.6679 Y2.5931
G3 X3.6466 Y2.6214 I-0.0248 J0.0035
X3.6067 Y2.5867 I-0.0049 J-0.0347
G1 X3.6068 Y0.3665
G3 X3.6766 I0.0349 J0
G1 X3.6767 Y2.5867
G3 X3.6466 Y2.6214 I-0.035 J0
X3.6183 Y2.6 I-0.0035 J-0.0248
G1 X3.6149 Y2.5753
X3.6144 Y2.5714 Z-0.1597
X3.6138 Y2.5676 Z-0.1588
X3.6133 Y2.564 Z-0.1573
X3.6129 Y2.5607 Z-0.1552
X3.6125 Y2.5577 Z-0.1527
X3.6121 Y2.5552 Z-0.1497
X3.6118 Y2.5532 Z-0.1463
X3.6116 Y2.5517 Z-0.1427
X3.6115 Y2.5508 Z-0.1389
X3.6114 Y2.5505 Z-0.135
X3.661 Y2.5436
Z-0.175 F30
Y2.5439 Z-0.1789 F60
X3.6611 Y2.5448 Z-0.1827
X3.6613 Y2.5463 Z-0.1863
X3.6616 Y2.5483 Z-0.1897
X3.662 Y2.5508 Z-0.1927
X3.6624 Y2.5538 Z-0.1952
X3.6628 Y2.5571 Z-0.1973
X3.6633 Y2.5607 Z-0.1988
X3.6639 Y2.5645 Z-0.1997
X3.6644 Y2.5683 Z-0.2
X3.6679 Y2.5931
G3 X3.6466 Y2.6214 I-0.0248 J0.0035
X3.6067 Y2.5867 I-0.0049 J-0.0347
G1 X3.6068 Y0.3665
G3 X3.6766 I0.0349 J0
G1 X3.6767 Y2.5867
G3 X3.6466 Y2.6214 I-0.035 J0
X3.6183 Y2.6 I-0.0035 J-0.0248
G1 X3.6149 Y2.5753
X3.6144 Y2.5714 Z-0.1997
X3.6138 Y2.5676 Z-0.1988
X3.6133 Y2.564 Z-0.1973
X3.6129 Y2.5607 Z-0.1952
X3.6125 Y2.5577 Z-0.1927
X3.6121 Y2.5552 Z-0.1897
X3.6118 Y2.5532 Z-0.1863
X3.6116 Y2.5517 Z-0.1827
X3.6115 Y2.5508 Z-0.1789
X3.6114 Y2.5505 Z-0.175
X3.661 Y2.5436
Z-0.208 F30
Y2.5439 Z-0.2119 F60
X3.6611 Y2.5448 Z-0.2157
X3.6613 Y2.5463 Z-0.2193
X3.6616 Y2.5483 Z-0.2227
X3.662 Y2.5508 Z-0.2257
X3.6624 Y2.5538 Z-0.2282
X3.6628 Y2.5571 Z-0.2303
X3.6633 Y2.5607 Z-0.2318
X3.6639 Y2.5645 Z-0.2327
X3.6644 Y2.5683 Z-0.233
X3.6679 Y2.5931
G3 X3.6466 Y2.6214 I-0.0248 J0.0035
X3.6067 Y2.5867 I-0.0049 J-0.0347
G1 X3.6068 Y0.3665
G3 X3.6766 I0.0349 J0
G1 X3.6767 Y2.5867
G3 X3.6466 Y2.6214 I-0.035 J0
X3.6183 Y2.6 I-0.0035 J-0.0248
G1 X3.6149 Y2.5753
X3.6144 Y2.5714 Z-0.2327
X3.6138 Y2.5676 Z-0.2318
X3.6133 Y2.564 Z-0.2303
X3.6129 Y2.5607 Z-0.2282
X3.6125 Y2.5577 Z-0.2257
X3.6121 Y2.5552 Z-0.2227
X3.6118 Y2.5532 Z-0.2193
X3.6116 Y2.5517 Z-0.2157
X3.6115 Y2.5508 Z-0.2119
X3.6114 Y2.5505 Z-0.208
G0 Z0.2
X0.7082 Y2.5436
G1 Z0.08 F30
Z-0.015
Y2.5439 Z-0.0189 F60
X0.7084 Y2.5448 Z-0.0227
X0.7086 Y2.5463 Z-0.0263
X0.7089 Y2.5483 Z-0.0297
X0.7092 Y2.5508 Z-0.0327
X0.7096 Y2.5538 Z-0.0352
X0.7101 Y2.5571 Z-0.0373
X0.7106 Y2.5607 Z-0.0388
X0.7111 Y2.5645 Z-0.0397
X0.7117 Y2.5683 Z-0.04
X0.7151 Y2.5931
G3 X0.6938 Y2.6213 I-0.0247 J0.0035
X0.6541 Y2.5867 I-0.0048 J-0.0346
G1 X0.654 Y0.3665
G3 X0.724 I0.035 J0
G1 X0.7239 Y2.5867
G3 X0.6938 Y2.6213 I-0.0349 J0
X0.6657 Y2.6 I-0.0034 J-0.0247
G1 X0.6621 Y2.5753
X0.6616 Y2.5714 Z-0.0397
X0.6611 Y2.5676 Z-0.0388
X0.6606 Y2.564 Z-0.0373
X0.6601 Y2.5607 Z-0.0352
X0.6597 Y2.5577 Z-0.0327
X0.6593 Y2.5552 Z-0.0297
X0.6591 Y2.5532 Z-0.0263
X0.6589 Y2.5517 Z-0.0227
X0.6587 Y2.5508 Z-0.0189
Y2.5505 Z-0.015
X0.7082 Y2.5436
Z-0.055 F30
Y2.5439 Z-0.0589 F60
X0.7084 Y2.5448 Z-0.0627
X0.7086 Y2.5463 Z-0.0663
X0.7089 Y2.5483 Z-0.0697
X0.7092 Y2.5508 Z-0.0727
X0.7096 Y2.5538 Z-0.0752
X0.7101 Y2.5571 Z-0.0773
X0.7106 Y2.5607 Z-0.0788
X0.7111 Y2.5645 Z-0.0797
X0.7117 Y2.5683 Z-0.08
X0.7151 Y2.5931
G3 X0.6938 Y2.6213 I-0.0247 J0.0035
X0.6541 Y2.5867 I-0.0048 J-0.0346
G1 X0.654 Y0.3665
G3 X0.724 I0.035 J0
G1 X0.7239 Y2.5867
G3 X0.6938 Y2.6213 I-0.0349 J0
X0.6657 Y2.6 I-0.0034 J-0.0247
G1 X0.6621 Y2.5753
X0.6616 Y2.5714 Z-0.0797
X0.6611 Y2.5676 Z-0.0788
X0.6606 Y2.564 Z-0.0773
X0.6601 Y2.5607 Z-0.0752
X0.6597 Y2.5577 Z-0.0727
X0.6593 Y2.5552 Z-0.0697
X0.6591 Y2.5532 Z-0.0663
X0.6589 Y2.5517 Z-0.0627
X0.6587 Y2.5508 Z-0.0589
Y2.5505 Z-0.055
X0.7082 Y2.5436
Z-0.095 F30
Y2.5439 Z-0.0989 F60
X0.7084 Y2.5448 Z-0.1027
X0.7086 Y2.5463 Z-0.1063
X0.7089 Y2.5483 Z-0.1097
X0.7092 Y2.5508 Z-0.1127
X0.7096 Y2.5538 Z-0.1152
X0.7101 Y2.5571 Z-0.1173
X0.7106 Y2.5607 Z-0.1188
X0.7111 Y2.5645 Z-0.1197
X0.7117 Y2.5683 Z-0.12
X0.7151 Y2.5931
G3 X0.6938 Y2.6213 I-0.0247 J0.0035
X0.6541 Y2.5867 I-0.0048 J-0.0346
G1 X0.654 Y0.3665
G3 X0.724 I0.035 J0
G1 X0.7239 Y2.5867
G3 X0.6938 Y2.6213 I-0.0349 J0
X0.6657 Y2.6 I-0.0034 J-0.0247
G1 X0.6621 Y2.5753
X0.6616 Y2.5714 Z-0.1197
X0.6611 Y2.5676 Z-0.1188
X0.6606 Y2.564 Z-0.1173
X0.6601 Y2.5607 Z-0.1152
X0.6597 Y2.5577 Z-0.1127
X0.6593 Y2.5552 Z-0.1097
X0.6591 Y2.5532 Z-0.1063
X0.6589 Y2.5517 Z-0.1027
X0.6587 Y2.5508 Z-0.0989
Y2.5505 Z-0.095
X0.7082 Y2.5436
Z-0.135 F30
Y2.5439 Z-0.1389 F60
X0.7084 Y2.5448 Z-0.1427
X0.7086 Y2.5463 Z-0.1463
X0.7089 Y2.5483 Z-0.1497
X0.7092 Y2.5508 Z-0.1527
X0.7096 Y2.5538 Z-0.1552
X0.7101 Y2.5571 Z-0.1573
X0.7106 Y2.5607 Z-0.1588
X0.7111 Y2.5645 Z-0.1597
X0.7117 Y2.5683 Z-0.16
X0.7151 Y2.5931
G3 X0.6938 Y2.6213 I-0.0247 J0.0035
X0.6541 Y2.5867 I-0.0048 J-0.0346
G1 X0.654 Y0.3665
G3 X0.724 I0.035 J0
G1 X0.7239 Y2.5867
G3 X0.6938 Y2.6213 I-0.0349 J0
X0.6657 Y2.6 I-0.0034 J-0.0247
G1 X0.6621 Y2.5753
X0.6616 Y2.5714 Z-0.1597
X0.6611 Y2.5676 Z-0.1588
X0.6606 Y2.564 Z-0.1573
X0.6601 Y2.5607 Z-0.1552
X0.6597 Y2.5577 Z-0.1527
X0.6593 Y2.5552 Z-0.1497
X0.6591 Y2.5532 Z-0.1463
X0.6589 Y2.5517 Z-0.1427
X0.6587 Y2.5508 Z-0.1389
Y2.5505 Z-0.135
X0.7082 Y2.5436
Z-0.175 F30
Y2.5439 Z-0.1789 F60
X0.7084 Y2.5448 Z-0.1827
X0.7086 Y2.5463 Z-0.1863
X0.7089 Y2.5483 Z-0.1897
X0.7092 Y2.5508 Z-0.1927
X0.7096 Y2.5538 Z-0.1952
X0.7101 Y2.5571 Z-0.1973
X0.7106 Y2.5607 Z-0.1988
X0.7111 Y2.5645 Z-0.1997
X0.7117 Y2.5683 Z-0.2
X0.7151 Y2.5931
G3 X0.6938 Y2.6213 I-0.0247 J0.0035
X0.6541 Y2.5867 I-0.0048 J-0.0346
G1 X0.654 Y0.3665
G3 X0.724 I0.035 J0
G1 X0.7239 Y2.5867
G3 X0.6938 Y2.6213 I-0.0349 J0
X0.6657 Y2.6 I-0.0034 J-0.0247
G1 X0.6621 Y2.5753
X0.6616 Y2.5714 Z-0.1997
X0.6611 Y2.5676 Z-0.1988
X0.6606 Y2.564 Z-0.1973
X0.6601 Y2.5607 Z-0.1952
X0.6597 Y2.5577 Z-0.1927
X0.6593 Y2.5552 Z-0.1897
X0.6591 Y2.5532 Z-0.1863
X0.6589 Y2.5517 Z-0.1827
X0.6587 Y2.5508 Z-0.1789
Y2.5505 Z-0.175
X0.7082 Y2.5436
Z-0.208 F30
Y2.5439 Z-0.2119 F60
X0.7084 Y2.5448 Z-0.2157
X0.7086 Y2.5463 Z-0.2193
X0.7089 Y2.5483 Z-0.2227
X0.7092 Y2.5508 Z-0.2257
X0.7096 Y2.5538 Z-0.2282
X0.7101 Y2.5571 Z-0.2303
X0.7106 Y2.5607 Z-0.2318
X0.7111 Y2.5645 Z-0.2327
X0.7117 Y2.5683 Z-0.233
X0.7151 Y2.5931
G3 X0.6938 Y2.6213 I-0.0247 J0.0035
X0.6541 Y2.5867 I-0.0048 J-0.0346
G1 X0.654 Y0.3665
G3 X0.724 I0.035 J0
G1 X0.7239 Y2.5867
G3 X0.6938 Y2.6213 I-0.0349 J0
X0.6657 Y2.6 I-0.0034 J-0.0247
G1 X0.6621 Y2.5753
X0.6616 Y2.5714 Z-0.2327
X0.6611 Y2.5676 Z-0.2318
X0.6606 Y2.564 Z-0.2303
X0.6601 Y2.5607 Z-0.2282
X0.6597 Y2.5577 Z-0.2257
X0.6593 Y2.5552 Z-0.2227
X0.6591 Y2.5532 Z-0.2193
X0.6589 Y2.5517 Z-0.2157
X0.6587 Y2.5508 Z-0.2119
Y2.5505 Z-0.208
G0 Z0.6
G28 G91 Z0
G90
G28 G91 X0 Y0
G90
M30
%
