%
(faceplate side)
(T2  D=0.25 CR=0 - ZMIN=-0.233 - flat end mill)
G90
G17
G20
G28 G91 Z0
G90

(2D Contour3)
T2 M6
S10000 M3
G54
G0 X4.5307 Y2.9778
Z0.6
Z0.2
G1 Z0.08 F30
Z-0.015
G18 G3 X4.5057 Z-0.04 I-0.025 K0 F60
G1 X4.4807
G17 G3 X4.4557 Y2.9528 I0 J-0.025
G1 Y0
G3 X4.4807 Y-0.025 I0.025 J0
G1 X4.5057
G18 G2 X4.5307 Z-0.015 I0 K0.025
G0 Z0.2
Y2.9778
G1 Z0.04 F30
Z-0.055
G3 X4.5057 Z-0.08 I-0.025 K0 F60
G1 X4.4807
G17 G3 X4.4557 Y2.9528 I0 J-0.025
G1 Y0
G3 X4.4807 Y-0.025 I0.025 J0
G1 X4.5057
G18 G2 X4.5307 Z-0.055 I0 K0.025
G0 Z0.2
Y2.9778
G1 Z0 F30
Z-0.095
G3 X4.5057 Z-0.12 I-0.025 K0 F60
G1 X4.4807
G17 G3 X4.4557 Y2.9528 I0 J-0.025
G1 Y0
G3 X4.4807 Y-0.025 I0.025 J0
G1 X4.5057
G18 G2 X4.5307 Z-0.095 I0 K0.025
G0 Z0.2
Y2.9778
G1 Z-0.04 F30
Z-0.135
G3 X4.5057 Z-0.16 I-0.025 K0 F60
G1 X4.4807
G17 G3 X4.4557 Y2.9528 I0 J-0.025
G1 Y0
G3 X4.4807 Y-0.025 I0.025 J0
G1 X4.5057
G18 G2 X4.5307 Z-0.135 I0 K0.025
G0 Z0.2
Y2.9778
G1 Z-0.08 F30
Z-0.175
G3 X4.5057 Z-0.2 I-0.025 K0 F60
G1 X4.4807
G17 G3 X4.4557 Y2.9528 I0 J-0.025
G1 Y0
G3 X4.4807 Y-0.025 I0.025 J0
G1 X4.5057
G18 G2 X4.5307 Z-0.175 I0 K0.025
G0 Z0.2
Y2.9778
G1 Z-0.12 F30
Z-0.208
G3 X4.5057 Z-0.233 I-0.025 K0 F60
G1 X4.4807
G17 G3 X4.4557 Y2.9528 I0 J-0.025
G1 Y0
G3 X4.4807 Y-0.025 I0.025 J0
G1 X4.5057
G18 G2 X4.5307 Z-0.208 I0 K0.025
G0 Z0.6
G17
G28 G91 Z0
G90
G28 G91 X0 Y0
G90
M30
%
