%
(faceplate top cut)
(T2  D=0.25 CR=0 - ZMIN=-0.233 - flat end mill)
G90
G17
G20
G28 G91 Z0
G90

(2D Contour3)
T2 M6
S10000 M3
G54
G0 X-0.025 Y3.1528
Z0.6
Z0.2
G1 Z0.08 F30
Z-0.015
G19 G2 Y3.1278 Z-0.04 J-0.025 K0 F60
G1 Y3.1028
G17 G3 X0 Y3.0778 I0.025 J0
G1 X4.3307
G3 X4.3557 Y3.1028 I0 J0.025
G1 Y3.1278
G19 G3 Y3.1528 Z-0.015 J0 K0.025
G0 Z0.2
X-0.025
G1 Z0.04 F30
Z-0.055
G2 Y3.1278 Z-0.08 J-0.025 K0 F60
G1 Y3.1028
G17 G3 X0 Y3.0778 I0.025 J0
G1 X4.3307
G3 X4.3557 Y3.1028 I0 J0.025
G1 Y3.1278
G19 G3 Y3.1528 Z-0.055 J0 K0.025
G0 Z0.2
X-0.025
G1 Z0 F30
Z-0.095
G2 Y3.1278 Z-0.12 J-0.025 K0 F60
G1 Y3.1028
G17 G3 X0 Y3.0778 I0.025 J0
G1 X4.3307
G3 X4.3557 Y3.1028 I0 J0.025
G1 Y3.1278
G19 G3 Y3.1528 Z-0.095 J0 K0.025
G0 Z0.2
X-0.025
G1 Z-0.04 F30
Z-0.135
G2 Y3.1278 Z-0.16 J-0.025 K0 F60
G1 Y3.1028
G17 G3 X0 Y3.0778 I0.025 J0
G1 X4.3307
G3 X4.3557 Y3.1028 I0 J0.025
G1 Y3.1278
G19 G3 Y3.1528 Z-0.135 J0 K0.025
G0 Z0.2
X-0.025
G1 Z-0.08 F30
Z-0.175
G2 Y3.1278 Z-0.2 J-0.025 K0 F60
G1 Y3.1028
G17 G3 X0 Y3.0778 I0.025 J0
G1 X4.3307
G3 X4.3557 Y3.1028 I0 J0.025
G1 Y3.1278
G19 G3 Y3.1528 Z-0.175 J0 K0.025
G0 Z0.2
X-0.025
G1 Z-0.12 F30
Z-0.208
G2 Y3.1278 Z-0.233 J-0.025 K0 F60
G1 Y3.1028
G17 G3 X0 Y3.0778 I0.025 J0
G1 X4.3307
G3 X4.3557 Y3.1028 I0 J0.025
G1 Y3.1278
G19 G3 Y3.1528 Z-0.208 J0 K0.025
G0 Z0.6
G17
G28 G91 Z0
G90
G28 G91 X0 Y0
G90
M30
%
