%
(head Fixercircle)
(T2  D=0.25 CR=0 - ZMIN=-0.233 - flat end mill)
G90
G17
G20
G28 G91 Z0
G90

(2D Contour4)
T2 M6
S10000 M3
G54
G0 X1.3717 Y0.2262
Z0.6
Z0.2
G1 Z0.08 F30
Z-0.015
X1.372 Z-0.0189 F60
X1.373 Z-0.0227
X1.3745 Z-0.0263
X1.3765 Z-0.0297
X1.3791 Z-0.0327
X1.382 Z-0.0352
X1.3854 Z-0.0373
X1.389 Z-0.0388
X1.3928 Y0.2261 Z-0.0397
X1.3967 Z-0.04
X1.4217 Y0.226
G3 X1.4468 Y0.2509 I0.0001 J0.025
X0.3584 Y0.2553 I-0.5442 J0.0022
X0.3832 Y0.2303 I0.0249 J-0.0001
G1 X0.4082 Y0.2301
X0.4121 Y0.23 Z-0.0397
X0.4159 Z-0.0388
X0.4195 Z-0.0373
X0.4229 Z-0.0352
X0.4258 Z-0.0327
X0.4284 Z-0.0297
X0.4304 Z-0.0263
X0.4319 Z-0.0227
X0.4329 Z-0.0189
X0.4332 Z-0.015
X1.3717 Y0.2262
Z-0.055 F30
X1.372 Z-0.0589 F60
X1.373 Z-0.0627
X1.3745 Z-0.0663
X1.3765 Z-0.0697
X1.3791 Z-0.0727
X1.382 Z-0.0752
X1.3854 Z-0.0773
X1.389 Z-0.0788
X1.3928 Y0.2261 Z-0.0797
X1.3967 Z-0.08
X1.4217 Y0.226
G3 X1.4468 Y0.2509 I0.0001 J0.025
X0.3584 Y0.2553 I-0.5442 J0.0022
X0.3832 Y0.2303 I0.0249 J-0.0001
G1 X0.4082 Y0.2301
X0.4121 Y0.23 Z-0.0797
X0.4159 Z-0.0788
X0.4195 Z-0.0773
X0.4229 Z-0.0752
X0.4258 Z-0.0727
X0.4284 Z-0.0697
X0.4304 Z-0.0663
X0.4319 Z-0.0627
X0.4329 Z-0.0589
X0.4332 Z-0.055
X1.3717 Y0.2262
Z-0.095 F30
X1.372 Z-0.0989 F60
X1.373 Z-0.1027
X1.3745 Z-0.1063
X1.3765 Z-0.1097
X1.3791 Z-0.1127
X1.382 Z-0.1152
X1.3854 Z-0.1173
X1.389 Z-0.1188
X1.3928 Y0.2261 Z-0.1197
X1.3967 Z-0.12
X1.4217 Y0.226
G3 X1.4468 Y0.2509 I0.0001 J0.025
X0.3584 Y0.2553 I-0.5442 J0.0022
X0.3832 Y0.2303 I0.0249 J-0.0001
G1 X0.4082 Y0.2301
X0.4121 Y0.23 Z-0.1197
X0.4159 Z-0.1188
X0.4195 Z-0.1173
X0.4229 Z-0.1152
X0.4258 Z-0.1127
X0.4284 Z-0.1097
X0.4304 Z-0.1063
X0.4319 Z-0.1027
X0.4329 Z-0.0989
X0.4332 Z-0.095
X1.3717 Y0.2262
Z-0.135 F30
X1.372 Z-0.1389 F60
X1.373 Z-0.1427
X1.3745 Z-0.1463
X1.3765 Z-0.1497
X1.3791 Z-0.1527
X1.382 Z-0.1552
X1.3854 Z-0.1573
X1.389 Z-0.1588
X1.3928 Y0.2261 Z-0.1597
X1.3967 Z-0.16
X1.4217 Y0.226
G3 X1.4468 Y0.2509 I0.0001 J0.025
X0.3584 Y0.2553 I-0.5442 J0.0022
X0.3832 Y0.2303 I0.0249 J-0.0001
G1 X0.4082 Y0.2301
X0.4121 Y0.23 Z-0.1597
X0.4159 Z-0.1588
X0.4195 Z-0.1573
X0.4229 Z-0.1552
X0.4258 Z-0.1527
X0.4284 Z-0.1497
X0.4304 Z-0.1463
X0.4319 Z-0.1427
X0.4329 Z-0.1389
X0.4332 Z-0.135
X1.3717 Y0.2262
Z-0.175 F30
X1.372 Z-0.1789 F60
X1.373 Z-0.1827
X1.3745 Z-0.1863
X1.3765 Z-0.1897
X1.3791 Z-0.1927
X1.382 Z-0.1952
X1.3854 Z-0.1973
X1.389 Z-0.1988
X1.3928 Y0.2261 Z-0.1997
X1.3967 Z-0.2
X1.4217 Y0.226
G3 X1.4468 Y0.2509 I0.0001 J0.025
X0.3584 Y0.2553 I-0.5442 J0.0022
X0.3832 Y0.2303 I0.0249 J-0.0001
G1 X0.4082 Y0.2301
X0.4121 Y0.23 Z-0.1997
X0.4159 Z-0.1988
X0.4195 Z-0.1973
X0.4229 Z-0.1952
X0.4258 Z-0.1927
X0.4284 Z-0.1897
X0.4304 Z-0.1863
X0.4319 Z-0.1827
X0.4329 Z-0.1789
X0.4332 Z-0.175
X1.3717 Y0.2262
Z-0.208 F30
X1.372 Z-0.2119 F60
X1.373 Z-0.2157
X1.3745 Z-0.2193
X1.3765 Z-0.2227
X1.3791 Z-0.2257
X1.382 Z-0.2282
X1.3854 Z-0.2303
X1.389 Z-0.2318
X1.3928 Y0.2261 Z-0.2327
X1.3967 Z-0.233
X1.4217 Y0.226
G3 X1.4468 Y0.2509 I0.0001 J0.025
X0.3584 Y0.2553 I-0.5442 J0.0022
X0.3832 Y0.2303 I0.0249 J-0.0001
G1 X0.4082 Y0.2301
X0.4121 Y0.23 Z-0.2327
X0.4159 Z-0.2318
X0.4195 Z-0.2303
X0.4229 Z-0.2282
X0.4258 Z-0.2257
X0.4284 Z-0.2227
X0.4304 Z-0.2193
X0.4319 Z-0.2157
X0.4329 Z-0.2119
X0.4332 Z-0.208
G0 Z0.6
G28 G91 Z0
G90
G28 G91 X0 Y0
G90
M30
%
