%
(head Fixer L side)
(T2  D=0.25 CR=0 - ZMIN=-0.233 - flat end mill)
G90
G17
G20
G28 G91 Z0
G90

(2D Contour4)
T2 M6
S10000 M3
G54
G0 X-0.0751 Y0.232
Z0.6
Z0.2
G1 Z0.08 F30
Z-0.015
X-0.0748 Z-0.0189 F60
X-0.0739 Z-0.0227
X-0.0724 Z-0.0263
X-0.0703 Z-0.0297
X-0.0678 Y0.2319 Z-0.0327
X-0.0648 Z-0.0352
X-0.0614 Z-0.0373
X-0.0578 Z-0.0388
X-0.054 Z-0.0397
X-0.0501 Z-0.04
X-0.0251 Y0.2318
G3 X0 Y0.2567 I0.0001 J0.025
G1 X0.0133 Y3.6031
G3 X-0.0116 Y3.6282 I-0.025 J0.0001
G1 X-0.0366 Y3.6283
X-0.0405 Z-0.0397
X-0.0443 Z-0.0388
X-0.0479 Y3.6284 Z-0.0373
X-0.0513 Z-0.0352
X-0.0543 Z-0.0327
X-0.0568 Z-0.0297
X-0.0589 Z-0.0263
X-0.0604 Z-0.0227
X-0.0613 Z-0.0189
X-0.0616 Z-0.015
G0 Z0.2
X-0.0751 Y0.232
G1 Z0.04 F30
Z-0.055
X-0.0748 Z-0.0589 F60
X-0.0739 Z-0.0627
X-0.0724 Z-0.0663
X-0.0703 Z-0.0697
X-0.0678 Y0.2319 Z-0.0727
X-0.0648 Z-0.0752
X-0.0614 Z-0.0773
X-0.0578 Z-0.0788
X-0.054 Z-0.0797
X-0.0501 Z-0.08
X-0.0251 Y0.2318
G3 X0 Y0.2567 I0.0001 J0.025
G1 X0.0133 Y3.6031
G3 X-0.0116 Y3.6282 I-0.025 J0.0001
G1 X-0.0366 Y3.6283
X-0.0405 Z-0.0797
X-0.0443 Z-0.0788
X-0.0479 Y3.6284 Z-0.0773
X-0.0513 Z-0.0752
X-0.0543 Z-0.0727
X-0.0568 Z-0.0697
X-0.0589 Z-0.0663
X-0.0604 Z-0.0627
X-0.0613 Z-0.0589
X-0.0616 Z-0.055
G0 Z0.2
X-0.0751 Y0.232
G1 Z0 F30
Z-0.095
X-0.0748 Z-0.0989 F60
X-0.0739 Z-0.1027
X-0.0724 Z-0.1063
X-0.0703 Z-0.1097
X-0.0678 Y0.2319 Z-0.1127
X-0.0648 Z-0.1152
X-0.0614 Z-0.1173
X-0.0578 Z-0.1188
X-0.054 Z-0.1197
X-0.0501 Z-0.12
X-0.0251 Y0.2318
G3 X0 Y0.2567 I0.0001 J0.025
G1 X0.0133 Y3.6031
G3 X-0.0116 Y3.6282 I-0.025 J0.0001
G1 X-0.0366 Y3.6283
X-0.0405 Z-0.1197
X-0.0443 Z-0.1188
X-0.0479 Y3.6284 Z-0.1173
X-0.0513 Z-0.1152
X-0.0543 Z-0.1127
X-0.0568 Z-0.1097
X-0.0589 Z-0.1063
X-0.0604 Z-0.1027
X-0.0613 Z-0.0989
X-0.0616 Z-0.095
G0 Z0.2
X-0.0751 Y0.232
G1 Z-0.04 F30
Z-0.135
X-0.0748 Z-0.1389 F60
X-0.0739 Z-0.1427
X-0.0724 Z-0.1463
X-0.0703 Z-0.1497
X-0.0678 Y0.2319 Z-0.1527
X-0.0648 Z-0.1552
X-0.0614 Z-0.1573
X-0.0578 Z-0.1588
X-0.054 Z-0.1597
X-0.0501 Z-0.16
X-0.0251 Y0.2318
G3 X0 Y0.2567 I0.0001 J0.025
G1 X0.0133 Y3.6031
G3 X-0.0116 Y3.6282 I-0.025 J0.0001
G1 X-0.0366 Y3.6283
X-0.0405 Z-0.1597
X-0.0443 Z-0.1588
X-0.0479 Y3.6284 Z-0.1573
X-0.0513 Z-0.1552
X-0.0543 Z-0.1527
X-0.0568 Z-0.1497
X-0.0589 Z-0.1463
X-0.0604 Z-0.1427
X-0.0613 Z-0.1389
X-0.0616 Z-0.135
G0 Z0.2
X-0.0751 Y0.232
G1 Z-0.08 F30
Z-0.175
X-0.0748 Z-0.1789 F60
X-0.0739 Z-0.1827
X-0.0724 Z-0.1863
X-0.0703 Z-0.1897
X-0.0678 Y0.2319 Z-0.1927
X-0.0648 Z-0.1952
X-0.0614 Z-0.1973
X-0.0578 Z-0.1988
X-0.054 Z-0.1997
X-0.0501 Z-0.2
X-0.0251 Y0.2318
G3 X0 Y0.2567 I0.0001 J0.025
G1 X0.0133 Y3.6031
G3 X-0.0116 Y3.6282 I-0.025 J0.0001
G1 X-0.0366 Y3.6283
X-0.0405 Z-0.1997
X-0.0443 Z-0.1988
X-0.0479 Y3.6284 Z-0.1973
X-0.0513 Z-0.1952
X-0.0543 Z-0.1927
X-0.0568 Z-0.1897
X-0.0589 Z-0.1863
X-0.0604 Z-0.1827
X-0.0613 Z-0.1789
X-0.0616 Z-0.175
G0 Z0.2
X-0.0751 Y0.232
G1 Z-0.12 F30
Z-0.208
X-0.0748 Z-0.2119 F60
X-0.0739 Z-0.2157
X-0.0724 Z-0.2193
X-0.0703 Z-0.2227
X-0.0678 Y0.2319 Z-0.2257
X-0.0648 Z-0.2282
X-0.0614 Z-0.2303
X-0.0578 Z-0.2318
X-0.054 Z-0.2327
X-0.0501 Z-0.233
X-0.0251 Y0.2318
G3 X0 Y0.2567 I0.0001 J0.025
G1 X0.0133 Y3.6031
G3 X-0.0116 Y3.6282 I-0.025 J0.0001
G1 X-0.0366 Y3.6283
X-0.0405 Z-0.2327
X-0.0443 Z-0.2318
X-0.0479 Y3.6284 Z-0.2303
X-0.0513 Z-0.2282
X-0.0543 Z-0.2257
X-0.0568 Z-0.2227
X-0.0589 Z-0.2193
X-0.0604 Z-0.2157
X-0.0613 Z-0.2119
X-0.0616 Z-0.208
G0 Z0.6
G28 G91 Z0
G90
G28 G91 X0 Y0
G90
M30
%
