%
(Cage Top )
(T2  D=0.125 CR=0 - ZMIN=-0.1452 - flat end mill)
G90
G17
G20
G28 G91 Z0
G90

(2D Contour1)
T2 M6
S10000 M3
G54
G0 X-0.1 Y-0.0125
Z0.6
Z0.2
G1 Z0.08 F15
Z0.0025
G18 G2 X-0.0875 Z-0.01 I0.0125 K0
G1 X-0.075
G17 G3 X-0.0625 Y0 I0 J0.0125
G1 Y11.9754
G2 X0 Y12.0379 I0.0625 J0
G1 X8
G2 X8.0625 Y11.9754 I0 J-0.0625
G1 Y0
G2 X8 Y-0.0625 I-0.0625 J0
G1 X0
G2 X-0.0625 Y0 I0 J0.0625
G3 X-0.075 Y0.0125 I-0.0125 J0
G1 X-0.0875
G18 G3 X-0.1 Z0.0025 I0 K0.0125
G1 Y-0.0125
Z-0.0075
G2 X-0.0875 Z-0.02 I0.0125 K0
G1 X-0.075
G17 G3 X-0.0625 Y0 I0 J0.0125
G1 Y11.9754
G2 X0 Y12.0379 I0.0625 J0
G1 X8
G2 X8.0625 Y11.9754 I0 J-0.0625
G1 Y0
G2 X8 Y-0.0625 I-0.0625 J0
G1 X0
G2 X-0.0625 Y0 I0 J0.0625
G3 X-0.075 Y0.0125 I-0.0125 J0
G1 X-0.0875
G18 G3 X-0.1 Z-0.0075 I0 K0.0125
G1 Y-0.0125
Z-0.0175
G2 X-0.0875 Z-0.03 I0.0125 K0
G1 X-0.075
G17 G3 X-0.0625 Y0 I0 J0.0125
G1 Y11.9754
G2 X0 Y12.0379 I0.0625 J0
G1 X8
G2 X8.0625 Y11.9754 I0 J-0.0625
G1 Y0
G2 X8 Y-0.0625 I-0.0625 J0
G1 X0
G2 X-0.0625 Y0 I0 J0.0625
G3 X-0.075 Y0.0125 I-0.0125 J0
G1 X-0.0875
G18 G3 X-0.1 Z-0.0175 I0 K0.0125
G1 Y-0.0125
Z-0.0275
G2 X-0.0875 Z-0.04 I0.0125 K0
G1 X-0.075
G17 G3 X-0.0625 Y0 I0 J0.0125
G1 Y11.9754
G2 X0 Y12.0379 I0.0625 J0
G1 X8
G2 X8.0625 Y11.9754 I0 J-0.0625
G1 Y0
G2 X8 Y-0.0625 I-0.0625 J0
G1 X0
G2 X-0.0625 Y0 I0 J0.0625
G3 X-0.075 Y0.0125 I-0.0125 J0
G1 X-0.0875
G18 G3 X-0.1 Z-0.0275 I0 K0.0125
G1 Y-0.0125
Z-0.0375
G2 X-0.0875 Z-0.05 I0.0125 K0
G1 X-0.075
G17 G3 X-0.0625 Y0 I0 J0.0125
G1 Y11.9754
G2 X0 Y12.0379 I0.0625 J0
G1 X8
G2 X8.0625 Y11.9754 I0 J-0.0625
G1 Y0
G2 X8 Y-0.0625 I-0.0625 J0
G1 X0
G2 X-0.0625 Y0 I0 J0.0625
G3 X-0.075 Y0.0125 I-0.0125 J0
G1 X-0.0875
G18 G3 X-0.1 Z-0.0375 I0 K0.0125
G1 Y-0.0125
Z-0.0475
G2 X-0.0875 Z-0.06 I0.0125 K0
G1 X-0.075
G17 G3 X-0.0625 Y0 I0 J0.0125
G1 Y11.9754
G2 X0 Y12.0379 I0.0625 J0
G1 X8
G2 X8.0625 Y11.9754 I0 J-0.0625
G1 Y0
G2 X8 Y-0.0625 I-0.0625 J0
G1 X0
G2 X-0.0625 Y0 I0 J0.0625
G3 X-0.075 Y0.0125 I-0.0125 J0
G1 X-0.0875
G18 G3 X-0.1 Z-0.0475 I0 K0.0125
G1 Y-0.0125
Z-0.0575
G2 X-0.0875 Z-0.07 I0.0125 K0
G1 X-0.075
G17 G3 X-0.0625 Y0 I0 J0.0125
G1 Y11.9754
G2 X0 Y12.0379 I0.0625 J0
G1 X8
G2 X8.0625 Y11.9754 I0 J-0.0625
G1 Y0
G2 X8 Y-0.0625 I-0.0625 J0
G1 X0
G2 X-0.0625 Y0 I0 J0.0625
G3 X-0.075 Y0.0125 I-0.0125 J0
G1 X-0.0875
G18 G3 X-0.1 Z-0.0575 I0 K0.0125
G1 Y-0.0125
Z-0.0675
G2 X-0.0875 Z-0.08 I0.0125 K0
G1 X-0.075
G17 G3 X-0.0625 Y0 I0 J0.0125
G1 Y11.9754
G2 X0 Y12.0379 I0.0625 J0
G1 X8
G2 X8.0625 Y11.9754 I0 J-0.0625
G1 Y0
G2 X8 Y-0.0625 I-0.0625 J0
G1 X0
G2 X-0.0625 Y0 I0 J0.0625
G3 X-0.075 Y0.0125 I-0.0125 J0
G1 X-0.0875
G18 G3 X-0.1 Z-0.0675 I0 K0.0125
G1 Y-0.0125
Z-0.0775
G2 X-0.0875 Z-0.09 I0.0125 K0
G1 X-0.075
G17 G3 X-0.0625 Y0 I0 J0.0125
G1 Y11.9754
G2 X0 Y12.0379 I0.0625 J0
G1 X8
G2 X8.0625 Y11.9754 I0 J-0.0625
G1 Y0
G2 X8 Y-0.0625 I-0.0625 J0
G1 X0
G2 X-0.0625 Y0 I0 J0.0625
G3 X-0.075 Y0.0125 I-0.0125 J0
G1 X-0.0875
G18 G3 X-0.1 Z-0.0775 I0 K0.0125
G1 Y-0.0125
Z-0.0875
G2 X-0.0875 Z-0.1 I0.0125 K0
G1 X-0.075
G17 G3 X-0.0625 Y0 I0 J0.0125
G1 Y11.9754
G2 X0 Y12.0379 I0.0625 J0
G1 X8
G2 X8.0625 Y11.9754 I0 J-0.0625
G1 Y0
G2 X8 Y-0.0625 I-0.0625 J0
G1 X0
G2 X-0.0625 Y0 I0 J0.0625
G3 X-0.075 Y0.0125 I-0.0125 J0
G1 X-0.0875
G18 G3 X-0.1 Z-0.0875 I0 K0.0125
G1 Y-0.0125
Z-0.0975
G2 X-0.0875 Z-0.11 I0.0125 K0
G1 X-0.075
G17 G3 X-0.0625 Y0 I0 J0.0125
G1 Y11.9754
G2 X0 Y12.0379 I0.0625 J0
G1 X8
G2 X8.0625 Y11.9754 I0 J-0.0625
G1 Y0
G2 X8 Y-0.0625 I-0.0625 J0
G1 X0
G2 X-0.0625 Y0 I0 J0.0625
G3 X-0.075 Y0.0125 I-0.0125 J0
G1 X-0.0875
G18 G3 X-0.1 Z-0.0975 I0 K0.0125
G1 Y-0.0125
Z-0.1075
G2 X-0.0875 Z-0.12 I0.0125 K0
G1 X-0.075
G17 G3 X-0.0625 Y0 I0 J0.0125
G1 Y11.9754
G2 X0 Y12.0379 I0.0625 J0
G1 X8
G2 X8.0625 Y11.9754 I0 J-0.0625
G1 Y0
G2 X8 Y-0.0625 I-0.0625 J0
G1 X0
G2 X-0.0625 Y0 I0 J0.0625
G3 X-0.075 Y0.0125 I-0.0125 J0
G1 X-0.0875
G18 G3 X-0.1 Z-0.1075 I0 K0.0125
G1 Y-0.0125
Z-0.1175
G2 X-0.0875 Z-0.13 I0.0125 K0
G1 X-0.075
G17 G3 X-0.0625 Y0 I0 J0.0125
G1 Y11.9754
G2 X0 Y12.0379 I0.0625 J0
G1 X8
G2 X8.0625 Y11.9754 I0 J-0.0625
G1 Y0
G2 X8 Y-0.0625 I-0.0625 J0
G1 X0
G2 X-0.0625 Y0 I0 J0.0625
G3 X-0.075 Y0.0125 I-0.0125 J0
G1 X-0.0875
G18 G3 X-0.1 Z-0.1175 I0 K0.0125
G1 Y-0.0125
Z-0.1275
G2 X-0.0875 Z-0.14 I0.0125 K0
G1 X-0.075
G17 G3 X-0.0625 Y0 I0 J0.0125
G1 Y11.9754
G2 X0 Y12.0379 I0.0625 J0
G1 X8
G2 X8.0625 Y11.9754 I0 J-0.0625
G1 Y0
G2 X8 Y-0.0625 I-0.0625 J0
G1 X0
G2 X-0.0625 Y0 I0 J0.0625
G3 X-0.075 Y0.0125 I-0.0125 J0
G1 X-0.0875
G18 G3 X-0.1 Z-0.1275 I0 K0.0125
G1 Y-0.0125
Z-0.1327
G2 X-0.0875 Z-0.1452 I0.0125 K0
G1 X-0.075
G17 G3 X-0.0625 Y0 I0 J0.0125
G1 Y11.9754
G2 X0 Y12.0379 I0.0625 J0
G1 X8
G2 X8.0625 Y11.9754 I0 J-0.0625
G1 Y0
G2 X8 Y-0.0625 I-0.0625 J0
G1 X0
G2 X-0.0625 Y0 I0 J0.0625
G3 X-0.075 Y0.0125 I-0.0125 J0
G1 X-0.0875
G18 G3 X-0.1 Z-0.1327 I0 K0.0125
G0 Z0.6
G17
G28 G91 Z0
G90
G28 G91 X0 Y0
G90
M30
%
