%
(head Fixer T side)
(T2  D=0.25 CR=0 - ZMIN=-0.233 - flat end mill)
G90
G17
G20
G28 G91 Z0
G90

(2D Contour4)
T2 M6
S10000 M3
G54
G0 X0.1141 Y3.8027
Z0.6
Z0.2
G1 Z0.08 F30
Z-0.015
Y3.8024 Z-0.0189 F60
Y3.8015 Z-0.0227
Y3.8 Z-0.0263
Y3.7979 Z-0.0297
Y3.7954 Z-0.0327
Y3.7924 Z-0.0352
X0.114 Y3.7891 Z-0.0373
Y3.7854 Z-0.0388
Y3.7816 Z-0.0397
Y3.7777 Z-0.04
X0.1139 Y3.7527
G3 X0.1388 Y3.7276 I0.025 J-0.0001
G1 X1.6939 Y3.7214
G3 X1.719 Y3.7463 I0.0001 J0.025
G1 X1.7191 Y3.7713
Y3.7752 Z-0.0397
Y3.7791 Z-0.0388
X1.7192 Y3.7827 Z-0.0373
Y3.786 Z-0.0352
Y3.789 Z-0.0327
Y3.7916 Z-0.0297
Y3.7936 Z-0.0263
Y3.7951 Z-0.0227
Y3.796 Z-0.0189
Y3.7963 Z-0.015
X0.1141 Y3.8027
Z-0.055 F30
Y3.8024 Z-0.0589 F60
Y3.8015 Z-0.0627
Y3.8 Z-0.0663
Y3.7979 Z-0.0697
Y3.7954 Z-0.0727
Y3.7924 Z-0.0752
X0.114 Y3.7891 Z-0.0773
Y3.7854 Z-0.0788
Y3.7816 Z-0.0797
Y3.7777 Z-0.08
X0.1139 Y3.7527
G3 X0.1388 Y3.7276 I0.025 J-0.0001
G1 X1.6939 Y3.7214
G3 X1.719 Y3.7463 I0.0001 J0.025
G1 X1.7191 Y3.7713
Y3.7752 Z-0.0797
Y3.7791 Z-0.0788
X1.7192 Y3.7827 Z-0.0773
Y3.786 Z-0.0752
Y3.789 Z-0.0727
Y3.7916 Z-0.0697
Y3.7936 Z-0.0663
Y3.7951 Z-0.0627
Y3.796 Z-0.0589
Y3.7963 Z-0.055
X0.1141 Y3.8027
Z-0.095 F30
Y3.8024 Z-0.0989 F60
Y3.8015 Z-0.1027
Y3.8 Z-0.1063
Y3.7979 Z-0.1097
Y3.7954 Z-0.1127
Y3.7924 Z-0.1152
X0.114 Y3.7891 Z-0.1173
Y3.7854 Z-0.1188
Y3.7816 Z-0.1197
Y3.7777 Z-0.12
X0.1139 Y3.7527
G3 X0.1388 Y3.7276 I0.025 J-0.0001
G1 X1.6939 Y3.7214
G3 X1.719 Y3.7463 I0.0001 J0.025
G1 X1.7191 Y3.7713
Y3.7752 Z-0.1197
Y3.7791 Z-0.1188
X1.7192 Y3.7827 Z-0.1173
Y3.786 Z-0.1152
Y3.789 Z-0.1127
Y3.7916 Z-0.1097
Y3.7936 Z-0.1063
Y3.7951 Z-0.1027
Y3.796 Z-0.0989
Y3.7963 Z-0.095
X0.1141 Y3.8027
Z-0.135 F30
Y3.8024 Z-0.1389 F60
Y3.8015 Z-0.1427
Y3.8 Z-0.1463
Y3.7979 Z-0.1497
Y3.7954 Z-0.1527
Y3.7924 Z-0.1552
X0.114 Y3.7891 Z-0.1573
Y3.7854 Z-0.1588
Y3.7816 Z-0.1597
Y3.7777 Z-0.16
X0.1139 Y3.7527
G3 X0.1388 Y3.7276 I0.025 J-0.0001
G1 X1.6939 Y3.7214
G3 X1.719 Y3.7463 I0.0001 J0.025
G1 X1.7191 Y3.7713
Y3.7752 Z-0.1597
Y3.7791 Z-0.1588
X1.7192 Y3.7827 Z-0.1573
Y3.786 Z-0.1552
Y3.789 Z-0.1527
Y3.7916 Z-0.1497
Y3.7936 Z-0.1463
Y3.7951 Z-0.1427
Y3.796 Z-0.1389
Y3.7963 Z-0.135
X0.1141 Y3.8027
Z-0.175 F30
Y3.8024 Z-0.1789 F60
Y3.8015 Z-0.1827
Y3.8 Z-0.1863
Y3.7979 Z-0.1897
Y3.7954 Z-0.1927
Y3.7924 Z-0.1952
X0.114 Y3.7891 Z-0.1973
Y3.7854 Z-0.1988
Y3.7816 Z-0.1997
Y3.7777 Z-0.2
X0.1139 Y3.7527
G3 X0.1388 Y3.7276 I0.025 J-0.0001
G1 X1.6939 Y3.7214
G3 X1.719 Y3.7463 I0.0001 J0.025
G1 X1.7191 Y3.7713
Y3.7752 Z-0.1997
Y3.7791 Z-0.1988
X1.7192 Y3.7827 Z-0.1973
Y3.786 Z-0.1952
Y3.789 Z-0.1927
Y3.7916 Z-0.1897
Y3.7936 Z-0.1863
Y3.7951 Z-0.1827
Y3.796 Z-0.1789
Y3.7963 Z-0.175
X0.1141 Y3.8027
Z-0.208 F30
Y3.8024 Z-0.2119 F60
Y3.8015 Z-0.2157
Y3.8 Z-0.2193
Y3.7979 Z-0.2227
Y3.7954 Z-0.2257
Y3.7924 Z-0.2282
X0.114 Y3.7891 Z-0.2303
Y3.7854 Z-0.2318
Y3.7816 Z-0.2327
Y3.7777 Z-0.233
X0.1139 Y3.7527
G3 X0.1388 Y3.7276 I0.025 J-0.0001
G1 X1.6939 Y3.7214
G3 X1.719 Y3.7463 I0.0001 J0.025
G1 X1.7191 Y3.7713
Y3.7752 Z-0.2327
Y3.7791 Z-0.2318
X1.7192 Y3.7827 Z-0.2303
Y3.786 Z-0.2282
Y3.789 Z-0.2257
Y3.7916 Z-0.2227
Y3.7936 Z-0.2193
Y3.7951 Z-0.2157
Y3.796 Z-0.2119
Y3.7963 Z-0.208
G0 Z0.6
G28 G91 Z0
G90
G28 G91 X0 Y0
G90
M30
%
