%
(head Fixer bottom )
(T2  D=0.25 CR=0 - ZMIN=-0.233 - flat end mill)
G90
G17
G20
G28 G91 Z0
G90

(2D Contour4)
T2 M6
S10000 M3
G54
G0 X0.2575 Y0.0557
Z0.6
Z0.2
G1 Z0.08 F30
Z-0.015
Y0.056 Z-0.0189 F60
Y0.0569 Z-0.0227
Y0.0584 Z-0.0263
Y0.0604 Z-0.0297
Y0.063 Z-0.0327
Y0.066 Z-0.0352
Y0.0693 Z-0.0373
Y0.0729 Z-0.0388
X0.2576 Y0.0767 Z-0.0397
Y0.0807 Z-0.04
X0.2577 Y0.1057
G3 X0.2328 Y0.1308 I-0.025 J0.0001
G1 X0.1245 Y0.1312
G3 X0.0994 Y0.1063 I-0.0001 J-0.025
G1 X0.0993 Y0.0813
Y0.0774 Z-0.0397
Y0.0736 Z-0.0388
Y0.0699 Z-0.0373
X0.0992 Y0.0666 Z-0.0352
Y0.0636 Z-0.0327
Y0.0611 Z-0.0297
Y0.059 Z-0.0263
Y0.0575 Z-0.0227
Y0.0566 Z-0.0189
Y0.0563 Z-0.015
X0.2575 Y0.0557
Z-0.055 F30
Y0.056 Z-0.0589 F60
Y0.0569 Z-0.0627
Y0.0584 Z-0.0663
Y0.0604 Z-0.0697
Y0.063 Z-0.0727
Y0.066 Z-0.0752
Y0.0693 Z-0.0773
Y0.0729 Z-0.0788
X0.2576 Y0.0767 Z-0.0797
Y0.0807 Z-0.08
X0.2577 Y0.1057
G3 X0.2328 Y0.1308 I-0.025 J0.0001
G1 X0.1245 Y0.1312
G3 X0.0994 Y0.1063 I-0.0001 J-0.025
G1 X0.0993 Y0.0813
Y0.0774 Z-0.0797
Y0.0736 Z-0.0788
Y0.0699 Z-0.0773
X0.0992 Y0.0666 Z-0.0752
Y0.0636 Z-0.0727
Y0.0611 Z-0.0697
Y0.059 Z-0.0663
Y0.0575 Z-0.0627
Y0.0566 Z-0.0589
Y0.0563 Z-0.055
X0.2575 Y0.0557
Z-0.095 F30
Y0.056 Z-0.0989 F60
Y0.0569 Z-0.1027
Y0.0584 Z-0.1063
Y0.0604 Z-0.1097
Y0.063 Z-0.1127
Y0.066 Z-0.1152
Y0.0693 Z-0.1173
Y0.0729 Z-0.1188
X0.2576 Y0.0767 Z-0.1197
Y0.0807 Z-0.12
X0.2577 Y0.1057
G3 X0.2328 Y0.1308 I-0.025 J0.0001
G1 X0.1245 Y0.1312
G3 X0.0994 Y0.1063 I-0.0001 J-0.025
G1 X0.0993 Y0.0813
Y0.0774 Z-0.1197
Y0.0736 Z-0.1188
Y0.0699 Z-0.1173
X0.0992 Y0.0666 Z-0.1152
Y0.0636 Z-0.1127
Y0.0611 Z-0.1097
Y0.059 Z-0.1063
Y0.0575 Z-0.1027
Y0.0566 Z-0.0989
Y0.0563 Z-0.095
X0.2575 Y0.0557
Z-0.135 F30
Y0.056 Z-0.1389 F60
Y0.0569 Z-0.1427
Y0.0584 Z-0.1463
Y0.0604 Z-0.1497
Y0.063 Z-0.1527
Y0.066 Z-0.1552
Y0.0693 Z-0.1573
Y0.0729 Z-0.1588
X0.2576 Y0.0767 Z-0.1597
Y0.0807 Z-0.16
X0.2577 Y0.1057
G3 X0.2328 Y0.1308 I-0.025 J0.0001
G1 X0.1245 Y0.1312
G3 X0.0994 Y0.1063 I-0.0001 J-0.025
G1 X0.0993 Y0.0813
Y0.0774 Z-0.1597
Y0.0736 Z-0.1588
Y0.0699 Z-0.1573
X0.0992 Y0.0666 Z-0.1552
Y0.0636 Z-0.1527
Y0.0611 Z-0.1497
Y0.059 Z-0.1463
Y0.0575 Z-0.1427
Y0.0566 Z-0.1389
Y0.0563 Z-0.135
X0.2575 Y0.0557
Z-0.175 F30
Y0.056 Z-0.1789 F60
Y0.0569 Z-0.1827
Y0.0584 Z-0.1863
Y0.0604 Z-0.1897
Y0.063 Z-0.1927
Y0.066 Z-0.1952
Y0.0693 Z-0.1973
Y0.0729 Z-0.1988
X0.2576 Y0.0767 Z-0.1997
Y0.0807 Z-0.2
X0.2577 Y0.1057
G3 X0.2328 Y0.1308 I-0.025 J0.0001
G1 X0.1245 Y0.1312
G3 X0.0994 Y0.1063 I-0.0001 J-0.025
G1 X0.0993 Y0.0813
Y0.0774 Z-0.1997
Y0.0736 Z-0.1988
Y0.0699 Z-0.1973
X0.0992 Y0.0666 Z-0.1952
Y0.0636 Z-0.1927
Y0.0611 Z-0.1897
Y0.059 Z-0.1863
Y0.0575 Z-0.1827
Y0.0566 Z-0.1789
Y0.0563 Z-0.175
X0.2575 Y0.0557
Z-0.208 F30
Y0.056 Z-0.2119 F60
Y0.0569 Z-0.2157
Y0.0584 Z-0.2193
Y0.0604 Z-0.2227
Y0.063 Z-0.2257
Y0.066 Z-0.2282
Y0.0693 Z-0.2303
Y0.0729 Z-0.2318
X0.2576 Y0.0767 Z-0.2327
Y0.0807 Z-0.233
X0.2577 Y0.1057
G3 X0.2328 Y0.1308 I-0.025 J0.0001
G1 X0.1245 Y0.1312
G3 X0.0994 Y0.1063 I-0.0001 J-0.025
G1 X0.0993 Y0.0813
Y0.0774 Z-0.2327
Y0.0736 Z-0.2318
Y0.0699 Z-0.2303
X0.0992 Y0.0666 Z-0.2282
Y0.0636 Z-0.2257
Y0.0611 Z-0.2227
Y0.059 Z-0.2193
Y0.0575 Z-0.2157
Y0.0566 Z-0.2119
Y0.0563 Z-0.208
Z-0.015
X1.7043 Y0.0499
Y0.0502 Z-0.0189
Y0.0511 Z-0.0227
Y0.0526 Z-0.0263
Y0.0547 Z-0.0297
Y0.0572 Z-0.0327
X1.7044 Y0.0602 Z-0.0352
Y0.0636 Z-0.0373
Y0.0672 Z-0.0388
Y0.071 Z-0.0397
Y0.0749 Z-0.04
X1.7045 Y0.0999
G3 X1.6796 Y0.125 I-0.025 J0.0001
G1 X1.5713 Y0.1254
G3 X1.5462 Y0.1005 I-0.0001 J-0.025
G1 X1.5461 Y0.0755
Y0.0716 Z-0.0397
Y0.0678 Z-0.0388
Y0.0642 Z-0.0373
Y0.0608 Z-0.0352
Y0.0579 Z-0.0327
Y0.0553 Z-0.0297
Y0.0533 Z-0.0263
X1.546 Y0.0518 Z-0.0227
Y0.0508 Z-0.0189
Y0.0505 Z-0.015
X1.7043 Y0.0499
Z-0.055 F30
Y0.0502 Z-0.0589 F60
Y0.0511 Z-0.0627
Y0.0526 Z-0.0663
Y0.0547 Z-0.0697
Y0.0572 Z-0.0727
X1.7044 Y0.0602 Z-0.0752
Y0.0636 Z-0.0773
Y0.0672 Z-0.0788
Y0.071 Z-0.0797
Y0.0749 Z-0.08
X1.7045 Y0.0999
G3 X1.6796 Y0.125 I-0.025 J0.0001
G1 X1.5713 Y0.1254
G3 X1.5462 Y0.1005 I-0.0001 J-0.025
G1 X1.5461 Y0.0755
Y0.0716 Z-0.0797
Y0.0678 Z-0.0788
Y0.0642 Z-0.0773
Y0.0608 Z-0.0752
Y0.0579 Z-0.0727
Y0.0553 Z-0.0697
Y0.0533 Z-0.0663
X1.546 Y0.0518 Z-0.0627
Y0.0508 Z-0.0589
Y0.0505 Z-0.055
X1.7043 Y0.0499
Z-0.095 F30
Y0.0502 Z-0.0989 F60
Y0.0511 Z-0.1027
Y0.0526 Z-0.1063
Y0.0547 Z-0.1097
Y0.0572 Z-0.1127
X1.7044 Y0.0602 Z-0.1152
Y0.0636 Z-0.1173
Y0.0672 Z-0.1188
Y0.071 Z-0.1197
Y0.0749 Z-0.12
X1.7045 Y0.0999
G3 X1.6796 Y0.125 I-0.025 J0.0001
G1 X1.5713 Y0.1254
G3 X1.5462 Y0.1005 I-0.0001 J-0.025
G1 X1.5461 Y0.0755
Y0.0716 Z-0.1197
Y0.0678 Z-0.1188
Y0.0642 Z-0.1173
Y0.0608 Z-0.1152
Y0.0579 Z-0.1127
Y0.0553 Z-0.1097
Y0.0533 Z-0.1063
X1.546 Y0.0518 Z-0.1027
Y0.0508 Z-0.0989
Y0.0505 Z-0.095
X1.7043 Y0.0499
Z-0.135 F30
Y0.0502 Z-0.1389 F60
Y0.0511 Z-0.1427
Y0.0526 Z-0.1463
Y0.0547 Z-0.1497
Y0.0572 Z-0.1527
X1.7044 Y0.0602 Z-0.1552
Y0.0636 Z-0.1573
Y0.0672 Z-0.1588
Y0.071 Z-0.1597
Y0.0749 Z-0.16
X1.7045 Y0.0999
G3 X1.6796 Y0.125 I-0.025 J0.0001
G1 X1.5713 Y0.1254
G3 X1.5462 Y0.1005 I-0.0001 J-0.025
G1 X1.5461 Y0.0755
Y0.0716 Z-0.1597
Y0.0678 Z-0.1588
Y0.0642 Z-0.1573
Y0.0608 Z-0.1552
Y0.0579 Z-0.1527
Y0.0553 Z-0.1497
Y0.0533 Z-0.1463
X1.546 Y0.0518 Z-0.1427
Y0.0508 Z-0.1389
Y0.0505 Z-0.135
X1.7043 Y0.0499
Z-0.175 F30
Y0.0502 Z-0.1789 F60
Y0.0511 Z-0.1827
Y0.0526 Z-0.1863
Y0.0547 Z-0.1897
Y0.0572 Z-0.1927
X1.7044 Y0.0602 Z-0.1952
Y0.0636 Z-0.1973
Y0.0672 Z-0.1988
Y0.071 Z-0.1997
Y0.0749 Z-0.2
X1.7045 Y0.0999
G3 X1.6796 Y0.125 I-0.025 J0.0001
G1 X1.5713 Y0.1254
G3 X1.5462 Y0.1005 I-0.0001 J-0.025
G1 X1.5461 Y0.0755
Y0.0716 Z-0.1997
Y0.0678 Z-0.1988
Y0.0642 Z-0.1973
Y0.0608 Z-0.1952
Y0.0579 Z-0.1927
Y0.0553 Z-0.1897
Y0.0533 Z-0.1863
X1.546 Y0.0518 Z-0.1827
Y0.0508 Z-0.1789
Y0.0505 Z-0.175
X1.7043 Y0.0499
Z-0.208 F30
Y0.0502 Z-0.2119 F60
Y0.0511 Z-0.2157
Y0.0526 Z-0.2193
Y0.0547 Z-0.2227
Y0.0572 Z-0.2257
X1.7044 Y0.0602 Z-0.2282
Y0.0636 Z-0.2303
Y0.0672 Z-0.2318
Y0.071 Z-0.2327
Y0.0749 Z-0.233
X1.7045 Y0.0999
G3 X1.6796 Y0.125 I-0.025 J0.0001
G1 X1.5713 Y0.1254
G3 X1.5462 Y0.1005 I-0.0001 J-0.025
G1 X1.5461 Y0.0755
Y0.0716 Z-0.2327
Y0.0678 Z-0.2318
Y0.0642 Z-0.2303
Y0.0608 Z-0.2282
Y0.0579 Z-0.2257
Y0.0553 Z-0.2227
Y0.0533 Z-0.2193
X1.546 Y0.0518 Z-0.2157
Y0.0508 Z-0.2119
Y0.0505 Z-0.208
G0 Z0.6
G28 G91 Z0
G90
G28 G91 X0 Y0
G90
M30
%
