%
(lid)
(T1  D=0.25 CR=0 - ZMIN=-0.1252 - flat end mill)
G90
G17
G20
G28 G91 Z0
G90

(2D Contour1)
T1 M6
S10000 M3
G54
G0 X8.2 Y12.0004
Z0.6
Z0.2
G1 Z0.08 F30
Z-0.015
G18 G3 X8.175 Z-0.04 I-0.025 K0 F60
G1 X8.15
G17 G3 X8.125 Y11.9754 I0 J-0.025
G1 Y0
G3 X8.15 Y-0.025 I0.025 J0
G1 X8.175
G18 G2 X8.2 Z-0.015 I0 K0.025
G0 Z0.2
Y12.0004
G1 Z0.04 F30
Z-0.055
G3 X8.175 Z-0.08 I-0.025 K0 F60
G1 X8.15
G17 G3 X8.125 Y11.9754 I0 J-0.025
G1 Y0
G3 X8.15 Y-0.025 I0.025 J0
G1 X8.175
G18 G2 X8.2 Z-0.055 I0 K0.025
G0 Z0.2
Y12.0004
G1 Z0 F30
Z-0.0776
G3 X8.175 Z-0.1026 I-0.025 K0 F60
G1 X8.15
G17 G3 X8.125 Y11.9754 I0 J-0.025
G1 Y0
G3 X8.15 Y-0.025 I0.025 J0
G1 X8.175
G18 G2 X8.2 Z-0.0776 I0 K0.025
G0 Z0.2
Y12.0004
G1 Z-0.0226 F30
Z-0.1002
G3 X8.175 Z-0.1252 I-0.025 K0 F60
G1 X8.15
G17 G3 X8.125 Y11.9754 I0 J-0.025
G1 Y0
G3 X8.15 Y-0.025 I0.025 J0
G1 X8.175
G18 G2 X8.2 Z-0.1002 I0 K0.025
G0 Z0.6
G17
G28 G91 Z0
G90
G28 G91 X0 Y0
G90
M30
%
