%
(24x24 Rebuild Rig leg 4)
(T1  D=0.25 CR=0 - ZMIN=-0.1201 - flat end mill)
G90
G17
G20
G28 G91 Z0
G90

(2D Contour2)
T1 M6
S10000 M3
G54
G0 X17.8776 Y11.7882
Z0.6
Z0.2
G1 Z0.08 F30
Z-0.04
Y-0.0281 F60
G2 X17.7526 Y-0.1531 I-0.125 J0
G1 X9.7526
G2 X9.6276 Y-0.0281 I0 J0.125
G1 Y11.9473
G2 X9.7526 Y12.0723 I0.125 J0
G1 X17.7526
G2 X17.8776 Y11.9473 I0 J-0.125
G1 Y11.7882
Z-0.08 F30
Y-0.0281 F60
G2 X17.7526 Y-0.1531 I-0.125 J0
G1 X9.7526
G2 X9.6276 Y-0.0281 I0 J0.125
G1 Y11.9473
G2 X9.7526 Y12.0723 I0.125 J0
G1 X17.7526
G2 X17.8776 Y11.9473 I0 J-0.125
G1 Y11.7882
Z-0.1201 F30
Y-0.0281 F60
G2 X17.7526 Y-0.1531 I-0.125 J0
G1 X9.7526
G2 X9.6276 Y-0.0281 I0 J0.125
G1 Y11.9473
G2 X9.7526 Y12.0723 I0.125 J0
G1 X17.7526
G2 X17.8776 Y11.9473 I0 J-0.125
G1 Y11.7882
G0 Z0.6
G28 G91 Z0
G90
G28 G91 X0 Y0
G90
M30
%
