%
(24x24 Rebuild Rig leg 3)
(T1  D=0.25 CR=0 - ZMIN=-0.1201 - flat end mill)
G90
G17
G20
G28 G91 Z0
G90

(2D Contour2)
T1 M6
S10000 M3
G54
G0 X13.7408 Y12.1858
Z0.6
Z0.2
G1 Z0.08 F30
Z-0.04
X9.7408 F60
G2 X9.6158 Y12.3108 I0 J0.125
G1 Y21.7202
G2 X9.7408 Y21.8452 I0.125 J0
G1 X17.7408
G2 X17.8658 Y21.7202 I0 J-0.125
G1 Y12.3108
G2 X17.7408 Y12.1858 I-0.125 J0
G1 X13.7408
Z-0.08 F30
X9.7408 F60
G2 X9.6158 Y12.3108 I0 J0.125
G1 Y21.7202
G2 X9.7408 Y21.8452 I0.125 J0
G1 X17.7408
G2 X17.8658 Y21.7202 I0 J-0.125
G1 Y12.3108
G2 X17.7408 Y12.1858 I-0.125 J0
G1 X13.7408
Z-0.1201 F30
X9.7408 F60
G2 X9.6158 Y12.3108 I0 J0.125
G1 Y21.7202
G2 X9.7408 Y21.8452 I0.125 J0
G1 X17.7408
G2 X17.8658 Y21.7202 I0 J-0.125
G1 Y12.3108
G2 X17.7408 Y12.1858 I-0.125 J0
G1 X13.7408
G0 Z0.6
G28 G91 Z0
G90
G28 G91 X0 Y0
G90
M30
%
