%
(24x24 Rebuild Rig lid)
(T1  D=0.25 CR=0 - ZMIN=-0.1201 - flat end mill)
G90
G17
G20
G28 G91 Z0
G90

(2D Contour2)
T1 M6
S10000 M3
G54
G0 X4.7101 Y11.9735
Z0.6
Z0.2
G1 Z0.08 F30
Z-0.04
X0.0054 F60
G2 X-0.1196 Y12.0985 I0 J0.125
G1 Y23.9489
G2 X0.0054 Y24.0739 I0.125 J0
G1 X9.4148
G2 X9.5398 Y23.9489 I0 J-0.125
G1 Y12.0985
G2 X9.4148 Y11.9735 I-0.125 J0
G1 X4.7101
Z-0.08 F30
X0.0054 F60
G2 X-0.1196 Y12.0985 I0 J0.125
G1 Y23.9489
G2 X0.0054 Y24.0739 I0.125 J0
G1 X9.4148
G2 X9.5398 Y23.9489 I0 J-0.125
G1 Y12.0985
G2 X9.4148 Y11.9735 I-0.125 J0
G1 X4.7101
Z-0.1201 F30
X0.0054 F60
G2 X-0.1196 Y12.0985 I0 J0.125
G1 Y23.9489
G2 X0.0054 Y24.0739 I0.125 J0
G1 X9.4148
G2 X9.5398 Y23.9489 I0 J-0.125
G1 Y12.0985
G2 X9.4148 Y11.9735 I-0.125 J0
G1 X4.7101
G0 Z0.6
G28 G91 Z0
G90
G28 G91 X0 Y0
G90
M30
%
