%
(24x24 Rebuild Rig Back Piece)
(T1  D=0.25 CR=0 - ZMIN=-0.1201 - flat end mill)
G90
G17
G20
G28 G91 Z0
G90

(2D Contour2)
T1 M6
S10000 M3
G54
G0 X4.7047 Y-0.131
Z0.6
Z0.2
G1 Z0.08 F30
Z-0.04
X0 F60
G2 X-0.125 Y-0.006 I0 J0.125
G1 Y11.8444
G2 X0 Y11.9694 I0.125 J0
G1 X9.4094
G2 X9.5344 Y11.8444 I0 J-0.125
G1 Y-0.006
G2 X9.4094 Y-0.131 I-0.125 J0
G1 X4.7047
Z-0.08 F30
X0 F60
G2 X-0.125 Y-0.006 I0 J0.125
G1 Y11.8444
G2 X0 Y11.9694 I0.125 J0
G1 X9.4094
G2 X9.5344 Y11.8444 I0 J-0.125
G1 Y-0.006
G2 X9.4094 Y-0.131 I-0.125 J0
G1 X4.7047
Z-0.1201 F30
X0 F60
G2 X-0.125 Y-0.006 I0 J0.125
G1 Y11.8444
G2 X0 Y11.9694 I0.125 J0
G1 X9.4094
G2 X9.5344 Y11.8444 I0 J-0.125
G1 Y-0.006
G2 X9.4094 Y-0.131 I-0.125 J0
G1 X4.7047
G0 Z0.6
G28 G91 Z0
G90
G28 G91 X0 Y0
G90
M30
%
